(Projekt becken-stirn)
(Erstellt mit Estlcam 2.5D Version 7 Build 7,101)
(Fraesrichtung: Gegenlauf)
(Nullpunkt: Auf Teileoberseite)
(Maximale Fraestiefe: 3,00mm)
(Verwendete Werkzeuge:)
(Fraeser 3 mm)

G90
M03
G00 Z5.0000

(Nr. 1 Bohrung 1)
G00 X31.0000 Y100.0000
G00 Z0.5000
G01 Z-1.0000 F300 S24000
G00 Z0.5000
G00 Z-0.5000
G01 Z-2.0000
G00 Z0.5000
G00 Z-1.5000
G01 Z-3.0000
G00 Z0.5000
G00 Z5.0000

(Nr. 2 Bohrung 2)
G00 X61.0000
G00 Z0.5000
G01 Z-1.0000
G00 Z0.5000
G00 Z-0.5000
G01 Z-2.0000
G00 Z0.5000
G00 Z-1.5000
G01 Z-3.0000
G00 Z0.5000
G00 Z5.0000

(Nr. 3 Teil 1)
G00 X75.3656 Y111.5000
G00 Z0.5000
G01 Z-1.0000
G01 X16.6342 F2000
G03 X15.1520 Y110.2304 I0.0000 J-1.5000
G01 X-1.4822 Y3.2304
G01 X-1.4989 Y3.0578
G01 X-1.5000 Y0.0000
G03 X-0.0523 Y-1.4991 I1.5000 J0.0000
G01 X92.0000 Y-1.5000
G03 X93.5000 Y0.0000 I0.0000 J1.5000
G01 Y3.0000
G01 X93.4900 Y3.1731
G01 X76.8478 Y110.2304
G03 X75.3656 Y111.5000 I-1.4822 J-0.2304
G01 Z-2.0000 F300
G01 X16.6342 F2000
G03 X15.1520 Y110.2304 I0.0000 J-1.5000
G01 X-1.4822 Y3.2304
G01 X-1.4989 Y3.0578
G01 X-1.5000 Y0.0000
G03 X-0.0523 Y-1.4991 I1.5000 J0.0000
G01 X92.0000 Y-1.5000
G03 X93.5000 Y0.0000 I0.0000 J1.5000
G01 Y3.0000
G01 X93.4900 Y3.1731
G01 X76.8478 Y110.2304
G03 X75.3656 Y111.5000 I-1.4822 J-0.2304
G01 Z-3.0000 F300
G01 X16.6342 F2000
G03 X15.1520 Y110.2304 I0.0000 J-1.5000
G01 X-1.4822 Y3.2304
G01 X-1.4989 Y3.0578
G01 X-1.5000 Y0.0000
G03 X-0.0523 Y-1.4991 I1.5000 J0.0000
G01 X92.0000 Y-1.5000
G03 X93.5000 Y0.0000 I0.0000 J1.5000
G01 Y3.0000
G01 X93.4900 Y3.1731
G01 X76.8478 Y110.2304
G03 X75.3656 Y111.5000 I-1.4822 J-0.2304
G00 Z5.0000

(Nr. 4 Bohrung 3)
G00 X115.0000 Y10.0000
G00 Z0.5000
G01 Z-1.0000 F300
G00 Z0.5000
G00 Z-0.5000
G01 Z-2.0000
G00 Z0.5000
G00 Z-1.5000
G01 Z-3.0000
G00 Z0.5000
G00 Z5.0000

(Nr. 5 Bohrung 4)
G00 X145.0000
G00 Z0.5000
G01 Z-1.0000
G00 Z0.5000
G00 Z-0.5000
G01 Z-2.0000
G00 Z0.5000
G00 Z-1.5000
G01 Z-3.0000
G00 Z0.5000
G00 Z5.0000

(Nr. 6 Teil 2)
G00 X159.3658 Y-1.5000
G00 Z0.5000
G01 Z-1.0000
G03 X160.8480 Y-0.2304 I0.0000 J1.5000 F2000
G01 X177.4822 Y106.7696
G03 X177.5000 Y107.0000 I-1.4812 J0.2304
G01 Y110.0000
G03 X176.0523 Y111.4991 I-1.5000 J0.0000
G01 X84.0000 Y111.5000
G03 X82.5000 Y110.0000 I0.0000 J-1.5000
G01 Y107.0000
G03 X82.5178 Y106.7696 I1.5012 J0.0001
G01 X99.1523 Y-0.2304
G03 X100.5826 Y-1.4991 I1.4822 J0.2304
G01 X159.3658 Y-1.5000
G01 Z-2.0000 F300
G03 X160.8480 Y-0.2304 I0.0000 J1.5000 F2000
G01 X177.4822 Y106.7696
G03 X177.5000 Y107.0000 I-1.4812 J0.2304
G01 Y110.0000
G03 X176.0523 Y111.4991 I-1.5000 J0.0000
G01 X84.0000 Y111.5000
G03 X82.5000 Y110.0000 I0.0000 J-1.5000
G01 Y107.0000
G03 X82.5178 Y106.7696 I1.5012 J0.0001
G01 X99.1523 Y-0.2304
G03 X100.5826 Y-1.4991 I1.4822 J0.2304
G01 X159.3658 Y-1.5000
G01 Z-3.0000 F300
G03 X160.8480 Y-0.2304 I0.0000 J1.5000 F2000
G01 X177.4822 Y106.7696
G03 X177.5000 Y107.0000 I-1.4812 J0.2304
G01 Y110.0000
G03 X176.0523 Y111.4991 I-1.5000 J0.0000
G01 X84.0000 Y111.5000
G03 X82.5000 Y110.0000 I0.0000 J-1.5000
G01 Y107.0000
G03 X82.5178 Y106.7696 I1.5012 J0.0001
G01 X99.1523 Y-0.2304
G03 X100.5826 Y-1.4991 I1.4822 J0.2304
G01 X159.3658 Y-1.5000
G00 Z5.0000
G00 X0.0000 Y0.0000

M05
M30
