(Projekt becken-seite-2x)
(Erstellt mit Estlcam 2.5D Version 7 Build 7,101)
(Fraesrichtung: Gegenlauf)
(Nullpunkt: Auf Teileoberseite)
(Maximale Fraestiefe: 3,00mm)
(Verwendete Werkzeuge:)
(Fraeser 3 mm)

G90
M03
G00 Z5.0000

(Nr. 1 Teil 2)
G00 X1.5000 Y0.0000
G00 Z0.5000
G01 Z-1.0000 F300 S24000
G03 X3.0000 Y-1.5000 I1.5000 J0.0000 F2000
G01 X323.0005 Y-1.4995
G03 X324.5005 Y0.0005 I0.0000 J1.5000
G01 Y106.7862
G01 X326.0002 Y106.7865
G03 X327.4991 Y108.2341 I-0.0002 J1.5000
G01 X327.5000 Y148.7860
G03 X326.0000 Y150.2860 I-1.5000 J0.0000
G01 X0.0000
G03 X-1.5000 Y148.7860 I0.0000 J-1.5000
G01 Y108.2860
G03 X0.0000 Y106.7860 I1.5000 J0.0000
G01 X1.5000
G01 Y0.0000
G01 Z-2.0000 F300
G03 X3.0000 Y-1.5000 I1.5000 J0.0000 F2000
G01 X323.0005 Y-1.4995
G03 X324.5005 Y0.0005 I0.0000 J1.5000
G01 Y106.7862
G01 X326.0002 Y106.7865
G03 X327.4991 Y108.2341 I-0.0002 J1.5000
G01 X327.5000 Y148.7860
G03 X326.0000 Y150.2860 I-1.5000 J0.0000
G01 X0.0000
G03 X-1.5000 Y148.7860 I0.0000 J-1.5000
G01 Y108.2860
G03 X0.0000 Y106.7860 I1.5000 J0.0000
G01 X1.5000
G01 Y0.0000
G01 Z-3.0000 F300
G03 X3.0000 Y-1.5000 I1.5000 J0.0000 F2000
G01 X323.0005 Y-1.4995
G03 X324.5005 Y0.0005 I0.0000 J1.5000
G01 Y106.7862
G01 X326.0002 Y106.7865
G03 X327.4991 Y108.2341 I-0.0002 J1.5000
G01 X327.5000 Y148.7860
G03 X326.0000 Y150.2860 I-1.5000 J0.0000
G01 X0.0000
G03 X-1.5000 Y148.7860 I0.0000 J-1.5000
G01 Y108.2860
G03 X0.0000 Y106.7860 I1.5000 J0.0000
G01 X1.5000
G01 Y0.0000
G00 Z5.0000

(Nr. 2 Teil 1)
G00 X3.0000 Y168.5000
G00 Z0.5000
G01 Z-1.0000 F300
G01 X323.0005 Y168.5005 F2000
G03 X324.5005 Y170.0005 I0.0000 J1.5000
G01 Y276.7863
G01 X326.0002 Y276.7865
G03 X327.4991 Y278.2341 I-0.0002 J1.5000
G01 X327.5000 Y318.7860
G03 X326.0000 Y320.2860 I-1.5000 J0.0000
G01 X0.0000
G03 X-1.5000 Y318.7860 I0.0000 J-1.5000
G01 Y278.2860
G03 X0.0000 Y276.7860 I1.5000 J0.0000
G01 X1.5000
G01 Y170.0000
G03 X3.0000 Y168.5000 I1.5000 J0.0000
G01 Z-2.0000 F300
G01 X323.0005 Y168.5005 F2000
G03 X324.5005 Y170.0005 I0.0000 J1.5000
G01 Y276.7863
G01 X326.0002 Y276.7865
G03 X327.4991 Y278.2341 I-0.0002 J1.5000
G01 X327.5000 Y318.7860
G03 X326.0000 Y320.2860 I-1.5000 J0.0000
G01 X0.0000
G03 X-1.5000 Y318.7860 I0.0000 J-1.5000
G01 Y278.2860
G03 X0.0000 Y276.7860 I1.5000 J0.0000
G01 X1.5000
G01 Y170.0000
G03 X3.0000 Y168.5000 I1.5000 J0.0000
G01 Z-3.0000 F300
G01 X323.0005 Y168.5005 F2000
G03 X324.5005 Y170.0005 I0.0000 J1.5000
G01 Y276.7863
G01 X326.0002 Y276.7865
G03 X327.4991 Y278.2341 I-0.0002 J1.5000
G01 X327.5000 Y318.7860
G03 X326.0000 Y320.2860 I-1.5000 J0.0000
G01 X0.0000
G03 X-1.5000 Y318.7860 I0.0000 J-1.5000
G01 Y278.2860
G03 X0.0000 Y276.7860 I1.5000 J0.0000
G01 X1.5000
G01 Y170.0000
G03 X3.0000 Y168.5000 I1.5000 J0.0000
G00 Z5.0000
G00 X0.0000 Y0.0000

M05
M30
