(Projekt kamin-2x)
(Erstellt mit Estlcam 2.5D Version 7 Build 7,101)
(Fraesrichtung: Gegenlauf)
(Nullpunkt: Auf Teileoberseite)
(Maximale Fraestiefe: 3,00mm)
(Verwendete Werkzeuge:)
(Fraeser 3 mm)

G90
M03
G00 Z5.0000

(Nr. 1 Teil 2)
G00 X-1.5000 Y0.0000
G00 Z0.5000
G01 Z-1.0000 F300 S24000
G03 X0.0000 Y-1.5000 I1.5000 J0.0000 F2000
G01 X320.0000
G03 X321.5000 Y0.0000 I0.0000 J1.5000
G01 Y131.0990
G03 X320.0000 Y132.5990 I-1.5000 J0.0000
G01 X0.0000
G03 X-1.5000 Y131.0990 I0.0000 J-1.5000
G01 Y0.0000
G01 Z-2.0000 F300
G03 X0.0000 Y-1.5000 I1.5000 J0.0000 F2000
G01 X320.0000
G03 X321.5000 Y0.0000 I0.0000 J1.5000
G01 Y131.0990
G03 X320.0000 Y132.5990 I-1.5000 J0.0000
G01 X0.0000
G03 X-1.5000 Y131.0990 I0.0000 J-1.5000
G01 Y0.0000
G01 Z-3.0000 F300
G03 X0.0000 Y-1.5000 I1.5000 J0.0000 F2000
G01 X320.0000
G03 X321.5000 Y0.0000 I0.0000 J1.5000
G01 Y131.0990
G03 X320.0000 Y132.5990 I-1.5000 J0.0000
G01 X0.0000
G03 X-1.5000 Y131.0990 I0.0000 J-1.5000
G01 Y0.0000
G00 Z5.0000

(Nr. 2 Teil 1)
G00 X0.0000 Y139.5000
G00 Z0.5000
G01 Z-1.0000 F300
G01 X320.0000 F2000
G03 X321.5000 Y141.0000 I0.0000 J1.5000
G01 Y272.0990
G03 X320.0000 Y273.5990 I-1.5000 J0.0000
G01 X0.0000
G03 X-1.5000 Y272.0990 I0.0000 J-1.5000
G01 Y141.0000
G03 X0.0000 Y139.5000 I1.5000 J0.0000
G01 Z-2.0000 F300
G01 X320.0000 F2000
G03 X321.5000 Y141.0000 I0.0000 J1.5000
G01 Y272.0990
G03 X320.0000 Y273.5990 I-1.5000 J0.0000
G01 X0.0000
G03 X-1.5000 Y272.0990 I0.0000 J-1.5000
G01 Y141.0000
G03 X0.0000 Y139.5000 I1.5000 J0.0000
G01 Z-3.0000 F300
G01 X320.0000 F2000
G03 X321.5000 Y141.0000 I0.0000 J1.5000
G01 Y272.0990
G03 X320.0000 Y273.5990 I-1.5000 J0.0000
G01 X0.0000
G03 X-1.5000 Y272.0990 I0.0000 J-1.5000
G01 Y141.0000
G03 X0.0000 Y139.5000 I1.5000 J0.0000
G00 Z5.0000
G00 Y0.0000

M05
M30
