(Projekt lufteinlass-2x)
(Erstellt mit Estlcam 2.5D Version 7 Build 7,101)
(Fraesrichtung: Gegenlauf)
(Nullpunkt: Auf Teileoberseite)
(Maximale Fraestiefe: 3,00mm)
(Verwendete Werkzeuge:)
(Fraeser 3 mm)

G90
M03
G00 Z5.0000

(Nr. 1 Bohrung 24)
G00 X4.2500 Y82.5835
G00 Z0.5000
G01 Z-1.0000 F300 S24000
G00 Z0.5000
G00 Z-0.5000
G01 Z-2.0000
G00 Z0.5000
G00 Z-1.5000
G01 Z-3.0000
G00 Z0.5000
G00 Z5.0000

(Nr. 2 Bohrung 21)
G00 X75.7500
G00 Z0.5000
G01 Z-1.0000
G00 Z0.5000
G00 Z-0.5000
G01 Z-2.0000
G00 Z0.5000
G00 Z-1.5000
G01 Z-3.0000
G00 Z0.5000
G00 Z5.0000

(Nr. 3 Bohrung 20)
G00 X84.2500
G00 Z0.5000
G01 Z-1.0000
G00 Z0.5000
G00 Z-0.5000
G01 Z-2.0000
G00 Z0.5000
G00 Z-1.5000
G01 Z-3.0000
G00 Z0.5000
G00 Z5.0000

(Nr. 4 Bohrung 17)
G00 X155.7500
G00 Z0.5000
G01 Z-1.0000
G00 Z0.5000
G00 Z-0.5000
G01 Z-2.0000
G00 Z0.5000
G00 Z-1.5000
G01 Z-3.0000
G00 Z0.5000
G00 Z5.0000

(Nr. 5 Bohrung 18)
G00 X164.2500
G00 Z0.5000
G01 Z-1.0000
G00 Z0.5000
G00 Z-0.5000
G01 Z-2.0000
G00 Z0.5000
G00 Z-1.5000
G01 Z-3.0000
G00 Z0.5000
G00 Z5.0000

(Nr. 6 Bohrung 14)
G00 X235.7500
G00 Z0.5000
G01 Z-1.0000
G00 Z0.5000
G00 Z-0.5000
G01 Z-2.0000
G00 Z0.5000
G00 Z-1.5000
G01 Z-3.0000
G00 Z0.5000
G00 Z5.0000

(Nr. 7 Bohrung 13)
G00 X244.2500
G00 Z0.5000
G01 Z-1.0000
G00 Z0.5000
G00 Z-0.5000
G01 Z-2.0000
G00 Z0.5000
G00 Z-1.5000
G01 Z-3.0000
G00 Z0.5000
G00 Z5.0000

(Nr. 8 Bohrung 10)
G00 X315.7500
G00 Z0.5000
G01 Z-1.0000
G00 Z0.5000
G00 Z-0.5000
G01 Z-2.0000
G00 Z0.5000
G00 Z-1.5000
G01 Z-3.0000
G00 Z0.5000
G00 Z5.0000

(Nr. 9 Bohrung 32)
G00 Y11.0835
G00 Z0.5000
G01 Z-1.0000
G00 Z0.5000
G00 Z-0.5000
G01 Z-2.0000
G00 Z0.5000
G00 Z-1.5000
G01 Z-3.0000
G00 Z0.5000
G00 Z5.0000

(Nr. 10 Bohrung 31)
G00 X244.2500
G00 Z0.5000
G01 Z-1.0000
G00 Z0.5000
G00 Z-0.5000
G01 Z-2.0000
G00 Z0.5000
G00 Z-1.5000
G01 Z-3.0000
G00 Z0.5000
G00 Z5.0000

(Nr. 11 Bohrung 30)
G00 X235.7500
G00 Z0.5000
G01 Z-1.0000
G00 Z0.5000
G00 Z-0.5000
G01 Z-2.0000
G00 Z0.5000
G00 Z-1.5000
G01 Z-3.0000
G00 Z0.5000
G00 Z5.0000

(Nr. 12 Bohrung 29)
G00 X164.2500
G00 Z0.5000
G01 Z-1.0000
G00 Z0.5000
G00 Z-0.5000
G01 Z-2.0000
G00 Z0.5000
G00 Z-1.5000
G01 Z-3.0000
G00 Z0.5000
G00 Z5.0000

(Nr. 13 Bohrung 28)
G00 X155.7500
G00 Z0.5000
G01 Z-1.0000
G00 Z0.5000
G00 Z-0.5000
G01 Z-2.0000
G00 Z0.5000
G00 Z-1.5000
G01 Z-3.0000
G00 Z0.5000
G00 Z5.0000

(Nr. 14 Bohrung 27)
G00 X84.2500
G00 Z0.5000
G01 Z-1.0000
G00 Z0.5000
G00 Z-0.5000
G01 Z-2.0000
G00 Z0.5000
G00 Z-1.5000
G01 Z-3.0000
G00 Z0.5000
G00 Z5.0000

(Nr. 15 Bohrung 26)
G00 X75.7500
G00 Z0.5000
G01 Z-1.0000
G00 Z0.5000
G00 Z-0.5000
G01 Z-2.0000
G00 Z0.5000
G00 Z-1.5000
G01 Z-3.0000
G00 Z0.5000
G00 Z5.0000

(Nr. 16 Bohrung 25)
G00 X4.2500
G00 Z0.5000
G01 Z-1.0000
G00 Z0.5000
G00 Z-0.5000
G01 Z-2.0000
G00 Z0.5000
G00 Z-1.5000
G01 Z-3.0000
G00 Z0.5000
G00 Z5.0000

(Nr. 17 Ausschnitt 5)
G00 X15.6060 Y22.4395
G00 Z0.5000
G01 Z-1.0000
G01 X13.3789 Y24.8899 F2000
G01 X11.3927 Y27.5461
G01 X9.6648 Y30.3904
G01 X8.2124 Y33.4054
G01 X7.0523 Y36.5737
G01 X6.2029 Y39.8789
G01 X5.6801 Y43.3041
G01 X5.5019 Y46.8335
G01 X5.6798 Y50.3630
G01 X6.2029 Y53.7881
G01 X7.0523 Y57.0933
G01 X8.2124 Y60.2617
G01 X9.6648 Y63.2767
G01 X11.3927 Y66.1210
G01 X13.3789 Y68.7771
G01 X15.6060 Y71.2275
G01 X18.0564 Y73.4546
G01 X20.7126 Y75.4408
G01 X23.5569 Y77.1687
G01 X26.5719 Y78.6211
G01 X29.7403 Y79.7808
G01 X33.0454 Y80.6306
G01 X36.4706 Y81.1534
G01 X40.0000 Y81.3316
G01 X43.5294 Y81.1534
G01 X46.9546 Y80.6306
G01 X50.2597 Y79.7808
G01 X53.4281 Y78.6211
G01 X56.4432 Y77.1687
G01 X59.2874 Y75.4408
G01 X61.9436 Y73.4546
G01 X64.3940 Y71.2275
G01 X66.6213 Y68.7773
G01 X68.6073 Y66.1210
G01 X70.3352 Y63.2767
G01 X71.7876 Y60.2617
G01 X72.9473 Y57.0932
G01 X73.7971 Y53.7881
G01 X74.3199 Y50.3629
G01 X74.4981 Y46.8335
G01 X74.3199 Y43.3041
G01 X73.7971 Y39.8789
G01 X72.9473 Y36.5739
G01 X71.7876 Y33.4054
G01 X70.3355 Y30.3902
G01 X68.6076 Y27.5459
G01 X66.6213 Y24.8897
G01 X64.3940 Y22.4395
G01 X61.9436 Y20.2125
G01 X59.2876 Y18.2259
G01 X56.4433 Y16.4980
G01 X53.4283 Y15.0455
G01 X50.2597 Y13.8862
G01 X46.9546 Y13.0364
G01 X43.5294 Y12.5136
G01 X40.0000 Y12.3351
G01 X36.4706 Y12.5136
G01 X33.0454 Y13.0364
G01 X29.7403 Y13.8862
G01 X26.5717 Y15.0455
G01 X23.5568 Y16.4983
G01 X20.7126 Y18.2262
G01 X18.0564 Y20.2125
G01 X15.6060 Y22.4395
G01 Z-2.0000 F300
G01 X13.3789 Y24.8899 F2000
G01 X11.3927 Y27.5461
G01 X9.6648 Y30.3904
G01 X8.2124 Y33.4054
G01 X7.0523 Y36.5737
G01 X6.2029 Y39.8789
G01 X5.6801 Y43.3041
G01 X5.5019 Y46.8335
G01 X5.6798 Y50.3630
G01 X6.2029 Y53.7881
G01 X7.0523 Y57.0933
G01 X8.2124 Y60.2617
G01 X9.6648 Y63.2767
G01 X11.3927 Y66.1210
G01 X13.3789 Y68.7771
G01 X15.6060 Y71.2275
G01 X18.0564 Y73.4546
G01 X20.7126 Y75.4408
G01 X23.5569 Y77.1687
G01 X26.5719 Y78.6211
G01 X29.7403 Y79.7808
G01 X33.0454 Y80.6306
G01 X36.4706 Y81.1534
G01 X40.0000 Y81.3316
G01 X43.5294 Y81.1534
G01 X46.9546 Y80.6306
G01 X50.2597 Y79.7808
G01 X53.4281 Y78.6211
G01 X56.4432 Y77.1687
G01 X59.2874 Y75.4408
G01 X61.9436 Y73.4546
G01 X64.3940 Y71.2275
G01 X66.6213 Y68.7773
G01 X68.6073 Y66.1210
G01 X70.3352 Y63.2767
G01 X71.7876 Y60.2617
G01 X72.9473 Y57.0932
G01 X73.7971 Y53.7881
G01 X74.3199 Y50.3629
G01 X74.4981 Y46.8335
G01 X74.3199 Y43.3041
G01 X73.7971 Y39.8789
G01 X72.9473 Y36.5739
G01 X71.7876 Y33.4054
G01 X70.3355 Y30.3902
G01 X68.6076 Y27.5459
G01 X66.6213 Y24.8897
G01 X64.3940 Y22.4395
G01 X61.9436 Y20.2125
G01 X59.2876 Y18.2259
G01 X56.4433 Y16.4980
G01 X53.4283 Y15.0455
G01 X50.2597 Y13.8862
G01 X46.9546 Y13.0364
G01 X43.5294 Y12.5136
G01 X40.0000 Y12.3351
G01 X36.4706 Y12.5136
G01 X33.0454 Y13.0364
G01 X29.7403 Y13.8862
G01 X26.5717 Y15.0455
G01 X23.5568 Y16.4983
G01 X20.7126 Y18.2262
G01 X18.0564 Y20.2125
G01 X15.6060 Y22.4395
G01 Z-3.0000 F300
G01 X13.3789 Y24.8899 F2000
G01 X11.3927 Y27.5461
G01 X9.6648 Y30.3904
G01 X8.2124 Y33.4054
G01 X7.0523 Y36.5737
G01 X6.2029 Y39.8789
G01 X5.6801 Y43.3041
G01 X5.5019 Y46.8335
G01 X5.6798 Y50.3630
G01 X6.2029 Y53.7881
G01 X7.0523 Y57.0933
G01 X8.2124 Y60.2617
G01 X9.6648 Y63.2767
G01 X11.3927 Y66.1210
G01 X13.3789 Y68.7771
G01 X15.6060 Y71.2275
G01 X18.0564 Y73.4546
G01 X20.7126 Y75.4408
G01 X23.5569 Y77.1687
G01 X26.5719 Y78.6211
G01 X29.7403 Y79.7808
G01 X33.0454 Y80.6306
G01 X36.4706 Y81.1534
G01 X40.0000 Y81.3316
G01 X43.5294 Y81.1534
G01 X46.9546 Y80.6306
G01 X50.2597 Y79.7808
G01 X53.4281 Y78.6211
G01 X56.4432 Y77.1687
G01 X59.2874 Y75.4408
G01 X61.9436 Y73.4546
G01 X64.3940 Y71.2275
G01 X66.6213 Y68.7773
G01 X68.6073 Y66.1210
G01 X70.3352 Y63.2767
G01 X71.7876 Y60.2617
G01 X72.9473 Y57.0932
G01 X73.7971 Y53.7881
G01 X74.3199 Y50.3629
G01 X74.4981 Y46.8335
G01 X74.3199 Y43.3041
G01 X73.7971 Y39.8789
G01 X72.9473 Y36.5739
G01 X71.7876 Y33.4054
G01 X70.3355 Y30.3902
G01 X68.6076 Y27.5459
G01 X66.6213 Y24.8897
G01 X64.3940 Y22.4395
G01 X61.9436 Y20.2125
G01 X59.2876 Y18.2259
G01 X56.4433 Y16.4980
G01 X53.4283 Y15.0455
G01 X50.2597 Y13.8862
G01 X46.9546 Y13.0364
G01 X43.5294 Y12.5136
G01 X40.0000 Y12.3351
G01 X36.4706 Y12.5136
G01 X33.0454 Y13.0364
G01 X29.7403 Y13.8862
G01 X26.5717 Y15.0455
G01 X23.5568 Y16.4983
G01 X20.7126 Y18.2262
G01 X18.0564 Y20.2125
G01 X15.6060 Y22.4395
G00 Z5.0000

(Nr. 18 Ausschnitt 6)
G00 X86.2029 Y39.8789
G00 Z0.5000
G01 Z-1.0000 F300
G01 X85.6801 Y43.3041 F2000
G01 X85.5019 Y46.8335
G01 X85.6801 Y50.3629
G01 X86.2029 Y53.7881
G01 X87.0527 Y57.0932
G01 X88.2124 Y60.2617
G01 X89.6648 Y63.2767
G01 X91.3927 Y66.1210
G01 X93.3789 Y68.7771
G01 X95.6060 Y71.2275
G01 X98.0564 Y73.4546
G01 X100.7125 Y75.4408
G01 X103.5568 Y77.1687
G01 X106.5717 Y78.6215
G01 X109.7402 Y79.7812
G01 X113.0454 Y80.6306
G01 X116.4706 Y81.1534
G01 X120.0000 Y81.3316
G01 X123.5294 Y81.1534
G01 X126.9546 Y80.6306
G01 X130.2598 Y79.7812
G01 X133.4283 Y78.6215
G01 X136.4431 Y77.1687
G01 X139.2874 Y75.4408
G01 X141.9436 Y73.4546
G01 X144.3940 Y71.2275
G01 X146.6210 Y68.7771
G01 X148.6073 Y66.1210
G01 X150.3352 Y63.2767
G01 X151.7876 Y60.2617
G01 X152.9473 Y57.0932
G01 X153.7971 Y53.7881
G01 X154.3199 Y50.3629
G01 X154.4981 Y46.8335
G01 X154.3199 Y43.3041
G01 X153.7971 Y39.8789
G01 X152.9473 Y36.5739
G01 X151.7876 Y33.4054
G01 X150.3352 Y30.3904
G01 X148.6073 Y27.5461
G01 X146.6210 Y24.8899
G01 X144.3940 Y22.4395
G01 X141.9436 Y20.2125
G01 X139.2874 Y18.2262
G01 X136.4431 Y16.4983
G01 X133.4283 Y15.0455
G01 X130.2596 Y13.8862
G01 X126.9546 Y13.0364
G01 X123.5294 Y12.5136
G01 X120.0000 Y12.3354
G01 X116.4706 Y12.5136
G01 X113.0454 Y13.0364
G01 X109.7403 Y13.8862
G01 X106.5717 Y15.0455
G01 X103.5567 Y16.4980
G01 X100.7123 Y18.2259
G01 X98.0562 Y20.2122
G01 X95.6060 Y22.4395
G01 X93.3787 Y24.8897
G01 X91.3924 Y27.5459
G01 X89.6644 Y30.3902
G01 X88.2124 Y33.4054
G01 X87.0527 Y36.5739
G01 X86.2029 Y39.8789
G01 Z-2.0000 F300
G01 X85.6801 Y43.3041 F2000
G01 X85.5019 Y46.8335
G01 X85.6801 Y50.3629
G01 X86.2029 Y53.7881
G01 X87.0527 Y57.0932
G01 X88.2124 Y60.2617
G01 X89.6648 Y63.2767
G01 X91.3927 Y66.1210
G01 X93.3789 Y68.7771
G01 X95.6060 Y71.2275
G01 X98.0564 Y73.4546
G01 X100.7125 Y75.4408
G01 X103.5568 Y77.1687
G01 X106.5717 Y78.6215
G01 X109.7402 Y79.7812
G01 X113.0454 Y80.6306
G01 X116.4706 Y81.1534
G01 X120.0000 Y81.3316
G01 X123.5294 Y81.1534
G01 X126.9546 Y80.6306
G01 X130.2598 Y79.7812
G01 X133.4283 Y78.6215
G01 X136.4431 Y77.1687
G01 X139.2874 Y75.4408
G01 X141.9436 Y73.4546
G01 X144.3940 Y71.2275
G01 X146.6210 Y68.7771
G01 X148.6073 Y66.1210
G01 X150.3352 Y63.2767
G01 X151.7876 Y60.2617
G01 X152.9473 Y57.0932
G01 X153.7971 Y53.7881
G01 X154.3199 Y50.3629
G01 X154.4981 Y46.8335
G01 X154.3199 Y43.3041
G01 X153.7971 Y39.8789
G01 X152.9473 Y36.5739
G01 X151.7876 Y33.4054
G01 X150.3352 Y30.3904
G01 X148.6073 Y27.5461
G01 X146.6210 Y24.8899
G01 X144.3940 Y22.4395
G01 X141.9436 Y20.2125
G01 X139.2874 Y18.2262
G01 X136.4431 Y16.4983
G01 X133.4283 Y15.0455
G01 X130.2596 Y13.8862
G01 X126.9546 Y13.0364
G01 X123.5294 Y12.5136
G01 X120.0000 Y12.3354
G01 X116.4706 Y12.5136
G01 X113.0454 Y13.0364
G01 X109.7403 Y13.8862
G01 X106.5717 Y15.0455
G01 X103.5567 Y16.4980
G01 X100.7123 Y18.2259
G01 X98.0562 Y20.2122
G01 X95.6060 Y22.4395
G01 X93.3787 Y24.8897
G01 X91.3924 Y27.5459
G01 X89.6644 Y30.3902
G01 X88.2124 Y33.4054
G01 X87.0527 Y36.5739
G01 X86.2029 Y39.8789
G01 Z-3.0000 F300
G01 X85.6801 Y43.3041 F2000
G01 X85.5019 Y46.8335
G01 X85.6801 Y50.3629
G01 X86.2029 Y53.7881
G01 X87.0527 Y57.0932
G01 X88.2124 Y60.2617
G01 X89.6648 Y63.2767
G01 X91.3927 Y66.1210
G01 X93.3789 Y68.7771
G01 X95.6060 Y71.2275
G01 X98.0564 Y73.4546
G01 X100.7125 Y75.4408
G01 X103.5568 Y77.1687
G01 X106.5717 Y78.6215
G01 X109.7402 Y79.7812
G01 X113.0454 Y80.6306
G01 X116.4706 Y81.1534
G01 X120.0000 Y81.3316
G01 X123.5294 Y81.1534
G01 X126.9546 Y80.6306
G01 X130.2598 Y79.7812
G01 X133.4283 Y78.6215
G01 X136.4431 Y77.1687
G01 X139.2874 Y75.4408
G01 X141.9436 Y73.4546
G01 X144.3940 Y71.2275
G01 X146.6210 Y68.7771
G01 X148.6073 Y66.1210
G01 X150.3352 Y63.2767
G01 X151.7876 Y60.2617
G01 X152.9473 Y57.0932
G01 X153.7971 Y53.7881
G01 X154.3199 Y50.3629
G01 X154.4981 Y46.8335
G01 X154.3199 Y43.3041
G01 X153.7971 Y39.8789
G01 X152.9473 Y36.5739
G01 X151.7876 Y33.4054
G01 X150.3352 Y30.3904
G01 X148.6073 Y27.5461
G01 X146.6210 Y24.8899
G01 X144.3940 Y22.4395
G01 X141.9436 Y20.2125
G01 X139.2874 Y18.2262
G01 X136.4431 Y16.4983
G01 X133.4283 Y15.0455
G01 X130.2596 Y13.8862
G01 X126.9546 Y13.0364
G01 X123.5294 Y12.5136
G01 X120.0000 Y12.3354
G01 X116.4706 Y12.5136
G01 X113.0454 Y13.0364
G01 X109.7403 Y13.8862
G01 X106.5717 Y15.0455
G01 X103.5567 Y16.4980
G01 X100.7123 Y18.2259
G01 X98.0562 Y20.2122
G01 X95.6060 Y22.4395
G01 X93.3787 Y24.8897
G01 X91.3924 Y27.5459
G01 X89.6644 Y30.3902
G01 X88.2124 Y33.4054
G01 X87.0527 Y36.5739
G01 X86.2029 Y39.8789
G00 Z5.0000

(Nr. 19 Ausschnitt 7)
G00 X165.6801 Y43.3041
G00 Z0.5000
G01 Z-1.0000 F300
G01 X165.5019 Y46.8335 F2000
G01 X165.6801 Y50.3629
G01 X166.2029 Y53.7881
G01 X167.0527 Y57.0932
G01 X168.2124 Y60.2617
G01 X169.6648 Y63.2767
G01 X171.3927 Y66.1210
G01 X173.3787 Y68.7773
G01 X175.6058 Y71.2277
G01 X178.0564 Y73.4546
G01 X180.7125 Y75.4408
G01 X183.5568 Y77.1687
G01 X186.5717 Y78.6215
G01 X189.7402 Y79.7812
G01 X193.0454 Y80.6306
G01 X196.4706 Y81.1534
G01 X200.0000 Y81.3316
G01 X203.5294 Y81.1534
G01 X206.9546 Y80.6306
G01 X210.2598 Y79.7812
G01 X213.4283 Y78.6215
G01 X216.4431 Y77.1687
G01 X219.2876 Y75.4411
G01 X221.9438 Y73.4548
G01 X224.3940 Y71.2275
G01 X226.6210 Y68.7771
G01 X228.6073 Y66.1210
G01 X230.3352 Y63.2767
G01 X231.7879 Y60.2618
G01 X232.9473 Y57.0932
G01 X233.7971 Y53.7881
G01 X234.3199 Y50.3629
G01 X234.4981 Y46.8335
G01 X234.3199 Y43.3041
G01 X233.7971 Y39.8789
G01 X232.9473 Y36.5739
G01 X231.7879 Y33.4052
G01 X230.3352 Y30.3904
G01 X228.6073 Y27.5461
G01 X226.6210 Y24.8899
G01 X224.3940 Y22.4395
G01 X221.9436 Y20.2125
G01 X219.2874 Y18.2262
G01 X216.4433 Y16.4980
G01 X213.4283 Y15.0455
G01 X210.2596 Y13.8862
G01 X206.9546 Y13.0360
G01 X203.5294 Y12.5136
G01 X200.0000 Y12.3354
G01 X196.4706 Y12.5136
G01 X193.0454 Y13.0364
G01 X189.7403 Y13.8862
G01 X186.5718 Y15.0459
G01 X183.5568 Y16.4983
G01 X180.7125 Y18.2262
G01 X178.0564 Y20.2125
G01 X175.6058 Y22.4393
G01 X173.3789 Y24.8899
G01 X171.3927 Y27.5461
G01 X169.6648 Y30.3904
G01 X168.2124 Y33.4054
G01 X167.0527 Y36.5739
G01 X166.2029 Y39.8789
G01 X165.6801 Y43.3041
G01 Z-2.0000 F300
G01 X165.5019 Y46.8335 F2000
G01 X165.6801 Y50.3629
G01 X166.2029 Y53.7881
G01 X167.0527 Y57.0932
G01 X168.2124 Y60.2617
G01 X169.6648 Y63.2767
G01 X171.3927 Y66.1210
G01 X173.3787 Y68.7773
G01 X175.6058 Y71.2277
G01 X178.0564 Y73.4546
G01 X180.7125 Y75.4408
G01 X183.5568 Y77.1687
G01 X186.5717 Y78.6215
G01 X189.7402 Y79.7812
G01 X193.0454 Y80.6306
G01 X196.4706 Y81.1534
G01 X200.0000 Y81.3316
G01 X203.5294 Y81.1534
G01 X206.9546 Y80.6306
G01 X210.2598 Y79.7812
G01 X213.4283 Y78.6215
G01 X216.4431 Y77.1687
G01 X219.2876 Y75.4411
G01 X221.9438 Y73.4548
G01 X224.3940 Y71.2275
G01 X226.6210 Y68.7771
G01 X228.6073 Y66.1210
G01 X230.3352 Y63.2767
G01 X231.7879 Y60.2618
G01 X232.9473 Y57.0932
G01 X233.7971 Y53.7881
G01 X234.3199 Y50.3629
G01 X234.4981 Y46.8335
G01 X234.3199 Y43.3041
G01 X233.7971 Y39.8789
G01 X232.9473 Y36.5739
G01 X231.7879 Y33.4052
G01 X230.3352 Y30.3904
G01 X228.6073 Y27.5461
G01 X226.6210 Y24.8899
G01 X224.3940 Y22.4395
G01 X221.9436 Y20.2125
G01 X219.2874 Y18.2262
G01 X216.4433 Y16.4980
G01 X213.4283 Y15.0455
G01 X210.2596 Y13.8862
G01 X206.9546 Y13.0360
G01 X203.5294 Y12.5136
G01 X200.0000 Y12.3354
G01 X196.4706 Y12.5136
G01 X193.0454 Y13.0364
G01 X189.7403 Y13.8862
G01 X186.5718 Y15.0459
G01 X183.5568 Y16.4983
G01 X180.7125 Y18.2262
G01 X178.0564 Y20.2125
G01 X175.6058 Y22.4393
G01 X173.3789 Y24.8899
G01 X171.3927 Y27.5461
G01 X169.6648 Y30.3904
G01 X168.2124 Y33.4054
G01 X167.0527 Y36.5739
G01 X166.2029 Y39.8789
G01 X165.6801 Y43.3041
G01 Z-3.0000 F300
G01 X165.5019 Y46.8335 F2000
G01 X165.6801 Y50.3629
G01 X166.2029 Y53.7881
G01 X167.0527 Y57.0932
G01 X168.2124 Y60.2617
G01 X169.6648 Y63.2767
G01 X171.3927 Y66.1210
G01 X173.3787 Y68.7773
G01 X175.6058 Y71.2277
G01 X178.0564 Y73.4546
G01 X180.7125 Y75.4408
G01 X183.5568 Y77.1687
G01 X186.5717 Y78.6215
G01 X189.7402 Y79.7812
G01 X193.0454 Y80.6306
G01 X196.4706 Y81.1534
G01 X200.0000 Y81.3316
G01 X203.5294 Y81.1534
G01 X206.9546 Y80.6306
G01 X210.2598 Y79.7812
G01 X213.4283 Y78.6215
G01 X216.4431 Y77.1687
G01 X219.2876 Y75.4411
G01 X221.9438 Y73.4548
G01 X224.3940 Y71.2275
G01 X226.6210 Y68.7771
G01 X228.6073 Y66.1210
G01 X230.3352 Y63.2767
G01 X231.7879 Y60.2618
G01 X232.9473 Y57.0932
G01 X233.7971 Y53.7881
G01 X234.3199 Y50.3629
G01 X234.4981 Y46.8335
G01 X234.3199 Y43.3041
G01 X233.7971 Y39.8789
G01 X232.9473 Y36.5739
G01 X231.7879 Y33.4052
G01 X230.3352 Y30.3904
G01 X228.6073 Y27.5461
G01 X226.6210 Y24.8899
G01 X224.3940 Y22.4395
G01 X221.9436 Y20.2125
G01 X219.2874 Y18.2262
G01 X216.4433 Y16.4980
G01 X213.4283 Y15.0455
G01 X210.2596 Y13.8862
G01 X206.9546 Y13.0360
G01 X203.5294 Y12.5136
G01 X200.0000 Y12.3354
G01 X196.4706 Y12.5136
G01 X193.0454 Y13.0364
G01 X189.7403 Y13.8862
G01 X186.5718 Y15.0459
G01 X183.5568 Y16.4983
G01 X180.7125 Y18.2262
G01 X178.0564 Y20.2125
G01 X175.6058 Y22.4393
G01 X173.3789 Y24.8899
G01 X171.3927 Y27.5461
G01 X169.6648 Y30.3904
G01 X168.2124 Y33.4054
G01 X167.0527 Y36.5739
G01 X166.2029 Y39.8789
G01 X165.6801 Y43.3041
G00 Z5.0000

(Nr. 20 Ausschnitt 8)
G00 X245.5019 Y46.8335
G00 Z0.5000
G01 Z-1.0000 F300
G01 X245.6801 Y50.3629 F2000
G01 X246.2029 Y53.7881
G01 X247.0527 Y57.0932
G01 X248.2124 Y60.2617
G01 X249.6648 Y63.2767
G01 X251.3927 Y66.1210
G01 X253.3789 Y68.7771
G01 X255.6058 Y71.2277
G01 X258.0564 Y73.4546
G01 X260.7123 Y75.4411
G01 X263.5568 Y77.1687
G01 X266.5718 Y78.6211
G01 X269.7403 Y79.7808
G01 X273.0453 Y80.6310
G01 X276.4706 Y81.1534
G01 X280.0000 Y81.3320
G01 X283.5294 Y81.1534
G01 X286.9547 Y80.6310
G01 X290.2598 Y79.7812
G01 X293.4283 Y78.6215
G01 X296.4431 Y77.1687
G01 X299.2876 Y75.4411
G01 X301.9436 Y73.4546
G01 X304.3942 Y71.2277
G01 X306.6213 Y68.7773
G01 X308.6073 Y66.1210
G01 X310.3355 Y63.2768
G01 X311.7876 Y60.2617
G01 X312.9473 Y57.0932
G01 X313.7971 Y53.7881
G01 X314.3199 Y50.3629
G01 X314.4981 Y46.8335
G01 X314.3199 Y43.3041
G01 X313.7971 Y39.8789
G01 X312.9473 Y36.5739
G01 X311.7876 Y33.4054
G01 X310.3355 Y30.3902
G01 X308.6073 Y27.5461
G01 X306.6213 Y24.8897
G01 X304.3942 Y22.4393
G01 X301.9436 Y20.2125
G01 X299.2876 Y18.2259
G01 X296.4431 Y16.4983
G01 X293.4283 Y15.0455
G01 X290.2596 Y13.8862
G01 X286.9546 Y13.0364
G01 X283.5294 Y12.5136
G01 X280.0000 Y12.3354
G01 X276.4706 Y12.5136
G01 X273.0454 Y13.0364
G01 X269.7403 Y13.8862
G01 X266.5718 Y15.0459
G01 X263.5568 Y16.4983
G01 X260.7123 Y18.2259
G01 X258.0564 Y20.2125
G01 X255.6058 Y22.4393
G01 X253.3789 Y24.8899
G01 X251.3927 Y27.5461
G01 X249.6648 Y30.3904
G01 X248.2124 Y33.4054
G01 X247.0527 Y36.5739
G01 X246.2029 Y39.8789
G01 X245.6801 Y43.3041
G01 X245.5019 Y46.8335
G01 Z-2.0000 F300
G01 X245.6801 Y50.3629 F2000
G01 X246.2029 Y53.7881
G01 X247.0527 Y57.0932
G01 X248.2124 Y60.2617
G01 X249.6648 Y63.2767
G01 X251.3927 Y66.1210
G01 X253.3789 Y68.7771
G01 X255.6058 Y71.2277
G01 X258.0564 Y73.4546
G01 X260.7123 Y75.4411
G01 X263.5568 Y77.1687
G01 X266.5718 Y78.6211
G01 X269.7403 Y79.7808
G01 X273.0453 Y80.6310
G01 X276.4706 Y81.1534
G01 X280.0000 Y81.3320
G01 X283.5294 Y81.1534
G01 X286.9547 Y80.6310
G01 X290.2598 Y79.7812
G01 X293.4283 Y78.6215
G01 X296.4431 Y77.1687
G01 X299.2876 Y75.4411
G01 X301.9436 Y73.4546
G01 X304.3942 Y71.2277
G01 X306.6213 Y68.7773
G01 X308.6073 Y66.1210
G01 X310.3355 Y63.2768
G01 X311.7876 Y60.2617
G01 X312.9473 Y57.0932
G01 X313.7971 Y53.7881
G01 X314.3199 Y50.3629
G01 X314.4981 Y46.8335
G01 X314.3199 Y43.3041
G01 X313.7971 Y39.8789
G01 X312.9473 Y36.5739
G01 X311.7876 Y33.4054
G01 X310.3355 Y30.3902
G01 X308.6073 Y27.5461
G01 X306.6213 Y24.8897
G01 X304.3942 Y22.4393
G01 X301.9436 Y20.2125
G01 X299.2876 Y18.2259
G01 X296.4431 Y16.4983
G01 X293.4283 Y15.0455
G01 X290.2596 Y13.8862
G01 X286.9546 Y13.0364
G01 X283.5294 Y12.5136
G01 X280.0000 Y12.3354
G01 X276.4706 Y12.5136
G01 X273.0454 Y13.0364
G01 X269.7403 Y13.8862
G01 X266.5718 Y15.0459
G01 X263.5568 Y16.4983
G01 X260.7123 Y18.2259
G01 X258.0564 Y20.2125
G01 X255.6058 Y22.4393
G01 X253.3789 Y24.8899
G01 X251.3927 Y27.5461
G01 X249.6648 Y30.3904
G01 X248.2124 Y33.4054
G01 X247.0527 Y36.5739
G01 X246.2029 Y39.8789
G01 X245.6801 Y43.3041
G01 X245.5019 Y46.8335
G01 Z-3.0000 F300
G01 X245.6801 Y50.3629 F2000
G01 X246.2029 Y53.7881
G01 X247.0527 Y57.0932
G01 X248.2124 Y60.2617
G01 X249.6648 Y63.2767
G01 X251.3927 Y66.1210
G01 X253.3789 Y68.7771
G01 X255.6058 Y71.2277
G01 X258.0564 Y73.4546
G01 X260.7123 Y75.4411
G01 X263.5568 Y77.1687
G01 X266.5718 Y78.6211
G01 X269.7403 Y79.7808
G01 X273.0453 Y80.6310
G01 X276.4706 Y81.1534
G01 X280.0000 Y81.3320
G01 X283.5294 Y81.1534
G01 X286.9547 Y80.6310
G01 X290.2598 Y79.7812
G01 X293.4283 Y78.6215
G01 X296.4431 Y77.1687
G01 X299.2876 Y75.4411
G01 X301.9436 Y73.4546
G01 X304.3942 Y71.2277
G01 X306.6213 Y68.7773
G01 X308.6073 Y66.1210
G01 X310.3355 Y63.2768
G01 X311.7876 Y60.2617
G01 X312.9473 Y57.0932
G01 X313.7971 Y53.7881
G01 X314.3199 Y50.3629
G01 X314.4981 Y46.8335
G01 X314.3199 Y43.3041
G01 X313.7971 Y39.8789
G01 X312.9473 Y36.5739
G01 X311.7876 Y33.4054
G01 X310.3355 Y30.3902
G01 X308.6073 Y27.5461
G01 X306.6213 Y24.8897
G01 X304.3942 Y22.4393
G01 X301.9436 Y20.2125
G01 X299.2876 Y18.2259
G01 X296.4431 Y16.4983
G01 X293.4283 Y15.0455
G01 X290.2596 Y13.8862
G01 X286.9546 Y13.0364
G01 X283.5294 Y12.5136
G01 X280.0000 Y12.3354
G01 X276.4706 Y12.5136
G01 X273.0454 Y13.0364
G01 X269.7403 Y13.8862
G01 X266.5718 Y15.0459
G01 X263.5568 Y16.4983
G01 X260.7123 Y18.2259
G01 X258.0564 Y20.2125
G01 X255.6058 Y22.4393
G01 X253.3789 Y24.8899
G01 X251.3927 Y27.5461
G01 X249.6648 Y30.3904
G01 X248.2124 Y33.4054
G01 X247.0527 Y36.5739
G01 X246.2029 Y39.8789
G01 X245.6801 Y43.3041
G01 X245.5019 Y46.8335
G00 Z5.0000

(Nr. 21 Teil 3)
G00 X320.0000 Y-1.5000
G00 Z0.5000
G01 Z-1.0000 F300
G03 X321.5000 Y0.0000 I0.0000 J1.5000 F2000
G01 Y93.6670
G03 X320.0000 Y95.1670 I-1.5000 J0.0000
G01 X0.0000
G03 X-1.5000 Y93.6670 I0.0000 J-1.5000
G01 Y0.0000
G03 X0.0000 Y-1.5000 I1.5000 J0.0000
G01 X320.0000
G01 Z-2.0000 F300
G03 X321.5000 Y0.0000 I0.0000 J1.5000 F2000
G01 Y93.6670
G03 X320.0000 Y95.1670 I-1.5000 J0.0000
G01 X0.0000
G03 X-1.5000 Y93.6670 I0.0000 J-1.5000
G01 Y0.0000
G03 X0.0000 Y-1.5000 I1.5000 J0.0000
G01 X320.0000
G01 Z-3.0000 F300
G03 X321.5000 Y0.0000 I0.0000 J1.5000 F2000
G01 Y93.6670
G03 X320.0000 Y95.1670 I-1.5000 J0.0000
G01 X0.0000
G03 X-1.5000 Y93.6670 I0.0000 J-1.5000
G01 Y0.0000
G03 X0.0000 Y-1.5000 I1.5000 J0.0000
G01 X320.0000
G00 Z5.0000

(Nr. 22 Bohrung 23)
G00 X4.2500 Y121.0835
G00 Z0.5000
G01 Z-1.0000 F300
G00 Z0.5000
G00 Z-0.5000
G01 Z-2.0000
G00 Z0.5000
G00 Z-1.5000
G01 Z-3.0000
G00 Z0.5000
G00 Z5.0000

(Nr. 23 Bohrung 22)
G00 X75.7500
G00 Z0.5000
G01 Z-1.0000
G00 Z0.5000
G00 Z-0.5000
G01 Z-2.0000
G00 Z0.5000
G00 Z-1.5000
G01 Z-3.0000
G00 Z0.5000
G00 Z5.0000

(Nr. 24 Bohrung 19)
G00 X84.2500
G00 Z0.5000
G01 Z-1.0000
G00 Z0.5000
G00 Z-0.5000
G01 Z-2.0000
G00 Z0.5000
G00 Z-1.5000
G01 Z-3.0000
G00 Z0.5000
G00 Z5.0000

(Nr. 25 Bohrung 16)
G00 X155.7500
G00 Z0.5000
G01 Z-1.0000
G00 Z0.5000
G00 Z-0.5000
G01 Z-2.0000
G00 Z0.5000
G00 Z-1.5000
G01 Z-3.0000
G00 Z0.5000
G00 Z5.0000

(Nr. 26 Bohrung 15)
G00 X164.2500
G00 Z0.5000
G01 Z-1.0000
G00 Z0.5000
G00 Z-0.5000
G01 Z-2.0000
G00 Z0.5000
G00 Z-1.5000
G01 Z-3.0000
G00 Z0.5000
G00 Z5.0000

(Nr. 27 Bohrung 12)
G00 X235.7500
G00 Z0.5000
G01 Z-1.0000
G00 Z0.5000
G00 Z-0.5000
G01 Z-2.0000
G00 Z0.5000
G00 Z-1.5000
G01 Z-3.0000
G00 Z0.5000
G00 Z5.0000

(Nr. 28 Bohrung 11)
G00 X244.2500
G00 Z0.5000
G01 Z-1.0000
G00 Z0.5000
G00 Z-0.5000
G01 Z-2.0000
G00 Z0.5000
G00 Z-1.5000
G01 Z-3.0000
G00 Z0.5000
G00 Z5.0000

(Nr. 29 Bohrung 9)
G00 X315.7500
G00 Z0.5000
G01 Z-1.0000
G00 Z0.5000
G00 Z-0.5000
G01 Z-2.0000
G00 Z0.5000
G00 Z-1.5000
G01 Z-3.0000
G00 Z0.5000
G00 Z5.0000

(Nr. 30 Bohrung 8)
G00 Y192.5835
G00 Z0.5000
G01 Z-1.0000
G00 Z0.5000
G00 Z-0.5000
G01 Z-2.0000
G00 Z0.5000
G00 Z-1.5000
G01 Z-3.0000
G00 Z0.5000
G00 Z5.0000

(Nr. 31 Bohrung 7)
G00 X244.2500
G00 Z0.5000
G01 Z-1.0000
G00 Z0.5000
G00 Z-0.5000
G01 Z-2.0000
G00 Z0.5000
G00 Z-1.5000
G01 Z-3.0000
G00 Z0.5000
G00 Z5.0000

(Nr. 32 Bohrung 6)
G00 X235.7500
G00 Z0.5000
G01 Z-1.0000
G00 Z0.5000
G00 Z-0.5000
G01 Z-2.0000
G00 Z0.5000
G00 Z-1.5000
G01 Z-3.0000
G00 Z0.5000
G00 Z5.0000

(Nr. 33 Bohrung 5)
G00 X164.2500
G00 Z0.5000
G01 Z-1.0000
G00 Z0.5000
G00 Z-0.5000
G01 Z-2.0000
G00 Z0.5000
G00 Z-1.5000
G01 Z-3.0000
G00 Z0.5000
G00 Z5.0000

(Nr. 34 Bohrung 4)
G00 X155.7500
G00 Z0.5000
G01 Z-1.0000
G00 Z0.5000
G00 Z-0.5000
G01 Z-2.0000
G00 Z0.5000
G00 Z-1.5000
G01 Z-3.0000
G00 Z0.5000
G00 Z5.0000

(Nr. 35 Bohrung 3)
G00 X84.2500
G00 Z0.5000
G01 Z-1.0000
G00 Z0.5000
G00 Z-0.5000
G01 Z-2.0000
G00 Z0.5000
G00 Z-1.5000
G01 Z-3.0000
G00 Z0.5000
G00 Z5.0000

(Nr. 36 Bohrung 2)
G00 X75.7500
G00 Z0.5000
G01 Z-1.0000
G00 Z0.5000
G00 Z-0.5000
G01 Z-2.0000
G00 Z0.5000
G00 Z-1.5000
G01 Z-3.0000
G00 Z0.5000
G00 Z5.0000

(Nr. 37 Bohrung 1)
G00 X4.2500
G00 Z0.5000
G01 Z-1.0000
G00 Z0.5000
G00 Z-0.5000
G01 Z-2.0000
G00 Z0.5000
G00 Z-1.5000
G01 Z-3.0000
G00 Z0.5000
G00 Z5.0000

(Nr. 38 Ausschnitt 1)
G00 X15.6060 Y181.2275
G00 Z0.5000
G01 Z-1.0000
G01 X18.0564 Y183.4545 F2000
G01 X20.7126 Y185.4408
G01 X23.5569 Y187.1687
G01 X26.5717 Y188.6215
G01 X29.7404 Y189.7808
G01 X33.0454 Y190.6306
G01 X36.4706 Y191.1534
G01 X40.0000 Y191.3316
G01 X43.5294 Y191.1534
G01 X46.9546 Y190.6306
G01 X50.2597 Y189.7808
G01 X53.4283 Y188.6215
G01 X56.4432 Y187.1687
G01 X59.2875 Y185.4408
G01 X61.9436 Y183.4546
G01 X64.3940 Y181.2275
G01 X66.6211 Y178.7771
G01 X68.6073 Y176.1209
G01 X70.3352 Y173.2767
G01 X71.7876 Y170.2616
G01 X72.9473 Y167.0932
G01 X73.7971 Y163.7881
G01 X74.3199 Y160.3629
G01 X74.4981 Y156.8335
G01 X74.3199 Y153.3041
G01 X73.7971 Y149.8789
G01 X72.9473 Y146.5739
G01 X71.7876 Y143.4054
G01 X70.3352 Y140.3904
G01 X68.6073 Y137.5461
G01 X66.6211 Y134.8899
G01 X64.3942 Y132.4393
G01 X61.9436 Y130.2124
G01 X59.2875 Y128.2262
G01 X56.4433 Y126.4980
G01 X53.4283 Y125.0455
G01 X50.2598 Y123.8858
G01 X46.9547 Y123.0360
G01 X43.5295 Y122.5133
G01 X40.0000 Y122.3350
G01 X36.4705 Y122.5133
G01 X33.0454 Y123.0360
G01 X29.7403 Y123.8858
G01 X26.5717 Y125.0455
G01 X23.5567 Y126.4980
G01 X20.7126 Y128.2262
G01 X18.0564 Y130.2124
G01 X15.6058 Y132.4393
G01 X13.3790 Y134.8899
G01 X11.3927 Y137.5461
G01 X9.6648 Y140.3904
G01 X8.2124 Y143.4053
G01 X7.0527 Y146.5739
G01 X6.2029 Y149.8789
G01 X5.6798 Y153.3040
G01 X5.5019 Y156.8335
G01 X5.6801 Y160.3629
G01 X6.2025 Y163.7881
G01 X7.0527 Y167.0932
G01 X8.2124 Y170.2616
G01 X9.6648 Y173.2767
G01 X11.3927 Y176.1209
G01 X13.3790 Y178.7771
G01 X15.6060 Y181.2275
G01 Z-2.0000 F300
G01 X18.0564 Y183.4545 F2000
G01 X20.7126 Y185.4408
G01 X23.5569 Y187.1687
G01 X26.5717 Y188.6215
G01 X29.7404 Y189.7808
G01 X33.0454 Y190.6306
G01 X36.4706 Y191.1534
G01 X40.0000 Y191.3316
G01 X43.5294 Y191.1534
G01 X46.9546 Y190.6306
G01 X50.2597 Y189.7808
G01 X53.4283 Y188.6215
G01 X56.4432 Y187.1687
G01 X59.2875 Y185.4408
G01 X61.9436 Y183.4546
G01 X64.3940 Y181.2275
G01 X66.6211 Y178.7771
G01 X68.6073 Y176.1209
G01 X70.3352 Y173.2767
G01 X71.7876 Y170.2616
G01 X72.9473 Y167.0932
G01 X73.7971 Y163.7881
G01 X74.3199 Y160.3629
G01 X74.4981 Y156.8335
G01 X74.3199 Y153.3041
G01 X73.7971 Y149.8789
G01 X72.9473 Y146.5739
G01 X71.7876 Y143.4054
G01 X70.3352 Y140.3904
G01 X68.6073 Y137.5461
G01 X66.6211 Y134.8899
G01 X64.3942 Y132.4393
G01 X61.9436 Y130.2124
G01 X59.2875 Y128.2262
G01 X56.4433 Y126.4980
G01 X53.4283 Y125.0455
G01 X50.2598 Y123.8858
G01 X46.9547 Y123.0360
G01 X43.5295 Y122.5133
G01 X40.0000 Y122.3350
G01 X36.4705 Y122.5133
G01 X33.0454 Y123.0360
G01 X29.7403 Y123.8858
G01 X26.5717 Y125.0455
G01 X23.5567 Y126.4980
G01 X20.7126 Y128.2262
G01 X18.0564 Y130.2124
G01 X15.6058 Y132.4393
G01 X13.3790 Y134.8899
G01 X11.3927 Y137.5461
G01 X9.6648 Y140.3904
G01 X8.2124 Y143.4053
G01 X7.0527 Y146.5739
G01 X6.2029 Y149.8789
G01 X5.6798 Y153.3040
G01 X5.5019 Y156.8335
G01 X5.6801 Y160.3629
G01 X6.2025 Y163.7881
G01 X7.0527 Y167.0932
G01 X8.2124 Y170.2616
G01 X9.6648 Y173.2767
G01 X11.3927 Y176.1209
G01 X13.3790 Y178.7771
G01 X15.6060 Y181.2275
G01 Z-3.0000 F300
G01 X18.0564 Y183.4545 F2000
G01 X20.7126 Y185.4408
G01 X23.5569 Y187.1687
G01 X26.5717 Y188.6215
G01 X29.7404 Y189.7808
G01 X33.0454 Y190.6306
G01 X36.4706 Y191.1534
G01 X40.0000 Y191.3316
G01 X43.5294 Y191.1534
G01 X46.9546 Y190.6306
G01 X50.2597 Y189.7808
G01 X53.4283 Y188.6215
G01 X56.4432 Y187.1687
G01 X59.2875 Y185.4408
G01 X61.9436 Y183.4546
G01 X64.3940 Y181.2275
G01 X66.6211 Y178.7771
G01 X68.6073 Y176.1209
G01 X70.3352 Y173.2767
G01 X71.7876 Y170.2616
G01 X72.9473 Y167.0932
G01 X73.7971 Y163.7881
G01 X74.3199 Y160.3629
G01 X74.4981 Y156.8335
G01 X74.3199 Y153.3041
G01 X73.7971 Y149.8789
G01 X72.9473 Y146.5739
G01 X71.7876 Y143.4054
G01 X70.3352 Y140.3904
G01 X68.6073 Y137.5461
G01 X66.6211 Y134.8899
G01 X64.3942 Y132.4393
G01 X61.9436 Y130.2124
G01 X59.2875 Y128.2262
G01 X56.4433 Y126.4980
G01 X53.4283 Y125.0455
G01 X50.2598 Y123.8858
G01 X46.9547 Y123.0360
G01 X43.5295 Y122.5133
G01 X40.0000 Y122.3350
G01 X36.4705 Y122.5133
G01 X33.0454 Y123.0360
G01 X29.7403 Y123.8858
G01 X26.5717 Y125.0455
G01 X23.5567 Y126.4980
G01 X20.7126 Y128.2262
G01 X18.0564 Y130.2124
G01 X15.6058 Y132.4393
G01 X13.3790 Y134.8899
G01 X11.3927 Y137.5461
G01 X9.6648 Y140.3904
G01 X8.2124 Y143.4053
G01 X7.0527 Y146.5739
G01 X6.2029 Y149.8789
G01 X5.6798 Y153.3040
G01 X5.5019 Y156.8335
G01 X5.6801 Y160.3629
G01 X6.2025 Y163.7881
G01 X7.0527 Y167.0932
G01 X8.2124 Y170.2616
G01 X9.6648 Y173.2767
G01 X11.3927 Y176.1209
G01 X13.3790 Y178.7771
G01 X15.6060 Y181.2275
G00 Z5.0000

(Nr. 39 Ausschnitt 2)
G00 X86.2029 Y163.7881
G00 Z0.5000
G01 Z-1.0000 F300
G01 X87.0527 Y167.0932 F2000
G01 X88.2124 Y170.2616
G01 X89.6648 Y173.2767
G01 X91.3927 Y176.1210
G01 X93.3790 Y178.7771
G01 X95.6060 Y181.2275
G01 X98.0564 Y183.4546
G01 X100.7126 Y185.4408
G01 X103.5569 Y187.1687
G01 X106.5719 Y188.6211
G01 X109.7403 Y189.7808
G01 X113.0454 Y190.6306
G01 X116.4706 Y191.1534
G01 X120.0000 Y191.3316
G01 X123.5294 Y191.1534
G01 X126.9546 Y190.6306
G01 X130.2597 Y189.7808
G01 X133.4281 Y188.6211
G01 X136.4431 Y187.1687
G01 X139.2874 Y185.4408
G01 X141.9436 Y183.4546
G01 X144.3940 Y181.2275
G01 X146.6213 Y178.7773
G01 X148.6073 Y176.1210
G01 X150.3352 Y173.2767
G01 X151.7876 Y170.2617
G01 X152.9473 Y167.0932
G01 X153.7975 Y163.7882
G01 X154.3202 Y160.3630
G01 X154.4985 Y156.8335
G01 X154.3202 Y153.3040
G01 X153.7975 Y149.8788
G01 X152.9473 Y146.5739
G01 X151.7876 Y143.4053
G01 X150.3352 Y140.3904
G01 X148.6073 Y137.5461
G01 X146.6213 Y134.8897
G01 X144.3940 Y132.4395
G01 X141.9436 Y130.2124
G01 X139.2874 Y128.2262
G01 X136.4431 Y126.4983
G01 X133.4281 Y125.0459
G01 X130.2597 Y123.8862
G01 X126.9546 Y123.0364
G01 X123.5294 Y122.5136
G01 X120.0000 Y122.3354
G01 X116.4706 Y122.5136
G01 X113.0454 Y123.0364
G01 X109.7403 Y123.8862
G01 X106.5719 Y125.0459
G01 X103.5568 Y126.4983
G01 X100.7126 Y128.2262
G01 X98.0564 Y130.2124
G01 X95.6060 Y132.4395
G01 X93.3790 Y134.8899
G01 X91.3927 Y137.5461
G01 X89.6648 Y140.3904
G01 X88.2124 Y143.4054
G01 X87.0527 Y146.5739
G01 X86.2029 Y149.8789
G01 X85.6801 Y153.3041
G01 X85.5019 Y156.8335
G01 X85.6801 Y160.3629
G01 X86.2029 Y163.7881
G01 Z-2.0000 F300
G01 X87.0527 Y167.0932 F2000
G01 X88.2124 Y170.2616
G01 X89.6648 Y173.2767
G01 X91.3927 Y176.1210
G01 X93.3790 Y178.7771
G01 X95.6060 Y181.2275
G01 X98.0564 Y183.4546
G01 X100.7126 Y185.4408
G01 X103.5569 Y187.1687
G01 X106.5719 Y188.6211
G01 X109.7403 Y189.7808
G01 X113.0454 Y190.6306
G01 X116.4706 Y191.1534
G01 X120.0000 Y191.3316
G01 X123.5294 Y191.1534
G01 X126.9546 Y190.6306
G01 X130.2597 Y189.7808
G01 X133.4281 Y188.6211
G01 X136.4431 Y187.1687
G01 X139.2874 Y185.4408
G01 X141.9436 Y183.4546
G01 X144.3940 Y181.2275
G01 X146.6213 Y178.7773
G01 X148.6073 Y176.1210
G01 X150.3352 Y173.2767
G01 X151.7876 Y170.2617
G01 X152.9473 Y167.0932
G01 X153.7975 Y163.7882
G01 X154.3202 Y160.3630
G01 X154.4985 Y156.8335
G01 X154.3202 Y153.3040
G01 X153.7975 Y149.8788
G01 X152.9473 Y146.5739
G01 X151.7876 Y143.4053
G01 X150.3352 Y140.3904
G01 X148.6073 Y137.5461
G01 X146.6213 Y134.8897
G01 X144.3940 Y132.4395
G01 X141.9436 Y130.2124
G01 X139.2874 Y128.2262
G01 X136.4431 Y126.4983
G01 X133.4281 Y125.0459
G01 X130.2597 Y123.8862
G01 X126.9546 Y123.0364
G01 X123.5294 Y122.5136
G01 X120.0000 Y122.3354
G01 X116.4706 Y122.5136
G01 X113.0454 Y123.0364
G01 X109.7403 Y123.8862
G01 X106.5719 Y125.0459
G01 X103.5568 Y126.4983
G01 X100.7126 Y128.2262
G01 X98.0564 Y130.2124
G01 X95.6060 Y132.4395
G01 X93.3790 Y134.8899
G01 X91.3927 Y137.5461
G01 X89.6648 Y140.3904
G01 X88.2124 Y143.4054
G01 X87.0527 Y146.5739
G01 X86.2029 Y149.8789
G01 X85.6801 Y153.3041
G01 X85.5019 Y156.8335
G01 X85.6801 Y160.3629
G01 X86.2029 Y163.7881
G01 Z-3.0000 F300
G01 X87.0527 Y167.0932 F2000
G01 X88.2124 Y170.2616
G01 X89.6648 Y173.2767
G01 X91.3927 Y176.1210
G01 X93.3790 Y178.7771
G01 X95.6060 Y181.2275
G01 X98.0564 Y183.4546
G01 X100.7126 Y185.4408
G01 X103.5569 Y187.1687
G01 X106.5719 Y188.6211
G01 X109.7403 Y189.7808
G01 X113.0454 Y190.6306
G01 X116.4706 Y191.1534
G01 X120.0000 Y191.3316
G01 X123.5294 Y191.1534
G01 X126.9546 Y190.6306
G01 X130.2597 Y189.7808
G01 X133.4281 Y188.6211
G01 X136.4431 Y187.1687
G01 X139.2874 Y185.4408
G01 X141.9436 Y183.4546
G01 X144.3940 Y181.2275
G01 X146.6213 Y178.7773
G01 X148.6073 Y176.1210
G01 X150.3352 Y173.2767
G01 X151.7876 Y170.2617
G01 X152.9473 Y167.0932
G01 X153.7975 Y163.7882
G01 X154.3202 Y160.3630
G01 X154.4985 Y156.8335
G01 X154.3202 Y153.3040
G01 X153.7975 Y149.8788
G01 X152.9473 Y146.5739
G01 X151.7876 Y143.4053
G01 X150.3352 Y140.3904
G01 X148.6073 Y137.5461
G01 X146.6213 Y134.8897
G01 X144.3940 Y132.4395
G01 X141.9436 Y130.2124
G01 X139.2874 Y128.2262
G01 X136.4431 Y126.4983
G01 X133.4281 Y125.0459
G01 X130.2597 Y123.8862
G01 X126.9546 Y123.0364
G01 X123.5294 Y122.5136
G01 X120.0000 Y122.3354
G01 X116.4706 Y122.5136
G01 X113.0454 Y123.0364
G01 X109.7403 Y123.8862
G01 X106.5719 Y125.0459
G01 X103.5568 Y126.4983
G01 X100.7126 Y128.2262
G01 X98.0564 Y130.2124
G01 X95.6060 Y132.4395
G01 X93.3790 Y134.8899
G01 X91.3927 Y137.5461
G01 X89.6648 Y140.3904
G01 X88.2124 Y143.4054
G01 X87.0527 Y146.5739
G01 X86.2029 Y149.8789
G01 X85.6801 Y153.3041
G01 X85.5019 Y156.8335
G01 X85.6801 Y160.3629
G01 X86.2029 Y163.7881
G00 Z5.0000

(Nr. 40 Ausschnitt 3)
G00 X165.6801 Y160.3629
G00 Z0.5000
G01 Z-1.0000 F300
G01 X166.2029 Y163.7881 F2000
G01 X167.0523 Y167.0933
G01 X168.2124 Y170.2617
G01 X169.6648 Y173.2767
G01 X171.3927 Y176.1210
G01 X173.3790 Y178.7771
G01 X175.6060 Y181.2275
G01 X178.0564 Y183.4546
G01 X180.7126 Y185.4408
G01 X183.5569 Y187.1687
G01 X186.5719 Y188.6211
G01 X189.7403 Y189.7808
G01 X193.0454 Y190.6306
G01 X196.4706 Y191.1534
G01 X200.0000 Y191.3316
G01 X203.5294 Y191.1534
G01 X206.9546 Y190.6306
G01 X210.2597 Y189.7808
G01 X213.4281 Y188.6211
G01 X216.4431 Y187.1687
G01 X219.2874 Y185.4408
G01 X221.9436 Y183.4546
G01 X224.3940 Y181.2275
G01 X226.6210 Y178.7771
G01 X228.6073 Y176.1210
G01 X230.3352 Y173.2767
G01 X231.7876 Y170.2616
G01 X232.9473 Y167.0932
G01 X233.7971 Y163.7881
G01 X234.3199 Y160.3629
G01 X234.4985 Y156.8335
G01 X234.3199 Y153.3041
G01 X233.7971 Y149.8789
G01 X232.9473 Y146.5739
G01 X231.7876 Y143.4054
G01 X230.3352 Y140.3904
G01 X228.6073 Y137.5461
G01 X226.6210 Y134.8899
G01 X224.3940 Y132.4395
G01 X221.9436 Y130.2124
G01 X219.2874 Y128.2262
G01 X216.4432 Y126.4983
G01 X213.4281 Y125.0459
G01 X210.2597 Y123.8862
G01 X206.9546 Y123.0364
G01 X203.5294 Y122.5136
G01 X200.0000 Y122.3354
G01 X196.4706 Y122.5136
G01 X193.0454 Y123.0364
G01 X189.7403 Y123.8862
G01 X186.5719 Y125.0459
G01 X183.5567 Y126.4980
G01 X180.7126 Y128.2262
G01 X178.0564 Y130.2124
G01 X175.6060 Y132.4395
G01 X173.3790 Y134.8899
G01 X171.3924 Y137.5459
G01 X169.6648 Y140.3904
G01 X168.2124 Y143.4053
G01 X167.0523 Y146.5737
G01 X166.2029 Y149.8789
G01 X165.6801 Y153.3041
G01 X165.5015 Y156.8335
G01 X165.6801 Y160.3629
G01 Z-2.0000 F300
G01 X166.2029 Y163.7881 F2000
G01 X167.0523 Y167.0933
G01 X168.2124 Y170.2617
G01 X169.6648 Y173.2767
G01 X171.3927 Y176.1210
G01 X173.3790 Y178.7771
G01 X175.6060 Y181.2275
G01 X178.0564 Y183.4546
G01 X180.7126 Y185.4408
G01 X183.5569 Y187.1687
G01 X186.5719 Y188.6211
G01 X189.7403 Y189.7808
G01 X193.0454 Y190.6306
G01 X196.4706 Y191.1534
G01 X200.0000 Y191.3316
G01 X203.5294 Y191.1534
G01 X206.9546 Y190.6306
G01 X210.2597 Y189.7808
G01 X213.4281 Y188.6211
G01 X216.4431 Y187.1687
G01 X219.2874 Y185.4408
G01 X221.9436 Y183.4546
G01 X224.3940 Y181.2275
G01 X226.6210 Y178.7771
G01 X228.6073 Y176.1210
G01 X230.3352 Y173.2767
G01 X231.7876 Y170.2616
G01 X232.9473 Y167.0932
G01 X233.7971 Y163.7881
G01 X234.3199 Y160.3629
G01 X234.4985 Y156.8335
G01 X234.3199 Y153.3041
G01 X233.7971 Y149.8789
G01 X232.9473 Y146.5739
G01 X231.7876 Y143.4054
G01 X230.3352 Y140.3904
G01 X228.6073 Y137.5461
G01 X226.6210 Y134.8899
G01 X224.3940 Y132.4395
G01 X221.9436 Y130.2124
G01 X219.2874 Y128.2262
G01 X216.4432 Y126.4983
G01 X213.4281 Y125.0459
G01 X210.2597 Y123.8862
G01 X206.9546 Y123.0364
G01 X203.5294 Y122.5136
G01 X200.0000 Y122.3354
G01 X196.4706 Y122.5136
G01 X193.0454 Y123.0364
G01 X189.7403 Y123.8862
G01 X186.5719 Y125.0459
G01 X183.5567 Y126.4980
G01 X180.7126 Y128.2262
G01 X178.0564 Y130.2124
G01 X175.6060 Y132.4395
G01 X173.3790 Y134.8899
G01 X171.3924 Y137.5459
G01 X169.6648 Y140.3904
G01 X168.2124 Y143.4053
G01 X167.0523 Y146.5737
G01 X166.2029 Y149.8789
G01 X165.6801 Y153.3041
G01 X165.5015 Y156.8335
G01 X165.6801 Y160.3629
G01 Z-3.0000 F300
G01 X166.2029 Y163.7881 F2000
G01 X167.0523 Y167.0933
G01 X168.2124 Y170.2617
G01 X169.6648 Y173.2767
G01 X171.3927 Y176.1210
G01 X173.3790 Y178.7771
G01 X175.6060 Y181.2275
G01 X178.0564 Y183.4546
G01 X180.7126 Y185.4408
G01 X183.5569 Y187.1687
G01 X186.5719 Y188.6211
G01 X189.7403 Y189.7808
G01 X193.0454 Y190.6306
G01 X196.4706 Y191.1534
G01 X200.0000 Y191.3316
G01 X203.5294 Y191.1534
G01 X206.9546 Y190.6306
G01 X210.2597 Y189.7808
G01 X213.4281 Y188.6211
G01 X216.4431 Y187.1687
G01 X219.2874 Y185.4408
G01 X221.9436 Y183.4546
G01 X224.3940 Y181.2275
G01 X226.6210 Y178.7771
G01 X228.6073 Y176.1210
G01 X230.3352 Y173.2767
G01 X231.7876 Y170.2616
G01 X232.9473 Y167.0932
G01 X233.7971 Y163.7881
G01 X234.3199 Y160.3629
G01 X234.4985 Y156.8335
G01 X234.3199 Y153.3041
G01 X233.7971 Y149.8789
G01 X232.9473 Y146.5739
G01 X231.7876 Y143.4054
G01 X230.3352 Y140.3904
G01 X228.6073 Y137.5461
G01 X226.6210 Y134.8899
G01 X224.3940 Y132.4395
G01 X221.9436 Y130.2124
G01 X219.2874 Y128.2262
G01 X216.4432 Y126.4983
G01 X213.4281 Y125.0459
G01 X210.2597 Y123.8862
G01 X206.9546 Y123.0364
G01 X203.5294 Y122.5136
G01 X200.0000 Y122.3354
G01 X196.4706 Y122.5136
G01 X193.0454 Y123.0364
G01 X189.7403 Y123.8862
G01 X186.5719 Y125.0459
G01 X183.5567 Y126.4980
G01 X180.7126 Y128.2262
G01 X178.0564 Y130.2124
G01 X175.6060 Y132.4395
G01 X173.3790 Y134.8899
G01 X171.3924 Y137.5459
G01 X169.6648 Y140.3904
G01 X168.2124 Y143.4053
G01 X167.0523 Y146.5737
G01 X166.2029 Y149.8789
G01 X165.6801 Y153.3041
G01 X165.5015 Y156.8335
G01 X165.6801 Y160.3629
G00 Z5.0000

(Nr. 41 Ausschnitt 4)
G00 X245.5015 Y156.8335
G00 Z0.5000
G01 Z-1.0000 F300
G01 X245.6801 Y160.3629 F2000
G01 X246.2029 Y163.7881
G01 X247.0527 Y167.0932
G01 X248.2124 Y170.2616
G01 X249.6648 Y173.2767
G01 X251.3927 Y176.1210
G01 X253.3790 Y178.7771
G01 X255.6058 Y181.2277
G01 X258.0562 Y183.4548
G01 X260.7126 Y185.4408
G01 X263.5569 Y187.1687
G01 X266.5719 Y188.6211
G01 X269.7404 Y189.7808
G01 X273.0454 Y190.6306
G01 X276.4706 Y191.1534
G01 X280.0000 Y191.3316
G01 X283.5294 Y191.1534
G01 X286.9546 Y190.6306
G01 X290.2597 Y189.7808
G01 X293.4282 Y188.6211
G01 X296.4431 Y187.1687
G01 X299.2874 Y185.4408
G01 X301.9436 Y183.4546
G01 X304.3940 Y181.2275
G01 X306.6211 Y178.7771
G01 X308.6073 Y176.1210
G01 X310.3352 Y173.2767
G01 X311.7876 Y170.2616
G01 X312.9473 Y167.0932
G01 X313.7971 Y163.7881
G01 X314.3202 Y160.3630
G01 X314.4984 Y156.8335
G01 X314.3202 Y153.3040
G01 X313.7971 Y149.8789
G01 X312.9473 Y146.5739
G01 X311.7876 Y143.4054
G01 X310.3352 Y140.3904
G01 X308.6073 Y137.5461
G01 X306.6211 Y134.8899
G01 X304.3940 Y132.4395
G01 X301.9436 Y130.2125
G01 X299.2874 Y128.2262
G01 X296.4431 Y126.4983
G01 X293.4282 Y125.0459
G01 X290.2597 Y123.8862
G01 X286.9546 Y123.0364
G01 X283.5294 Y122.5136
G01 X280.0000 Y122.3354
G01 X276.4706 Y122.5136
G01 X273.0454 Y123.0364
G01 X269.7404 Y123.8862
G01 X266.5718 Y125.0459
G01 X263.5569 Y126.4983
G01 X260.7126 Y128.2262
G01 X258.0562 Y130.2122
G01 X255.6060 Y132.4395
G01 X253.3790 Y134.8899
G01 X251.3927 Y137.5461
G01 X249.6648 Y140.3904
G01 X248.2124 Y143.4054
G01 X247.0527 Y146.5739
G01 X246.2029 Y149.8789
G01 X245.6801 Y153.3041
G01 X245.5015 Y156.8335
G01 Z-2.0000 F300
G01 X245.6801 Y160.3629 F2000
G01 X246.2029 Y163.7881
G01 X247.0527 Y167.0932
G01 X248.2124 Y170.2616
G01 X249.6648 Y173.2767
G01 X251.3927 Y176.1210
G01 X253.3790 Y178.7771
G01 X255.6058 Y181.2277
G01 X258.0562 Y183.4548
G01 X260.7126 Y185.4408
G01 X263.5569 Y187.1687
G01 X266.5719 Y188.6211
G01 X269.7404 Y189.7808
G01 X273.0454 Y190.6306
G01 X276.4706 Y191.1534
G01 X280.0000 Y191.3316
G01 X283.5294 Y191.1534
G01 X286.9546 Y190.6306
G01 X290.2597 Y189.7808
G01 X293.4282 Y188.6211
G01 X296.4431 Y187.1687
G01 X299.2874 Y185.4408
G01 X301.9436 Y183.4546
G01 X304.3940 Y181.2275
G01 X306.6211 Y178.7771
G01 X308.6073 Y176.1210
G01 X310.3352 Y173.2767
G01 X311.7876 Y170.2616
G01 X312.9473 Y167.0932
G01 X313.7971 Y163.7881
G01 X314.3202 Y160.3630
G01 X314.4984 Y156.8335
G01 X314.3202 Y153.3040
G01 X313.7971 Y149.8789
G01 X312.9473 Y146.5739
G01 X311.7876 Y143.4054
G01 X310.3352 Y140.3904
G01 X308.6073 Y137.5461
G01 X306.6211 Y134.8899
G01 X304.3940 Y132.4395
G01 X301.9436 Y130.2125
G01 X299.2874 Y128.2262
G01 X296.4431 Y126.4983
G01 X293.4282 Y125.0459
G01 X290.2597 Y123.8862
G01 X286.9546 Y123.0364
G01 X283.5294 Y122.5136
G01 X280.0000 Y122.3354
G01 X276.4706 Y122.5136
G01 X273.0454 Y123.0364
G01 X269.7404 Y123.8862
G01 X266.5718 Y125.0459
G01 X263.5569 Y126.4983
G01 X260.7126 Y128.2262
G01 X258.0562 Y130.2122
G01 X255.6060 Y132.4395
G01 X253.3790 Y134.8899
G01 X251.3927 Y137.5461
G01 X249.6648 Y140.3904
G01 X248.2124 Y143.4054
G01 X247.0527 Y146.5739
G01 X246.2029 Y149.8789
G01 X245.6801 Y153.3041
G01 X245.5015 Y156.8335
G01 Z-3.0000 F300
G01 X245.6801 Y160.3629 F2000
G01 X246.2029 Y163.7881
G01 X247.0527 Y167.0932
G01 X248.2124 Y170.2616
G01 X249.6648 Y173.2767
G01 X251.3927 Y176.1210
G01 X253.3790 Y178.7771
G01 X255.6058 Y181.2277
G01 X258.0562 Y183.4548
G01 X260.7126 Y185.4408
G01 X263.5569 Y187.1687
G01 X266.5719 Y188.6211
G01 X269.7404 Y189.7808
G01 X273.0454 Y190.6306
G01 X276.4706 Y191.1534
G01 X280.0000 Y191.3316
G01 X283.5294 Y191.1534
G01 X286.9546 Y190.6306
G01 X290.2597 Y189.7808
G01 X293.4282 Y188.6211
G01 X296.4431 Y187.1687
G01 X299.2874 Y185.4408
G01 X301.9436 Y183.4546
G01 X304.3940 Y181.2275
G01 X306.6211 Y178.7771
G01 X308.6073 Y176.1210
G01 X310.3352 Y173.2767
G01 X311.7876 Y170.2616
G01 X312.9473 Y167.0932
G01 X313.7971 Y163.7881
G01 X314.3202 Y160.3630
G01 X314.4984 Y156.8335
G01 X314.3202 Y153.3040
G01 X313.7971 Y149.8789
G01 X312.9473 Y146.5739
G01 X311.7876 Y143.4054
G01 X310.3352 Y140.3904
G01 X308.6073 Y137.5461
G01 X306.6211 Y134.8899
G01 X304.3940 Y132.4395
G01 X301.9436 Y130.2125
G01 X299.2874 Y128.2262
G01 X296.4431 Y126.4983
G01 X293.4282 Y125.0459
G01 X290.2597 Y123.8862
G01 X286.9546 Y123.0364
G01 X283.5294 Y122.5136
G01 X280.0000 Y122.3354
G01 X276.4706 Y122.5136
G01 X273.0454 Y123.0364
G01 X269.7404 Y123.8862
G01 X266.5718 Y125.0459
G01 X263.5569 Y126.4983
G01 X260.7126 Y128.2262
G01 X258.0562 Y130.2122
G01 X255.6060 Y132.4395
G01 X253.3790 Y134.8899
G01 X251.3927 Y137.5461
G01 X249.6648 Y140.3904
G01 X248.2124 Y143.4054
G01 X247.0527 Y146.5739
G01 X246.2029 Y149.8789
G01 X245.6801 Y153.3041
G01 X245.5015 Y156.8335
G00 Z5.0000

(Nr. 42 Teil 1)
G00 X320.0000 Y205.1670
G00 Z0.5000
G01 Z-1.0000 F300
G01 X0.0000 F2000
G03 X-1.5000 Y203.6670 I0.0000 J-1.5000
G01 Y110.0000
G03 X0.0000 Y108.5000 I1.5000 J0.0000
G01 X320.0000
G03 X321.5000 Y110.0000 I0.0000 J1.5000
G01 Y203.6670
G03 X320.0000 Y205.1670 I-1.5000 J0.0000
G01 Z-2.0000 F300
G01 X0.0000 F2000
G03 X-1.5000 Y203.6670 I0.0000 J-1.5000
G01 Y110.0000
G03 X0.0000 Y108.5000 I1.5000 J0.0000
G01 X320.0000
G03 X321.5000 Y110.0000 I0.0000 J1.5000
G01 Y203.6670
G03 X320.0000 Y205.1670 I-1.5000 J0.0000
G01 Z-3.0000 F300
G01 X0.0000 F2000
G03 X-1.5000 Y203.6670 I0.0000 J-1.5000
G01 Y110.0000
G03 X0.0000 Y108.5000 I1.5000 J0.0000
G01 X320.0000
G03 X321.5000 Y110.0000 I0.0000 J1.5000
G01 Y203.6670
G03 X320.0000 Y205.1670 I-1.5000 J0.0000
G00 Z5.0000
G00 X0.0000 Y0.0000

M05
M30
