(Projekt m-seite-logo-neu)
(Erstellt mit Estlcam 2.5D Version 7 Build 7,101)
(Fraesrichtung: Gegenlauf)
(Nullpunkt: Auf Teileoberseite)
(Maximale Fraestiefe: 3,00mm)
(Verwendete Werkzeuge:)
(Fraeser 3mm)

G90
M03
G00 Z5.0000

(Nr. 1 Ausschnitt 2)
G00 X94.7033 Y70.3545
G00 Z0.5000
G01 Z-1.0000 F300 S24000
G01 Y70.7411 F2000
G01 X94.5625 Y70.4411
G01 X96.9533 Y68.9709
G01 Y75.5368
G01 X99.2033 Y80.3326
G01 Y67.5873
G01 X101.4532 Y66.2037
G01 Y85.1283
G01 X103.7032 Y89.9240
G01 Y64.8200
G01 X105.9532 Y63.4364
G01 Y94.7197
G01 X108.2032 Y99.5154
G01 Y62.0528
G01 X110.4532 Y60.6692
G01 Y104.3111
G01 X112.7032 Y109.1068
G01 Y59.2856
G01 X114.9532 Y57.9020
G01 Y113.9025
G01 X117.2032 Y118.6983
G01 Y56.5183
G01 X119.4532 Y55.1347
G01 Y123.4940
G01 X121.7032 Y128.2897
G01 Y53.7511
G01 X123.9532 Y52.3675
G01 Y133.0854
G01 X126.2032 Y137.8811
G01 Y50.9839
G01 X128.4532 Y49.6003
G01 Y142.6768
G01 X130.7032 Y147.4725
G01 Y48.2166
G01 X132.9532 Y46.8330
G01 Y152.2683
G01 X135.2032 Y157.0640
G01 Y45.4494
G01 X135.2990 Y45.3905
G01 X137.4532 Y59.1895
G01 Y161.2000
G01 X139.7032
G01 Y73.6016
G01 X141.9532 Y88.0137
G01 Y161.2000
G01 X144.2032
G01 Y102.4259
G01 X146.4532 Y116.8380
G01 Y161.2000
G01 X148.7032
G01 Y131.2502
G01 X150.9532 Y145.6623
G01 Y161.2000
G01 X153.2032
G01 Y160.0745
G00 Z5.0000
G00 X94.1771 Y70.3259
G00 Z0.5000
G01 Z-1.0000 F300
G01 X136.9531 Y161.5000 F2000
G01 X153.7294
G01 X135.5258 Y44.8985
G01 X94.1771 Y70.3259
G00 Z5.0000

(Nr. 2 Ausschnitt 1)
G00 X178.0467 Y88.0118
G00 Z0.5000
G01 Z-1.0000 F300
G01 Y161.2000 F2000
G01 X175.7967
G01 Y102.4243
G01 X173.5467 Y116.8368
G01 Y161.2000
G01 X171.2967
G01 Y131.2493
G01 X169.0467 Y145.6618
G01 Y161.2000
G01 X166.7967
G01 Y160.0744
G01 X166.6210 Y161.2000
G01 X180.2967
G01 Y73.5992
G01 X182.5467 Y59.1867
G01 Y161.2000
G01 X182.8562
G01 X184.7967 Y157.0640
G01 Y45.4493
G01 X187.0467 Y46.8329
G01 Y152.2683
G01 X189.2967 Y147.4726
G01 Y48.2166
G01 X191.5467 Y49.6002
G01 Y142.6769
G01 X193.7967 Y137.8812
G01 Y50.9838
G01 X196.0467 Y52.3674
G01 Y133.0855
G01 X198.2967 Y128.2898
G01 Y53.7510
G01 X200.5467 Y55.1347
G01 Y123.4940
G01 X202.7967 Y118.6983
G01 Y56.5183
G01 X205.0467 Y57.9019
G01 Y113.9026
G01 X207.2967 Y109.1069
G01 Y59.2855
G01 X209.5467 Y60.6691
G01 Y104.3112
G01 X211.7967 Y99.5155
G01 Y62.0528
G01 X214.0467 Y63.4364
G01 Y94.7198
G01 X216.2967 Y89.9240
G01 Y64.8200
G01 X218.5467 Y66.2036
G01 Y85.1283
G01 X220.7967 Y80.3326
G01 Y67.5872
G01 X223.0467 Y68.9709
G01 Y75.5369
G01 X225.2967 Y70.7412
G01 Y70.3545
G00 Z5.0000
G00 X184.4739 Y44.8987
G00 Z0.5000
G01 Z-1.0000 F300
G01 X166.2705 Y161.5000 F2000
G01 X183.0469
G01 X225.8229 Y70.3259
G01 X184.4739 Y44.8987
G00 Z5.0000

(Nr. 3 Teil 1)
G00 X320.0000 Y-1.5000
G00 Z0.5000
G01 Z-1.0000 F300
G03 X321.5000 Y0.0000 I0.0000 J1.5000 F2000
G01 Y206.0000
G03 X320.0000 Y207.5000 I-1.5000 J0.0000
G01 X0.0000
G03 X-1.5000 Y206.0000 I0.0000 J-1.5000
G01 Y0.0000
G03 X0.0000 Y-1.5000 I1.5000 J0.0000
G01 X320.0000
G01 Z-2.0000 F300
G03 X321.5000 Y0.0000 I0.0000 J1.5000 F2000
G01 Y206.0000
G03 X320.0000 Y207.5000 I-1.5000 J0.0000
G01 X0.0000
G03 X-1.5000 Y206.0000 I0.0000 J-1.5000
G01 Y0.0000
G03 X0.0000 Y-1.5000 I1.5000 J0.0000
G01 X320.0000
G01 Z-3.0000 F300
G03 X321.5000 Y0.0000 I0.0000 J1.5000 F2000
G01 Y206.0000
G03 X320.0000 Y207.5000 I-1.5000 J0.0000
G01 X0.0000
G03 X-1.5000 Y206.0000 I0.0000 J-1.5000
G01 Y0.0000
G03 X0.0000 Y-1.5000 I1.5000 J0.0000
G01 X320.0000
G00 Z5.0000
G00 X0.0000 Y0.0000

M05
M30
