(Projekt m-seite-schriftzug)
(Erstellt mit Estlcam 2.5D Version 7 Build 7,101)
(Fraesrichtung: Gegenlauf)
(Nullpunkt: Auf Teileoberseite)
(Maximale Fraestiefe: 3,00mm)
(Verwendete Werkzeuge:)
(Fraeser 3mm)

G90
M03
G00 Z5.0000

(Nr. 1 Ausschnitt 2)
G00 X69.7500 Y96.8000
G00 Z0.5000
G01 Z-1.0000 F300 S24000
G01 Y113.2000 F2000
G01 X72.0000
G01 Y96.8000
G01 X74.2500
G01 Y113.2000
G00 Z5.0000
G00 X67.5000 Y96.5000
G00 Z0.5000
G01 Z-1.0000 F300
G01 Y113.5000 F2000
G01 X76.5000
G01 Y96.5000
G01 X67.5000
G00 Z5.0000

(Nr. 2 Ausschnitt 3)
G00 X177.7500 Y108.8000
G00 Z0.5000
G01 Z-1.0000 F300
G01 Y113.2000 F2000
G01 X180.0000
G01 Y108.8000
G01 X182.2500
G01 Y113.2000
G00 Z5.0000
G00 X175.5000 Y108.5000
G00 Z0.5000
G01 Z-1.0000 F300
G01 Y113.5000 F2000
G01 X184.5000
G01 Y108.5000
G01 X175.5000
G00 Z5.0000

(Nr. 3 Ausschnitt 4)
G00 X245.7500 Y104.8000
G00 Z0.5000
G01 Z-1.0000 F300
G01 Y113.2000 F2000
G01 X248.0000
G01 Y104.8000
G01 X250.2500
G01 Y113.2000
G00 Z5.0000
G00 X243.5000 Y104.5000
G00 Z0.5000
G01 Z-1.0000 F300
G01 Y113.5000 F2000
G01 X252.5000
G01 Y104.5000
G01 X243.5000
G00 Z5.0000

(Nr. 4 Ausschnitt 1)
G00 X245.5000 Y97.2000
G00 Y84.8000
G00 Z0.5000
G01 Z-1.0000 F300
G01 Y97.2000 F2000
G01 X247.7500
G01 Y84.8000
G01 X243.2500
G01 Y89.7293
G01 X243.2259 Y89.7052
G01 X243.1800 Y89.6624
G01 X243.1326 Y89.6211
G01 X243.0837 Y89.5816
G01 X243.0336 Y89.5438
G01 X242.9821 Y89.5077
G01 X242.9294 Y89.4735
G01 X242.8755 Y89.4412
G01 X242.8206 Y89.4107
G01 X242.7646 Y89.3822
G01 X242.7077 Y89.3556
G01 X242.6498 Y89.3311
G01 X242.5912 Y89.3086
G01 X242.5318 Y89.2881
G01 X242.4717 Y89.2697
G01 X242.4110 Y89.2535
G01 X242.3498 Y89.2393
G01 X242.2881 Y89.2274
G01 X242.2261 Y89.2175
G01 X242.1637 Y89.2099
G01 X242.1011 Y89.2044
G01 X242.0384 Y89.2011
G01 X241.9755 Y89.2000
G01 X241.0000
G01 Y84.8000
G01 X238.7500
G01 Y89.2000
G01 X236.5000
G01 Y84.8000
G01 X234.2500
G01 Y89.2000
G00 Z5.0000
G00 X232.0000 Y84.8000
G00 Z0.5000
G01 Z-1.0000 F300
G01 Y117.2000 F2000
G01 X234.0000
G01 X234.0628 Y117.2011
G01 X234.1255 Y117.2044
G01 X234.1881 Y117.2099
G01 X234.2500 Y117.2175
G01 Y116.8000
G01 X236.1755
G01 Y119.0000
G01 X236.1766 Y119.0628
G01 X236.1799 Y119.1256
G01 X236.1854 Y119.1882
G01 X236.1931 Y119.2505
G01 X236.2029 Y119.3126
G01 X236.2149 Y119.3742
G01 X236.2290 Y119.4355
G01 X236.2453 Y119.4962
G01 X236.2636 Y119.5562
G01 X236.2841 Y119.6156
G01 X236.3066 Y119.6743
G01 X236.3312 Y119.7321
G01 X236.3577 Y119.7891
G01 X236.3862 Y119.8451
G01 X236.4167 Y119.9000
G01 X236.4491 Y119.9539
G01 X236.4833 Y120.0066
G01 X236.5000 Y120.0304
G01 Y121.2000
G01 X238.7500
G01 Y120.8000
G01 X241.0000
G01 Y121.2000
G01 X243.2500
G01 Y120.8000
G01 X245.5000
G01 Y121.2000
G01 X247.7500
G01 Y120.8000
G01 X250.0000
G01 Y121.2000
G01 X252.2500
G01 Y120.8000
G01 X254.5000
G01 Y121.2000
G01 X256.7500
G01 Y120.8000
G01 X257.9755
G01 X258.0384 Y120.7989
G01 X258.1011 Y120.7956
G01 X258.1637 Y120.7901
G01 X258.2260 Y120.7825
G01 X258.2881 Y120.7727
G01 X258.3498 Y120.7607
G01 X258.4110 Y120.7465
G01 X258.4717 Y120.7303
G01 X258.5318 Y120.7119
G01 X258.5912 Y120.6915
G01 X258.6498 Y120.6689
G01 X258.7077 Y120.6444
G01 X258.7646 Y120.6178
G01 X258.8206 Y120.5893
G01 X258.8755 Y120.5589
G01 X258.9294 Y120.5265
G01 X258.9821 Y120.4923
G01 X259.0000 Y120.4797
G01 Y121.2000
G01 X260.2000
G01 Y119.0000
G01 X260.2011 Y118.9372
G01 X260.2044 Y118.8744
G01 X260.2098 Y118.8119
G01 X260.2175 Y118.7495
G01 X260.2273 Y118.6874
G01 X260.2393 Y118.6258
G01 X260.2534 Y118.5645
G01 X260.2697 Y118.5039
G01 X260.2881 Y118.4438
G01 X260.3085 Y118.3844
G01 X260.3311 Y118.3257
G01 X260.3556 Y118.2679
G01 X260.3821 Y118.2109
G01 X260.4107 Y118.1550
G01 X260.4411 Y118.1000
G01 X260.4735 Y118.0462
G01 X260.5077 Y117.9935
G01 X260.5438 Y117.9420
G01 X260.5816 Y117.8918
G01 X260.6211 Y117.8430
G01 X260.6623 Y117.7956
G01 X260.7052 Y117.7496
G01 X260.7496 Y117.7052
G01 X260.7956 Y117.6623
G01 X260.8430 Y117.6211
G01 X260.8918 Y117.5816
G01 X260.9420 Y117.5438
G01 X260.9934 Y117.5077
G01 X261.0461 Y117.4735
G01 X261.1000 Y117.4412
G01 X261.1549 Y117.4107
G01 X261.2109 Y117.3822
G01 X261.2500 Y117.3640
G01 Y116.8000
G01 X261.9755
G01 X262.0384 Y116.7989
G01 X262.1011 Y116.7956
G01 X262.1637 Y116.7901
G01 X262.2260 Y116.7825
G01 X262.2881 Y116.7727
G01 X262.3498 Y116.7607
G01 X262.4110 Y116.7465
G01 X262.4717 Y116.7303
G01 X262.5318 Y116.7119
G01 X262.5912 Y116.6915
G01 X262.6498 Y116.6689
G01 X262.7077 Y116.6444
G01 X262.7646 Y116.6178
G01 X262.8206 Y116.5893
G01 X262.8755 Y116.5589
G01 X262.9294 Y116.5265
G01 X262.9821 Y116.4923
G01 X263.0335 Y116.4562
G01 X263.0837 Y116.4184
G01 X263.1326 Y116.3789
G01 X263.1800 Y116.3377
G01 X263.2259 Y116.2948
G01 X263.2704 Y116.2504
G01 X263.3132 Y116.2044
G01 X263.3544 Y116.1570
G01 X263.3940 Y116.1082
G01 X263.4318 Y116.0580
G01 X263.4678 Y116.0066
G01 X263.5000 Y115.9570
G01 Y117.2000
G01 X265.7500
G01 Y84.8000
G01 X263.5000
G01 Y90.0430
G01 X263.4678 Y89.9935
G01 X263.4318 Y89.9420
G01 X263.3940 Y89.8918
G01 X263.3544 Y89.8430
G01 X263.3132 Y89.7956
G01 X263.2704 Y89.7496
G01 X263.2259 Y89.7052
G01 X263.1800 Y89.6624
G01 X263.1326 Y89.6211
G01 X263.0837 Y89.5816
G01 X263.0335 Y89.5438
G01 X262.9821 Y89.5077
G01 X262.9294 Y89.4735
G01 X262.8755 Y89.4412
G01 X262.8206 Y89.4107
G01 X262.7646 Y89.3822
G01 X262.7077 Y89.3556
G01 X262.6498 Y89.3311
G01 X262.5912 Y89.3086
G01 X262.5318 Y89.2881
G01 X262.4717 Y89.2697
G01 X262.4110 Y89.2535
G01 X262.3498 Y89.2393
G01 X262.2881 Y89.2274
G01 X262.2260 Y89.2175
G01 X262.1637 Y89.2099
G01 X262.1011 Y89.2044
G01 X262.0384 Y89.2011
G01 X261.9756 Y89.2000
G01 X261.2500
G01 Y84.8000
G01 X259.0000
G01 Y89.2000
G01 X256.7500
G01 Y84.8000
G01 X255.8000
G01 Y87.0000
G01 X255.7989 Y87.0628
G01 X255.7956 Y87.1256
G01 X255.7901 Y87.1882
G01 X255.7825 Y87.2505
G01 X255.7726 Y87.3126
G01 X255.7607 Y87.3743
G01 X255.7465 Y87.4355
G01 X255.7303 Y87.4962
G01 X255.7119 Y87.5562
G01 X255.6914 Y87.6157
G01 X255.6689 Y87.6743
G01 X255.6444 Y87.7321
G01 X255.6178 Y87.7891
G01 X255.5893 Y87.8451
G01 X255.5588 Y87.9000
G01 X255.5265 Y87.9539
G01 X255.4922 Y88.0066
G01 X255.4562 Y88.0580
G01 X255.4184 Y88.1082
G01 X255.3789 Y88.1570
G01 X255.3376 Y88.2044
G01 X255.2948 Y88.2504
G01 X255.2504 Y88.2948
G01 X255.2044 Y88.3377
G01 X255.1570 Y88.3789
G01 X255.1082 Y88.4184
G01 X255.0580 Y88.4562
G01 X255.0065 Y88.4923
G01 X254.9538 Y88.5265
G01 X254.9000 Y88.5589
G01 X254.8450 Y88.5893
G01 X254.7890 Y88.6178
G01 X254.7321 Y88.6444
G01 X254.6743 Y88.6689
G01 X254.6156 Y88.6915
G01 X254.5562 Y88.7119
G01 X254.5000 Y88.7291
G01 Y89.2000
G01 X253.9755
G01 X253.9127 Y89.2011
G01 X253.8500 Y89.2044
G01 X253.7874 Y89.2099
G01 X253.7250 Y89.2175
G01 X253.6630 Y89.2274
G01 X253.6013 Y89.2393
G01 X253.5401 Y89.2535
G01 X253.4794 Y89.2697
G01 X253.4193 Y89.2881
G01 X253.3599 Y89.3086
G01 X253.3013 Y89.3311
G01 X253.2434 Y89.3556
G01 X253.1865 Y89.3822
G01 X253.1305 Y89.4107
G01 X253.0755 Y89.4412
G01 X253.0217 Y89.4735
G01 X252.9690 Y89.5077
G01 X252.9175 Y89.5438
G01 X252.8674 Y89.5816
G01 X252.8185 Y89.6211
G01 X252.7711 Y89.6624
G01 X252.7252 Y89.7052
G01 X252.6807 Y89.7496
G01 X252.6379 Y89.7956
G01 X252.5967 Y89.8430
G01 X252.5571 Y89.8918
G01 X252.5193 Y89.9420
G01 X252.4833 Y89.9935
G01 X252.4491 Y90.0462
G01 X252.4167 Y90.1000
G01 X252.3862 Y90.1550
G01 X252.3577 Y90.2109
G01 X252.3312 Y90.2679
G01 X252.3066 Y90.3257
G01 X252.2841 Y90.3844
G01 X252.2636 Y90.4438
G01 X252.2500 Y90.4884
G01 Y88.8000
G01 X250.0000
G01 Y97.2000
G00 Z5.0000
G00 X229.7500
G00 Z0.5000
G01 Z-1.0000 F300
G01 Y84.8000 F2000
G01 X227.5000
G01 Y90.0430
G01 X227.4678 Y89.9935
G01 X227.4318 Y89.9420
G01 X227.3940 Y89.8918
G01 X227.3544 Y89.8430
G01 X227.3132 Y89.7956
G01 X227.2704 Y89.7496
G01 X227.2259 Y89.7052
G01 X227.1800 Y89.6624
G01 X227.1326 Y89.6211
G01 X227.0837 Y89.5816
G01 X227.0336 Y89.5438
G01 X226.9821 Y89.5077
G01 X226.9294 Y89.4735
G01 X226.8755 Y89.4412
G01 X226.8206 Y89.4107
G01 X226.7646 Y89.3822
G01 X226.7077 Y89.3556
G01 X226.6498 Y89.3311
G01 X226.5912 Y89.3086
G01 X226.5318 Y89.2881
G01 X226.4717 Y89.2697
G01 X226.4110 Y89.2535
G01 X226.3498 Y89.2393
G01 X226.2881 Y89.2274
G01 X226.2261 Y89.2175
G01 X226.1637 Y89.2099
G01 X226.1011 Y89.2044
G01 X226.0384 Y89.2011
G01 X225.9755 Y89.2000
G01 X225.2500
G01 Y84.8000
G01 X223.0000
G01 Y89.2000
G01 X220.7500
G01 Y84.8000
G01 X218.5000
G01 Y89.2000
G01 X216.2500
G01 Y84.8000
G01 X214.0000
G01 Y89.2000
G01 X211.7500
G01 Y84.8000
G01 X209.5000
G01 Y89.2000
G01 X207.2500
G01 Y84.8000
G01 X205.0000
G01 Y89.2000
G01 X202.7500
G01 Y84.8000
G01 X200.5000
G01 Y89.9696
G00 Z5.0000
G00 X198.2500 Y84.8000
G00 Z0.5000
G01 Z-1.0000 F300
G01 Y117.2175 F2000
G01 X198.1881 Y117.2099
G01 X198.1255 Y117.2044
G01 X198.0628 Y117.2011
G01 X198.0000 Y117.2000
G01 X196.0000
G01 Y84.8000
G01 X193.7500
G01 Y89.2000
G01 X191.5000
G01 Y84.8000
G01 X189.2500
G01 Y89.2000
G01 X187.0000
G01 Y88.4965
G01 X186.9538 Y88.5265
G01 X186.9000 Y88.5589
G01 X186.8450 Y88.5893
G01 X186.7890 Y88.6178
G01 X186.7321 Y88.6444
G01 X186.6743 Y88.6689
G01 X186.6156 Y88.6915
G01 X186.5562 Y88.7119
G01 X186.4961 Y88.7303
G01 X186.4354 Y88.7465
G01 X186.3742 Y88.7607
G01 X186.3125 Y88.7727
G01 X186.2505 Y88.7825
G01 X186.1881 Y88.7902
G01 X186.1255 Y88.7956
G01 X186.0628 Y88.7989
G01 X186.0000 Y88.8000
G01 X184.7500
G01 Y89.6820
G01 X184.7252 Y89.7052
G01 X184.6807 Y89.7496
G01 X184.6379 Y89.7956
G01 X184.5967 Y89.8430
G01 X184.5571 Y89.8918
G01 X184.5193 Y89.9420
G01 X184.4833 Y89.9935
G01 X184.4491 Y90.0462
G01 X184.4167 Y90.1000
G01 X184.3862 Y90.1550
G01 X184.3577 Y90.2109
G01 X184.3312 Y90.2679
G01 X184.3066 Y90.3257
G01 X184.2841 Y90.3844
G01 X184.2636 Y90.4438
G01 X184.2453 Y90.5039
G01 X184.2290 Y90.5645
G01 X184.2149 Y90.6258
G01 X184.2029 Y90.6874
G01 X184.1931 Y90.7495
G01 X184.1854 Y90.8119
G01 X184.1799 Y90.8744
G01 X184.1766 Y90.9372
G01 X184.1755 Y91.0000
G01 Y101.2000
G01 X182.5000
G01 Y88.8000
G01 X182.0000
G01 X181.9372 Y88.7989
G01 X181.8744 Y88.7956
G01 X181.8118 Y88.7902
G01 X181.7495 Y88.7825
G01 X181.6874 Y88.7727
G01 X181.6257 Y88.7607
G01 X181.5645 Y88.7465
G01 X181.5038 Y88.7303
G01 X181.4438 Y88.7119
G01 X181.3844 Y88.6915
G01 X181.3257 Y88.6689
G01 X181.2679 Y88.6444
G01 X181.2109 Y88.6178
G01 X181.1549 Y88.5893
G01 X181.1000 Y88.5589
G01 X181.0461 Y88.5265
G01 X180.9934 Y88.4923
G01 X180.9420 Y88.4562
G01 X180.8918 Y88.4184
G01 X180.8430 Y88.3789
G01 X180.7955 Y88.3377
G01 X180.7496 Y88.2948
G01 X180.7052 Y88.2504
G01 X180.6623 Y88.2044
G01 X180.6211 Y88.1570
G01 X180.5816 Y88.1082
G01 X180.5437 Y88.0580
G01 X180.5077 Y88.0066
G01 X180.4735 Y87.9539
G01 X180.4411 Y87.9000
G01 X180.4107 Y87.8451
G01 X180.3822 Y87.7891
G01 X180.3556 Y87.7321
G01 X180.3311 Y87.6743
G01 X180.3085 Y87.6157
G01 X180.2881 Y87.5562
G01 X180.2697 Y87.4962
G01 X180.2534 Y87.4355
G01 X180.2500 Y87.4205
G01 Y101.2000
G01 X178.0000
G01 Y84.8000
G01 X175.7500
G01 Y90.6988
G01 X175.7482 Y90.6874
G01 X175.7362 Y90.6258
G01 X175.7221 Y90.5645
G01 X175.7058 Y90.5039
G01 X175.6874 Y90.4438
G01 X175.6670 Y90.3844
G01 X175.6445 Y90.3257
G01 X175.6199 Y90.2679
G01 X175.5934 Y90.2109
G01 X175.5648 Y90.1550
G01 X175.5344 Y90.1000
G01 X175.5020 Y90.0462
G01 X175.4678 Y89.9935
G01 X175.4318 Y89.9420
G01 X175.3940 Y89.8918
G01 X175.3544 Y89.8430
G01 X175.3132 Y89.7956
G01 X175.2704 Y89.7496
G01 X175.2259 Y89.7052
G01 X175.1800 Y89.6624
G01 X175.1326 Y89.6211
G01 X175.0837 Y89.5816
G01 X175.0336 Y89.5438
G01 X174.9821 Y89.5077
G01 X174.9294 Y89.4735
G01 X174.8755 Y89.4412
G01 X174.8206 Y89.4107
G01 X174.7646 Y89.3822
G01 X174.7077 Y89.3556
G01 X174.6498 Y89.3311
G01 X174.5912 Y89.3086
G01 X174.5318 Y89.2881
G01 X174.4717 Y89.2697
G01 X174.4110 Y89.2535
G01 X174.3498 Y89.2393
G01 X174.2881 Y89.2274
G01 X174.2261 Y89.2175
G01 X174.1637 Y89.2099
G01 X174.1011 Y89.2044
G01 X174.0384 Y89.2011
G01 X173.9755 Y89.2000
G01 X173.5000
G01 Y84.8000
G01 X171.2500
G01 Y89.2000
G01 X169.0000
G01 Y84.8000
G01 X166.7500
G01 Y89.2000
G01 X165.9755
G01 X165.9127 Y89.2011
G01 X165.8500 Y89.2044
G01 X165.7874 Y89.2099
G01 X165.7250 Y89.2175
G01 X165.6630 Y89.2274
G01 X165.6013 Y89.2393
G01 X165.5401 Y89.2535
G01 X165.4794 Y89.2697
G01 X165.4193 Y89.2881
G01 X165.3599 Y89.3086
G01 X165.3013 Y89.3311
G01 X165.2434 Y89.3556
G01 X165.1865 Y89.3822
G01 X165.1305 Y89.4107
G01 X165.0755 Y89.4412
G01 X165.0217 Y89.4735
G01 X164.9690 Y89.5077
G01 X164.9175 Y89.5438
G01 X164.8674 Y89.5816
G01 X164.8185 Y89.6211
G01 X164.7711 Y89.6624
G01 X164.7252 Y89.7052
G01 X164.6807 Y89.7496
G01 X164.6379 Y89.7956
G01 X164.5967 Y89.8430
G01 X164.5571 Y89.8918
G01 X164.5193 Y89.9420
G01 X164.5000 Y89.9696
G01 Y84.8000
G01 X162.2500
G01 Y121.2000
G01 X160.0000
G01 Y84.8000
G01 X157.7500
G01 Y89.2000
G01 X155.5000
G01 Y84.8000
G01 X153.2500
G01 Y89.2000
G01 X151.0000
G01 Y84.8000
G01 X148.7500
G01 Y89.2000
G01 X146.5000
G01 Y84.8000
G01 X144.2500
G01 Y89.2000
G01 X142.0000
G01 Y84.8000
G01 X139.7500
G01 Y89.2000
G01 X137.5000
G01 Y84.8000
G01 X135.2500
G01 Y89.2000
G01 X133.0000
G01 Y84.8000
G01 X131.8000
G01 Y87.0000
G01 X131.7989 Y87.0628
G01 X131.7956 Y87.1256
G01 X131.7901 Y87.1882
G01 X131.7825 Y87.2505
G01 X131.7726 Y87.3126
G01 X131.7607 Y87.3743
G01 X131.7465 Y87.4355
G01 X131.7303 Y87.4962
G01 X131.7119 Y87.5562
G01 X131.6914 Y87.6157
G01 X131.6689 Y87.6743
G01 X131.6444 Y87.7321
G01 X131.6178 Y87.7891
G01 X131.5893 Y87.8451
G01 X131.5588 Y87.9000
G01 X131.5265 Y87.9539
G01 X131.4922 Y88.0066
G01 X131.4562 Y88.0580
G01 X131.4184 Y88.1082
G01 X131.3789 Y88.1570
G01 X131.3376 Y88.2044
G01 X131.2948 Y88.2504
G01 X131.2504 Y88.2948
G01 X131.2044 Y88.3377
G01 X131.1570 Y88.3789
G01 X131.1082 Y88.4184
G01 X131.0580 Y88.4562
G01 X131.0065 Y88.4923
G01 X130.9538 Y88.5265
G01 X130.9000 Y88.5589
G01 X130.8450 Y88.5893
G01 X130.7890 Y88.6178
G01 X130.7500 Y88.6361
G01 Y89.2000
G01 X130.0000
G01 X129.9372 Y89.2011
G01 X129.8744 Y89.2044
G01 X129.8118 Y89.2099
G01 X129.7495 Y89.2175
G01 X129.6874 Y89.2274
G01 X129.6257 Y89.2393
G01 X129.5645 Y89.2535
G01 X129.5038 Y89.2697
G01 X129.4438 Y89.2881
G01 X129.3844 Y89.3086
G01 X129.3257 Y89.3311
G01 X129.2679 Y89.3556
G01 X129.2109 Y89.3822
G01 X129.1549 Y89.4107
G01 X129.1000 Y89.4412
G01 X129.0461 Y89.4735
G01 X128.9934 Y89.5077
G01 X128.9420 Y89.5438
G01 X128.8918 Y89.5816
G01 X128.8430 Y89.6211
G01 X128.7955 Y89.6624
G01 X128.7496 Y89.7052
G01 X128.7052 Y89.7496
G01 X128.6623 Y89.7956
G01 X128.6211 Y89.8430
G01 X128.5816 Y89.8918
G01 X128.5437 Y89.9420
G01 X128.5077 Y89.9935
G01 X128.5000 Y90.0053
G01 Y88.8000
G01 X127.8000
G01 Y91.0000
G01 X127.7989 Y91.0628
G01 X127.7956 Y91.1256
G01 X127.7901 Y91.1882
G01 X127.7825 Y91.2505
G01 X127.7726 Y91.3126
G01 X127.7607 Y91.3743
G01 X127.7465 Y91.4355
G01 X127.7303 Y91.4962
G01 X127.7119 Y91.5562
G01 X127.6914 Y91.6157
G01 X127.6689 Y91.6743
G01 X127.6444 Y91.7321
G01 X127.6178 Y91.7891
G01 X127.5893 Y91.8451
G01 X127.5588 Y91.9000
G01 X127.5265 Y91.9539
G01 X127.4923 Y92.0066
G01 X127.4562 Y92.0580
G01 X127.4184 Y92.1082
G01 X127.3789 Y92.1570
G01 X127.3376 Y92.2044
G01 X127.2948 Y92.2504
G01 X127.2504 Y92.2948
G01 X127.2044 Y92.3377
G01 X127.1570 Y92.3789
G01 X127.1082 Y92.4184
G01 X127.0580 Y92.4562
G01 X127.0065 Y92.4923
G01 X126.9538 Y92.5265
G01 X126.9000 Y92.5589
G01 X126.8450 Y92.5893
G01 X126.7891 Y92.6178
G01 X126.7321 Y92.6444
G01 X126.6743 Y92.6689
G01 X126.6156 Y92.6915
G01 X126.5562 Y92.7119
G01 X126.4961 Y92.7303
G01 X126.4354 Y92.7465
G01 X126.3742 Y92.7607
G01 X126.3126 Y92.7727
G01 X126.2500 Y92.7826
G01 Y121.2000
G01 X124.0000
G01 Y92.8000
G01 X122.0000
G01 X121.9372 Y92.7989
G01 X121.8744 Y92.7956
G01 X121.8118 Y92.7902
G01 X121.7500 Y92.7826
G01 Y101.2000
G01 X119.7755
G01 Y99.0000
G01 X119.7744 Y98.9372
G01 X119.7712 Y98.8744
G01 X119.7657 Y98.8119
G01 X119.7580 Y98.7495
G01 X119.7482 Y98.6874
G01 X119.7362 Y98.6258
G01 X119.7221 Y98.5646
G01 X119.7058 Y98.5039
G01 X119.6874 Y98.4438
G01 X119.6670 Y98.3844
G01 X119.6445 Y98.3257
G01 X119.6199 Y98.2679
G01 X119.5934 Y98.2109
G01 X119.5648 Y98.1550
G01 X119.5344 Y98.1000
G01 X119.5000 Y98.0430
G01 Y88.8000
G01 X118.0000
G01 X117.9372 Y88.7989
G01 X117.8744 Y88.7956
G01 X117.8118 Y88.7902
G01 X117.7495 Y88.7825
G01 X117.6874 Y88.7727
G01 X117.6257 Y88.7607
G01 X117.5645 Y88.7465
G01 X117.5038 Y88.7303
G01 X117.4438 Y88.7119
G01 X117.3843 Y88.6915
G01 X117.3257 Y88.6689
G01 X117.2679 Y88.6444
G01 X117.2500 Y88.6361
G01 Y97.2000
G01 X115.7755
G01 Y95.0000
G01 X115.7744 Y94.9372
G01 X115.7712 Y94.8744
G01 X115.7657 Y94.8119
G01 X115.7580 Y94.7495
G01 X115.7482 Y94.6874
G01 X115.7362 Y94.6258
G01 X115.7221 Y94.5646
G01 X115.7058 Y94.5039
G01 X115.6874 Y94.4438
G01 X115.6670 Y94.3844
G01 X115.6445 Y94.3257
G01 X115.6199 Y94.2679
G01 X115.5934 Y94.2109
G01 X115.5648 Y94.1550
G01 X115.5344 Y94.1000
G01 X115.5020 Y94.0462
G01 X115.4678 Y93.9935
G01 X115.4318 Y93.9420
G01 X115.3940 Y93.8918
G01 X115.3544 Y93.8430
G01 X115.3132 Y93.7956
G01 X115.2704 Y93.7496
G01 X115.2259 Y93.7052
G01 X115.1800 Y93.6624
G01 X115.1326 Y93.6211
G01 X115.0837 Y93.5816
G01 X115.0336 Y93.5438
G01 X115.0000 Y93.5203
G01 Y84.8000
G01 X112.7500
G01 Y93.2000
G01 X111.7755
G01 Y91.0000
G01 X111.7744 Y90.9372
G01 X111.7712 Y90.8744
G01 X111.7657 Y90.8119
G01 X111.7580 Y90.7495
G01 X111.7482 Y90.6874
G01 X111.7362 Y90.6258
G01 X111.7221 Y90.5645
G01 X111.7058 Y90.5039
G01 X111.6874 Y90.4438
G01 X111.6670 Y90.3844
G01 X111.6445 Y90.3257
G01 X111.6199 Y90.2679
G01 X111.5934 Y90.2109
G01 X111.5648 Y90.1550
G01 X111.5344 Y90.1000
G01 X111.5020 Y90.0462
G01 X111.4678 Y89.9935
G01 X111.4318 Y89.9420
G01 X111.3940 Y89.8918
G01 X111.3544 Y89.8430
G01 X111.3132 Y89.7956
G01 X111.2704 Y89.7496
G01 X111.2259 Y89.7052
G01 X111.1800 Y89.6624
G01 X111.1326 Y89.6211
G01 X111.0837 Y89.5816
G01 X111.0336 Y89.5438
G01 X110.9821 Y89.5077
G01 X110.9294 Y89.4735
G01 X110.8755 Y89.4412
G01 X110.8206 Y89.4107
G01 X110.7646 Y89.3822
G01 X110.7077 Y89.3556
G01 X110.6498 Y89.3311
G01 X110.5912 Y89.3086
G01 X110.5318 Y89.2881
G01 X110.5000 Y89.2784
G01 Y84.8000
G01 X108.2500
G01 Y89.2000
G01 X106.0000
G01 Y88.8000
G01 X103.8000
G01 Y91.0000
G01 X103.7989 Y91.0628
G01 X103.7956 Y91.1256
G01 X103.7901 Y91.1882
G01 X103.7825 Y91.2505
G01 X103.7726 Y91.3126
G01 X103.7607 Y91.3743
G01 X103.7500 Y91.4204
G01 Y93.2000
G01 X101.9755
G01 X101.9127 Y93.2011
G01 X101.8500 Y93.2044
G01 X101.7874 Y93.2099
G01 X101.7250 Y93.2175
G01 X101.6630 Y93.2274
G01 X101.6013 Y93.2393
G01 X101.5401 Y93.2535
G01 X101.5000 Y93.2642
G01 Y92.8000
G01 X99.8000
G01 Y95.0000
G01 X99.7989 Y95.0628
G01 X99.7956 Y95.1256
G01 X99.7901 Y95.1882
G01 X99.7825 Y95.2505
G01 X99.7726 Y95.3126
G01 X99.7607 Y95.3743
G01 X99.7465 Y95.4355
G01 X99.7303 Y95.4962
G01 X99.7119 Y95.5562
G01 X99.6914 Y95.6157
G01 X99.6689 Y95.6743
G01 X99.6444 Y95.7321
G01 X99.6178 Y95.7891
G01 X99.5893 Y95.8451
G01 X99.5588 Y95.9000
G01 X99.5265 Y95.9539
G01 X99.4923 Y96.0066
G01 X99.4562 Y96.0580
G01 X99.4184 Y96.1082
G01 X99.3789 Y96.1570
G01 X99.3377 Y96.2044
G01 X99.2948 Y96.2504
G01 X99.2500 Y96.2952
G01 Y97.2000
G01 X97.9755
G01 X97.9127 Y97.2011
G01 X97.8500 Y97.2044
G01 X97.7874 Y97.2099
G01 X97.7250 Y97.2175
G01 X97.6630 Y97.2274
G01 X97.6013 Y97.2393
G01 X97.5401 Y97.2535
G01 X97.4794 Y97.2697
G01 X97.4193 Y97.2881
G01 X97.3599 Y97.3086
G01 X97.3013 Y97.3311
G01 X97.2434 Y97.3556
G01 X97.1865 Y97.3822
G01 X97.1305 Y97.4107
G01 X97.0755 Y97.4412
G01 X97.0217 Y97.4735
G01 X97.0000 Y97.4876
G01 Y96.8000
G01 X94.7500
G01 Y101.2000
G01 X93.9755
G01 X93.9127 Y101.2011
G01 X93.8500 Y101.2044
G01 X93.7874 Y101.2099
G01 X93.7250 Y101.2175
G01 X93.6630 Y101.2274
G01 X93.6013 Y101.2393
G01 X93.5401 Y101.2535
G01 X93.4794 Y101.2697
G01 X93.4193 Y101.2881
G01 X93.3599 Y101.3086
G01 X93.3013 Y101.3311
G01 X93.2434 Y101.3556
G01 X93.1865 Y101.3822
G01 X93.1305 Y101.4107
G01 X93.0755 Y101.4412
G01 X93.0217 Y101.4735
G01 X92.9690 Y101.5077
G01 X92.9175 Y101.5438
G01 X92.8674 Y101.5816
G01 X92.8185 Y101.6211
G01 X92.7711 Y101.6623
G01 X92.7252 Y101.7052
G01 X92.6807 Y101.7496
G01 X92.6379 Y101.7956
G01 X92.5967 Y101.8430
G01 X92.5571 Y101.8918
G01 X92.5193 Y101.9420
G01 X92.5000 Y101.9696
G01 Y95.9947
G00 Z5.0000
G00 X85.7500 Y84.8000
G00 Z0.5000
G01 Z-1.0000 F300
G01 Y93.2000 F2000
G01 X83.8000
G01 Y91.0000
G01 X83.7989 Y90.9372
G01 X83.7956 Y90.8744
G01 X83.7901 Y90.8119
G01 X83.7825 Y90.7495
G01 X83.7726 Y90.6874
G01 X83.7607 Y90.6258
G01 X83.7465 Y90.5645
G01 X83.7303 Y90.5039
G01 X83.7119 Y90.4438
G01 X83.6914 Y90.3844
G01 X83.6689 Y90.3257
G01 X83.6444 Y90.2679
G01 X83.6178 Y90.2109
G01 X83.5893 Y90.1550
G01 X83.5588 Y90.1000
G01 X83.5265 Y90.0462
G01 X83.5000 Y90.0054
G01 Y84.8000
G01 X81.2500
G01 Y89.2000
G01 X79.0000
G01 Y84.8000
G01 X76.7500
G01 Y89.2000
G01 X74.5000
G01 Y84.8000
G01 X72.2500
G01 Y89.2000
G01 X70.0000
G01 Y84.8000
G01 X67.7500
G01 Y89.2000
G01 X65.5000
G01 Y84.8000
G01 X63.8000
G01 Y87.0000
G01 X63.7989 Y87.0628
G01 X63.7956 Y87.1256
G01 X63.7901 Y87.1882
G01 X63.7825 Y87.2505
G01 X63.7726 Y87.3126
G01 X63.7607 Y87.3743
G01 X63.7465 Y87.4355
G01 X63.7303 Y87.4962
G01 X63.7119 Y87.5562
G01 X63.6914 Y87.6157
G01 X63.6689 Y87.6743
G01 X63.6444 Y87.7321
G01 X63.6178 Y87.7891
G01 X63.5893 Y87.8451
G01 X63.5588 Y87.9000
G01 X63.5265 Y87.9539
G01 X63.4923 Y88.0066
G01 X63.4562 Y88.0580
G01 X63.4184 Y88.1082
G01 X63.3789 Y88.1570
G01 X63.3377 Y88.2044
G01 X63.2948 Y88.2504
G01 X63.2500 Y88.2952
G01 Y89.2000
G01 X62.0000
G01 X61.9372 Y89.2011
G01 X61.8744 Y89.2044
G01 X61.8118 Y89.2099
G01 X61.7495 Y89.2175
G01 X61.6874 Y89.2274
G01 X61.6257 Y89.2393
G01 X61.5645 Y89.2535
G01 X61.5038 Y89.2697
G01 X61.4438 Y89.2881
G01 X61.3844 Y89.3086
G01 X61.3257 Y89.3311
G01 X61.2679 Y89.3556
G01 X61.2109 Y89.3822
G01 X61.1549 Y89.4107
G01 X61.1000 Y89.4412
G01 X61.0461 Y89.4735
G01 X61.0000 Y89.5035
G01 Y88.8000
G01 X58.7500
G01 Y93.2000
G01 X58.0000
G01 X57.9372 Y93.2011
G01 X57.8744 Y93.2044
G01 X57.8118 Y93.2099
G01 X57.7495 Y93.2175
G01 X57.6874 Y93.2274
G01 X57.6257 Y93.2393
G01 X57.5645 Y93.2535
G01 X57.5038 Y93.2697
G01 X57.4438 Y93.2881
G01 X57.3844 Y93.3086
G01 X57.3257 Y93.3311
G01 X57.2679 Y93.3556
G01 X57.2109 Y93.3822
G01 X57.1549 Y93.4107
G01 X57.1000 Y93.4412
G01 X57.0461 Y93.4735
G01 X56.9934 Y93.5077
G01 X56.9420 Y93.5438
G01 X56.8918 Y93.5816
G01 X56.8430 Y93.6211
G01 X56.7956 Y93.6624
G01 X56.7496 Y93.7052
G01 X56.7052 Y93.7496
G01 X56.6623 Y93.7956
G01 X56.6211 Y93.8430
G01 X56.5816 Y93.8918
G01 X56.5438 Y93.9420
G01 X56.5077 Y93.9935
G01 X56.5000 Y94.0054
G01 Y87.9947
G01 X56.4735 Y87.9539
G01 X56.4411 Y87.9000
G01 X56.4107 Y87.8451
G01 X56.3822 Y87.7891
G01 X56.3556 Y87.7321
G01 X56.3311 Y87.6743
G01 X56.3085 Y87.6157
G01 X56.2881 Y87.5562
G01 X56.2697 Y87.4962
G01 X56.2535 Y87.4355
G01 X56.2393 Y87.3743
G01 X56.2273 Y87.3126
G01 X56.2175 Y87.2505
G01 X56.2099 Y87.1882
G01 X56.2044 Y87.1256
G01 X56.2011 Y87.0628
G01 X56.2000 Y87.0000
G01 Y84.8000
G01 X54.2500
G01 Y117.2000
G01 X56.5000
G01 Y115.9947
G01 X56.5077 Y116.0066
G01 X56.5438 Y116.0580
G01 X56.5816 Y116.1082
G01 X56.6211 Y116.1570
G01 X56.6623 Y116.2044
G01 X56.7052 Y116.2504
G01 X56.7496 Y116.2948
G01 X56.7956 Y116.3377
G01 X56.8430 Y116.3789
G01 X56.8918 Y116.4184
G01 X56.9420 Y116.4562
G01 X56.9934 Y116.4923
G01 X57.0461 Y116.5265
G01 X57.1000 Y116.5589
G01 X57.1549 Y116.5893
G01 X57.2109 Y116.6178
G01 X57.2679 Y116.6444
G01 X57.3257 Y116.6689
G01 X57.3844 Y116.6915
G01 X57.4438 Y116.7119
G01 X57.5038 Y116.7303
G01 X57.5645 Y116.7465
G01 X57.6257 Y116.7607
G01 X57.6874 Y116.7727
G01 X57.7495 Y116.7825
G01 X57.8118 Y116.7901
G01 X57.8744 Y116.7956
G01 X57.9372 Y116.7989
G01 X58.0000 Y116.8000
G01 X58.7500
G01 Y117.3640
G01 X58.7891 Y117.3822
G01 X58.8450 Y117.4107
G01 X58.9000 Y117.4412
G01 X58.9538 Y117.4735
G01 X59.0065 Y117.5077
G01 X59.0580 Y117.5438
G01 X59.1082 Y117.5816
G01 X59.1570 Y117.6211
G01 X59.2044 Y117.6623
G01 X59.2504 Y117.7052
G01 X59.2948 Y117.7496
G01 X59.3377 Y117.7956
G01 X59.3789 Y117.8430
G01 X59.4184 Y117.8918
G01 X59.4562 Y117.9420
G01 X59.4923 Y117.9935
G01 X59.5265 Y118.0462
G01 X59.5588 Y118.1000
G01 X59.5893 Y118.1550
G01 X59.6178 Y118.2109
G01 X59.6444 Y118.2679
G01 X59.6689 Y118.3257
G01 X59.6914 Y118.3844
G01 X59.7119 Y118.4438
G01 X59.7303 Y118.5039
G01 X59.7465 Y118.5645
G01 X59.7607 Y118.6258
G01 X59.7726 Y118.6874
G01 X59.7825 Y118.7495
G01 X59.7901 Y118.8119
G01 X59.7956 Y118.8744
G01 X59.7989 Y118.9372
G01 X59.8000 Y119.0000
G01 Y121.2000
G01 X61.0000
G01 Y120.4965
G01 X61.0461 Y120.5265
G01 X61.1000 Y120.5589
G01 X61.1549 Y120.5893
G01 X61.2109 Y120.6178
G01 X61.2679 Y120.6444
G01 X61.3257 Y120.6689
G01 X61.3844 Y120.6915
G01 X61.4438 Y120.7119
G01 X61.5038 Y120.7303
G01 X61.5645 Y120.7465
G01 X61.6257 Y120.7607
G01 X61.6874 Y120.7727
G01 X61.7495 Y120.7825
G01 X61.8118 Y120.7901
G01 X61.8744 Y120.7956
G01 X61.9372 Y120.7989
G01 X62.0000 Y120.8000
G01 X63.2500
G01 Y121.2000
G01 X65.5000
G01 Y120.8000
G01 X67.7500
G01 Y121.2000
G01 X70.0000
G01 Y120.8000
G01 X72.2500
G01 Y121.2000
G01 X74.5000
G01 Y120.8000
G01 X76.7500
G01 Y121.2000
G01 X79.0000
G01 Y120.8000
G01 X81.2500
G01 Y121.2000
G01 X83.5000
G01 Y119.9946
G01 X83.5265 Y119.9539
G01 X83.5588 Y119.9000
G01 X83.5893 Y119.8451
G01 X83.6178 Y119.7891
G01 X83.6444 Y119.7321
G01 X83.6689 Y119.6743
G01 X83.6914 Y119.6156
G01 X83.7119 Y119.5562
G01 X83.7303 Y119.4962
G01 X83.7465 Y119.4355
G01 X83.7607 Y119.3743
G01 X83.7726 Y119.3126
G01 X83.7825 Y119.2505
G01 X83.7901 Y119.1882
G01 X83.7956 Y119.1256
G01 X83.7989 Y119.0628
G01 X83.8000 Y119.0000
G01 Y116.8000
G01 X85.7500
G01 Y117.2175
G01 X85.8118 Y117.2099
G01 X85.8744 Y117.2044
G01 X85.9372 Y117.2011
G01 X86.0000 Y117.2000
G01 X88.0000
G01 Y84.8000
G01 X88.2000
G01 Y87.0000
G01 X88.2011 Y87.0628
G01 X88.2044 Y87.1256
G01 X88.2099 Y87.1882
G01 X88.2175 Y87.2505
G01 X88.2273 Y87.3126
G01 X88.2393 Y87.3743
G01 X88.2535 Y87.4355
G01 X88.2697 Y87.4962
G01 X88.2881 Y87.5562
G01 X88.3085 Y87.6157
G01 X88.3311 Y87.6743
G01 X88.3556 Y87.7321
G01 X88.3822 Y87.7891
G01 X88.4107 Y87.8451
G01 X88.4411 Y87.9000
G01 X88.4735 Y87.9539
G01 X88.5077 Y88.0066
G01 X88.5438 Y88.0580
G01 X88.5816 Y88.1082
G01 X88.6211 Y88.1570
G01 X88.6623 Y88.2044
G01 X88.7052 Y88.2504
G01 X88.7496 Y88.2948
G01 X88.7956 Y88.3377
G01 X88.8430 Y88.3789
G01 X88.8918 Y88.4184
G01 X88.9420 Y88.4562
G01 X88.9934 Y88.4923
G01 X89.0461 Y88.5265
G01 X89.1000 Y88.5589
G01 X89.1549 Y88.5893
G01 X89.2109 Y88.6178
G01 X89.2679 Y88.6444
G01 X89.3257 Y88.6689
G01 X89.3844 Y88.6915
G01 X89.4438 Y88.7119
G01 X89.5038 Y88.7303
G01 X89.5645 Y88.7465
G01 X89.6257 Y88.7607
G01 X89.6874 Y88.7727
G01 X89.7495 Y88.7825
G01 X89.8118 Y88.7902
G01 X89.8744 Y88.7956
G01 X89.9372 Y88.7989
G01 X90.0000 Y88.8000
G01 X90.2500
G01 Y117.2175
G01 X90.3126 Y117.2274
G01 X90.3742 Y117.2393
G01 X90.4355 Y117.2535
G01 X90.4961 Y117.2697
G01 X90.5562 Y117.2881
G01 X90.6156 Y117.3086
G01 X90.6743 Y117.3311
G01 X90.7321 Y117.3556
G01 X90.7891 Y117.3822
G01 X90.8450 Y117.4107
G01 X90.9000 Y117.4412
G01 X90.9538 Y117.4735
G01 X91.0065 Y117.5077
G01 X91.0580 Y117.5438
G01 X91.1082 Y117.5816
G01 X91.1570 Y117.6211
G01 X91.2044 Y117.6623
G01 X91.2504 Y117.7052
G01 X91.2948 Y117.7496
G01 X91.3377 Y117.7956
G01 X91.3789 Y117.8430
G01 X91.4184 Y117.8918
G01 X91.4562 Y117.9420
G01 X91.4923 Y117.9935
G01 X91.5265 Y118.0462
G01 X91.5588 Y118.1000
G01 X91.5893 Y118.1550
G01 X91.6178 Y118.2109
G01 X91.6444 Y118.2679
G01 X91.6689 Y118.3257
G01 X91.6914 Y118.3844
G01 X91.7119 Y118.4438
G01 X91.7303 Y118.5039
G01 X91.7465 Y118.5645
G01 X91.7607 Y118.6258
G01 X91.7726 Y118.6874
G01 X91.7825 Y118.7495
G01 X91.7901 Y118.8119
G01 X91.7956 Y118.8744
G01 X91.7989 Y118.9372
G01 X91.8000 Y119.0000
G01 Y121.2000
G01 X92.5000
G01 Y120.0304
G01 X92.5193 Y120.0580
G01 X92.5571 Y120.1082
G01 X92.5967 Y120.1570
G01 X92.6379 Y120.2044
G01 X92.6807 Y120.2504
G01 X92.7252 Y120.2948
G01 X92.7711 Y120.3377
G01 X92.8185 Y120.3789
G01 X92.8674 Y120.4184
G01 X92.9175 Y120.4562
G01 X92.9690 Y120.4923
G01 X93.0217 Y120.5265
G01 X93.0755 Y120.5589
G01 X93.1305 Y120.5893
G01 X93.1865 Y120.6178
G01 X93.2434 Y120.6444
G01 X93.3013 Y120.6689
G01 X93.3599 Y120.6915
G01 X93.4193 Y120.7119
G01 X93.4794 Y120.7303
G01 X93.5401 Y120.7465
G01 X93.6013 Y120.7607
G01 X93.6630 Y120.7727
G01 X93.7250 Y120.7825
G01 X93.7874 Y120.7901
G01 X93.8500 Y120.7956
G01 X93.9127 Y120.7989
G01 X93.9755 Y120.8000
G01 X94.7500
G01 Y121.2000
G01 X97.0000
G01 Y120.8000
G01 X99.2500
G01 Y121.2000
G01 X101.5000
G01 Y120.8000
G01 X101.9755
G01 X102.0384 Y120.7989
G01 X102.1011 Y120.7956
G01 X102.1637 Y120.7901
G01 X102.2261 Y120.7825
G01 X102.2881 Y120.7727
G01 X102.3498 Y120.7607
G01 X102.4110 Y120.7465
G01 X102.4717 Y120.7303
G01 X102.5318 Y120.7119
G01 X102.5912 Y120.6915
G01 X102.6498 Y120.6689
G01 X102.7077 Y120.6444
G01 X102.7646 Y120.6178
G01 X102.8206 Y120.5893
G01 X102.8755 Y120.5589
G01 X102.9294 Y120.5265
G01 X102.9821 Y120.4923
G01 X103.0336 Y120.4562
G01 X103.0837 Y120.4184
G01 X103.1326 Y120.3789
G01 X103.1800 Y120.3377
G01 X103.2259 Y120.2948
G01 X103.2704 Y120.2504
G01 X103.3132 Y120.2044
G01 X103.3544 Y120.1570
G01 X103.3940 Y120.1082
G01 X103.4318 Y120.0580
G01 X103.4678 Y120.0066
G01 X103.5020 Y119.9539
G01 X103.5344 Y119.9000
G01 X103.5648 Y119.8451
G01 X103.5934 Y119.7891
G01 X103.6199 Y119.7321
G01 X103.6445 Y119.6743
G01 X103.6670 Y119.6156
G01 X103.6874 Y119.5562
G01 X103.7058 Y119.4962
G01 X103.7221 Y119.4355
G01 X103.7362 Y119.3743
G01 X103.7482 Y119.3126
G01 X103.7500 Y119.3012
G01 Y121.2000
G01 X104.2000
G01 Y119.0000
G01 X104.2011 Y118.9372
G01 X104.2044 Y118.8744
G01 X104.2098 Y118.8119
G01 X104.2175 Y118.7495
G01 X104.2273 Y118.6874
G01 X104.2393 Y118.6258
G01 X104.2535 Y118.5645
G01 X104.2697 Y118.5039
G01 X104.2881 Y118.4438
G01 X104.3085 Y118.3844
G01 X104.3311 Y118.3257
G01 X104.3556 Y118.2679
G01 X104.3822 Y118.2109
G01 X104.4107 Y118.1550
G01 X104.4411 Y118.1000
G01 X104.4735 Y118.0462
G01 X104.5077 Y117.9935
G01 X104.5438 Y117.9420
G01 X104.5816 Y117.8918
G01 X104.6211 Y117.8430
G01 X104.6623 Y117.7956
G01 X104.7052 Y117.7496
G01 X104.7496 Y117.7052
G01 X104.7955 Y117.6623
G01 X104.8430 Y117.6211
G01 X104.8918 Y117.5816
G01 X104.9420 Y117.5438
G01 X104.9934 Y117.5077
G01 X105.0461 Y117.4735
G01 X105.1000 Y117.4412
G01 X105.1549 Y117.4107
G01 X105.2109 Y117.3822
G01 X105.2679 Y117.3556
G01 X105.3257 Y117.3311
G01 X105.3843 Y117.3086
G01 X105.4438 Y117.2881
G01 X105.5038 Y117.2697
G01 X105.5645 Y117.2535
G01 X105.6257 Y117.2393
G01 X105.6874 Y117.2274
G01 X105.7495 Y117.2175
G01 X105.8118 Y117.2099
G01 X105.8744 Y117.2044
G01 X105.9372 Y117.2011
G01 X106.0000 Y117.2000
G01 Y104.7996
G01 X106.0384 Y104.7989
G01 X106.1011 Y104.7956
G01 X106.1637 Y104.7901
G01 X106.2261 Y104.7825
G01 X106.2881 Y104.7727
G01 X106.3498 Y104.7607
G01 X106.4110 Y104.7465
G01 X106.4717 Y104.7303
G01 X106.5318 Y104.7119
G01 X106.5912 Y104.6915
G01 X106.6498 Y104.6689
G01 X106.7077 Y104.6444
G01 X106.7646 Y104.6178
G01 X106.8206 Y104.5893
G01 X106.8755 Y104.5589
G01 X106.9294 Y104.5265
G01 X106.9821 Y104.4923
G01 X107.0336 Y104.4562
G01 X107.0837 Y104.4184
G01 X107.1326 Y104.3789
G01 X107.1800 Y104.3377
G01 X107.2259 Y104.2948
G01 X107.2704 Y104.2504
G01 X107.3132 Y104.2044
G01 X107.3544 Y104.1570
G01 X107.3940 Y104.1082
G01 X107.4318 Y104.0580
G01 X107.4678 Y104.0066
G01 X107.5020 Y103.9539
G01 X107.5344 Y103.9000
G01 X107.5648 Y103.8451
G01 X107.5934 Y103.7891
G01 X107.6199 Y103.7321
G01 X107.6445 Y103.6743
G01 X107.6670 Y103.6156
G01 X107.6874 Y103.5562
G01 X107.7058 Y103.4962
G01 X107.7221 Y103.4355
G01 X107.7362 Y103.3743
G01 X107.7482 Y103.3126
G01 X107.7580 Y103.2505
G01 X107.7657 Y103.1882
G01 X107.7712 Y103.1256
G01 X107.7744 Y103.0628
G01 X107.7755 Y103.0000
G01 Y100.8000
G01 X108.1755
G01 Y103.0000
G01 X108.1766 Y103.0628
G01 X108.1799 Y103.1256
G01 X108.1854 Y103.1882
G01 X108.1931 Y103.2505
G01 X108.2029 Y103.3126
G01 X108.2149 Y103.3743
G01 X108.2290 Y103.4355
G01 X108.2453 Y103.4962
G01 X108.2500 Y103.5116
G01 Y117.2000
G01 X110.0000
G01 X110.0628 Y117.2011
G01 X110.1255 Y117.2044
G01 X110.1881 Y117.2099
G01 X110.2505 Y117.2175
G01 X110.3126 Y117.2274
G01 X110.3742 Y117.2393
G01 X110.4354 Y117.2535
G01 X110.5000 Y117.2709
G01 Y104.8000
G00 Z5.0000
G00 X112.7500 Y120.3180
G00 Z0.5000
G01 Z-1.0000 F300
G01 Y121.2000 F2000
G01 X115.0000
G01 Y120.8000
G01 X117.2500
G01 Y121.2000
G01 X119.5000
G01 Y120.8000
G01 X121.7500
G01 Y121.2000
G01 X128.5000
G01 Y119.9947
G01 X128.5077 Y120.0066
G01 X128.5437 Y120.0580
G01 X128.5816 Y120.1082
G01 X128.6211 Y120.1570
G01 X128.6623 Y120.2044
G01 X128.7052 Y120.2504
G01 X128.7496 Y120.2948
G01 X128.7955 Y120.3377
G01 X128.8430 Y120.3789
G01 X128.8918 Y120.4184
G01 X128.9420 Y120.4562
G01 X128.9934 Y120.4923
G01 X129.0461 Y120.5265
G01 X129.1000 Y120.5589
G01 X129.1549 Y120.5893
G01 X129.2109 Y120.6178
G01 X129.2679 Y120.6444
G01 X129.3257 Y120.6689
G01 X129.3844 Y120.6915
G01 X129.4438 Y120.7119
G01 X129.5038 Y120.7303
G01 X129.5645 Y120.7465
G01 X129.6257 Y120.7607
G01 X129.6874 Y120.7727
G01 X129.7495 Y120.7825
G01 X129.8118 Y120.7901
G01 X129.8744 Y120.7956
G01 X129.9372 Y120.7989
G01 X130.0000 Y120.8000
G01 X130.7500
G01 Y121.2000
G01 X133.0000
G01 Y120.8000
G01 X135.2500
G01 Y121.2000
G01 X137.5000
G01 Y120.8000
G01 X139.7500
G01 Y121.2000
G01 X142.0000
G01 Y120.8000
G01 X144.2500
G01 Y121.2000
G01 X146.5000
G01 Y120.8000
G01 X148.7500
G01 Y121.2000
G01 X151.0000
G01 Y120.8000
G01 X153.2500
G01 Y121.2000
G01 X155.5000
G01 Y120.8000
G01 X157.7500
G01 Y121.2000
G01 X164.5000
G01 Y120.0304
G01 X164.5193 Y120.0580
G01 X164.5571 Y120.1082
G01 X164.5967 Y120.1570
G01 X164.6379 Y120.2044
G01 X164.6807 Y120.2504
G01 X164.7252 Y120.2948
G01 X164.7711 Y120.3377
G01 X164.8185 Y120.3789
G01 X164.8674 Y120.4184
G01 X164.9175 Y120.4562
G01 X164.9690 Y120.4923
G01 X165.0217 Y120.5265
G01 X165.0755 Y120.5589
G01 X165.1305 Y120.5893
G01 X165.1865 Y120.6178
G01 X165.2434 Y120.6444
G01 X165.3013 Y120.6689
G01 X165.3599 Y120.6915
G01 X165.4193 Y120.7119
G01 X165.4794 Y120.7303
G01 X165.5401 Y120.7465
G01 X165.6013 Y120.7607
G01 X165.6630 Y120.7727
G01 X165.7250 Y120.7825
G01 X165.7874 Y120.7901
G01 X165.8500 Y120.7956
G01 X165.9127 Y120.7989
G01 X165.9755 Y120.8000
G01 X166.7500
G01 Y121.2000
G01 X169.0000
G01 Y120.8000
G01 X171.2500
G01 Y121.2000
G01 X173.5000
G01 Y120.8000
G01 X175.7500
G01 Y121.2000
G01 X178.0000
G01 Y120.8000
G01 X180.2500
G01 Y121.2000
G01 X182.5000
G01 Y120.8000
G01 X184.7500
G01 Y121.2000
G01 X187.0000
G01 Y120.8000
G01 X189.2500
G01 Y121.2000
G01 X191.5000
G01 Y119.9570
G01 X191.5344 Y119.9000
G01 X191.5648 Y119.8451
G01 X191.5934 Y119.7891
G01 X191.6199 Y119.7321
G01 X191.6445 Y119.6743
G01 X191.6670 Y119.6156
G01 X191.6874 Y119.5562
G01 X191.7058 Y119.4962
G01 X191.7221 Y119.4355
G01 X191.7362 Y119.3743
G01 X191.7482 Y119.3126
G01 X191.7580 Y119.2505
G01 X191.7657 Y119.1882
G01 X191.7711 Y119.1256
G01 X191.7744 Y119.0628
G01 X191.7755 Y119.0000
G01 Y116.8000
G01 X193.7500
G01 Y117.2175
G01 X193.8118 Y117.2099
G01 X193.8744 Y117.2044
G01 X193.9372 Y117.2011
G01 X194.0000 Y117.2000
G01 X198.0000
G01 X198.0628 Y117.2011
G01 X198.1255 Y117.2044
G01 X198.1881 Y117.2099
G01 X198.2505 Y117.2175
G01 X198.3125 Y117.2274
G01 X198.3742 Y117.2393
G01 X198.4354 Y117.2535
G01 X198.4961 Y117.2697
G01 X198.5562 Y117.2881
G01 X198.6156 Y117.3086
G01 X198.6743 Y117.3311
G01 X198.7321 Y117.3556
G01 X198.7890 Y117.3822
G01 X198.8450 Y117.4107
G01 X198.9000 Y117.4412
G01 X198.9538 Y117.4735
G01 X199.0065 Y117.5077
G01 X199.0580 Y117.5438
G01 X199.1082 Y117.5816
G01 X199.1570 Y117.6211
G01 X199.2044 Y117.6623
G01 X199.2504 Y117.7052
G01 X199.2948 Y117.7496
G01 X199.3376 Y117.7956
G01 X199.3789 Y117.8430
G01 X199.4184 Y117.8918
G01 X199.4562 Y117.9420
G01 X199.4922 Y117.9935
G01 X199.5265 Y118.0462
G01 X199.5588 Y118.1000
G01 X199.5893 Y118.1550
G01 X199.6178 Y118.2109
G01 X199.6444 Y118.2679
G01 X199.6689 Y118.3257
G01 X199.6914 Y118.3844
G01 X199.7119 Y118.4438
G01 X199.7303 Y118.5039
G01 X199.7465 Y118.5645
G01 X199.7607 Y118.6258
G01 X199.7726 Y118.6874
G01 X199.7825 Y118.7495
G01 X199.7901 Y118.8119
G01 X199.7956 Y118.8744
G01 X199.7989 Y118.9372
G01 X199.8000 Y119.0000
G01 Y121.2000
G01 X200.5000
G01 Y120.0304
G01 X200.5193 Y120.0580
G01 X200.5571 Y120.1082
G01 X200.5967 Y120.1570
G01 X200.6379 Y120.2044
G01 X200.6807 Y120.2504
G01 X200.7252 Y120.2948
G01 X200.7711 Y120.3377
G01 X200.8185 Y120.3789
G01 X200.8674 Y120.4184
G01 X200.9175 Y120.4562
G01 X200.9690 Y120.4923
G01 X201.0217 Y120.5265
G01 X201.0755 Y120.5589
G01 X201.1305 Y120.5893
G01 X201.1865 Y120.6178
G01 X201.2434 Y120.6444
G01 X201.3013 Y120.6689
G01 X201.3599 Y120.6915
G01 X201.4193 Y120.7119
G01 X201.4794 Y120.7303
G01 X201.5401 Y120.7465
G01 X201.6013 Y120.7607
G01 X201.6630 Y120.7727
G01 X201.7250 Y120.7825
G01 X201.7874 Y120.7901
G01 X201.8500 Y120.7956
G01 X201.9127 Y120.7989
G01 X201.9755 Y120.8000
G01 X202.7500
G01 Y121.2000
G01 X205.0000
G01 Y120.8000
G01 X207.2500
G01 Y121.2000
G01 X209.5000
G01 Y120.8000
G01 X209.9755
G01 X210.0384 Y120.7989
G01 X210.1011 Y120.7956
G01 X210.1637 Y120.7901
G01 X210.2261 Y120.7825
G01 X210.2881 Y120.7727
G01 X210.3498 Y120.7607
G01 X210.4110 Y120.7465
G01 X210.4717 Y120.7303
G01 X210.5318 Y120.7119
G01 X210.5912 Y120.6915
G01 X210.6498 Y120.6689
G01 X210.7077 Y120.6444
G01 X210.7646 Y120.6178
G01 X210.8206 Y120.5893
G01 X210.8755 Y120.5589
G01 X210.9294 Y120.5265
G01 X210.9821 Y120.4923
G01 X211.0336 Y120.4562
G01 X211.0837 Y120.4184
G01 X211.1326 Y120.3789
G01 X211.1800 Y120.3377
G01 X211.2259 Y120.2948
G01 X211.2704 Y120.2504
G01 X211.3132 Y120.2044
G01 X211.3544 Y120.1570
G01 X211.3940 Y120.1082
G01 X211.4318 Y120.0580
G01 X211.4678 Y120.0066
G01 X211.5020 Y119.9539
G01 X211.5344 Y119.9000
G01 X211.5648 Y119.8451
G01 X211.5934 Y119.7891
G01 X211.6199 Y119.7321
G01 X211.6445 Y119.6743
G01 X211.6670 Y119.6156
G01 X211.6874 Y119.5562
G01 X211.7058 Y119.4962
G01 X211.7221 Y119.4355
G01 X211.7362 Y119.3743
G01 X211.7482 Y119.3126
G01 X211.7500 Y119.3012
G01 Y121.2000
G01 X212.2000
G01 Y119.0000
G01 X212.2011 Y118.9372
G01 X212.2044 Y118.8744
G01 X212.2098 Y118.8119
G01 X212.2175 Y118.7495
G01 X212.2273 Y118.6874
G01 X212.2393 Y118.6258
G01 X212.2534 Y118.5645
G01 X212.2697 Y118.5039
G01 X212.2881 Y118.4438
G01 X212.3085 Y118.3844
G01 X212.3311 Y118.3257
G01 X212.3556 Y118.2679
G01 X212.3822 Y118.2109
G01 X212.4107 Y118.1550
G01 X212.4411 Y118.1000
G01 X212.4735 Y118.0462
G01 X212.5077 Y117.9935
G01 X212.5437 Y117.9420
G01 X212.5816 Y117.8918
G01 X212.6211 Y117.8430
G01 X212.6623 Y117.7956
G01 X212.7052 Y117.7496
G01 X212.7496 Y117.7052
G01 X212.7955 Y117.6623
G01 X212.8430 Y117.6211
G01 X212.8918 Y117.5816
G01 X212.9420 Y117.5438
G01 X212.9934 Y117.5077
G01 X213.0461 Y117.4735
G01 X213.1000 Y117.4412
G01 X213.1549 Y117.4107
G01 X213.2109 Y117.3822
G01 X213.2679 Y117.3556
G01 X213.3257 Y117.3311
G01 X213.3844 Y117.3086
G01 X213.4438 Y117.2881
G01 X213.5038 Y117.2697
G01 X213.5645 Y117.2535
G01 X213.6257 Y117.2393
G01 X213.6874 Y117.2274
G01 X213.7495 Y117.2175
G01 X213.8118 Y117.2099
G01 X213.8744 Y117.2044
G01 X213.9372 Y117.2011
G01 X214.0000 Y117.2000
G01 Y96.8000
G01 X216.2500
G01 Y98.5795
G01 X216.2534 Y98.5645
G01 X216.2697 Y98.5039
G01 X216.2881 Y98.4438
G01 X216.3085 Y98.3844
G01 X216.3311 Y98.3257
G01 X216.3556 Y98.2679
G01 X216.3822 Y98.2109
G01 X216.4107 Y98.1550
G01 X216.4411 Y98.1000
G01 X216.4735 Y98.0462
G01 X216.5077 Y97.9935
G01 X216.5437 Y97.9420
G01 X216.5816 Y97.8918
G01 X216.6211 Y97.8430
G01 X216.6623 Y97.7956
G01 X216.7052 Y97.7496
G01 X216.7496 Y97.7052
G01 X216.7955 Y97.6624
G01 X216.8430 Y97.6211
G01 X216.8918 Y97.5816
G01 X216.9420 Y97.5438
G01 X216.9934 Y97.5077
G01 X217.0461 Y97.4735
G01 X217.1000 Y97.4412
G01 X217.1549 Y97.4107
G01 X217.2109 Y97.3822
G01 X217.2679 Y97.3556
G01 X217.3257 Y97.3311
G01 X217.3844 Y97.3086
G01 X217.4438 Y97.2881
G01 X217.5038 Y97.2697
G01 X217.5645 Y97.2535
G01 X217.6257 Y97.2393
G01 X217.6874 Y97.2274
G01 X217.7495 Y97.2175
G01 X217.8118 Y97.2099
G01 X217.8744 Y97.2044
G01 X217.9372 Y97.2011
G01 X218.0000 Y97.2000
G01 X218.5000
G01 Y96.8000
G01 X220.7500
G01 Y97.2000
G01 X223.0000
G01 Y96.8000
G01 X225.2500
G01 Y97.2000
G01 X227.5000
G01 Y95.9570
G00 Z5.0000
G00 X193.7500 Y104.8000
G00 Z0.5000
G01 Z-1.0000 F300
G01 Y105.2000 F2000
G00 Z5.0000
G00 X157.7500 Y113.2000
G00 Z0.5000
G01 Z-1.0000 F300
G01 Y96.8000 F2000
G01 X155.5000
G01 Y102.0054
G01 X155.4922 Y101.9935
G01 X155.4562 Y101.9420
G01 X155.4184 Y101.8918
G01 X155.3789 Y101.8430
G01 X155.3376 Y101.7956
G01 X155.2948 Y101.7496
G01 X155.2504 Y101.7052
G01 X155.2044 Y101.6623
G01 X155.1570 Y101.6211
G01 X155.1082 Y101.5816
G01 X155.0580 Y101.5438
G01 X155.0065 Y101.5077
G01 X154.9538 Y101.4735
G01 X154.9000 Y101.4412
G01 X154.8450 Y101.4107
G01 X154.7890 Y101.3822
G01 X154.7321 Y101.3556
G01 X154.6743 Y101.3311
G01 X154.6156 Y101.3086
G01 X154.5562 Y101.2881
G01 X154.4961 Y101.2697
G01 X154.4354 Y101.2535
G01 X154.3742 Y101.2393
G01 X154.3125 Y101.2274
G01 X154.2505 Y101.2175
G01 X154.1881 Y101.2099
G01 X154.1255 Y101.2044
G01 X154.0628 Y101.2011
G01 X154.0000 Y101.2000
G01 X153.2500
G01 Y96.8000
G01 X151.0000
G01 Y101.2000
G01 X148.7500
G01 Y96.8000
G01 X146.5000
G01 Y101.2000
G01 X144.2500
G01 Y96.8000
G01 X142.0000
G01 Y101.2000
G00 Z5.0000
G00 Y108.8000
G00 Z0.5000
G01 Z-1.0000 F300
G01 Y113.2000 F2000
G01 X144.2500
G01 Y108.8000
G01 X146.5000
G01 Y113.2000
G01 X148.7500
G01 Y108.8000
G01 X151.0000
G01 Y113.2000
G01 X153.2500
G01 Y108.8000
G01 X154.0000
G01 X154.0628 Y108.7989
G01 X154.1255 Y108.7956
G01 X154.1881 Y108.7901
G01 X154.2505 Y108.7825
G01 X154.3125 Y108.7727
G01 X154.3742 Y108.7607
G01 X154.4354 Y108.7465
G01 X154.4961 Y108.7303
G01 X154.5562 Y108.7119
G01 X154.6156 Y108.6915
G01 X154.6743 Y108.6689
G01 X154.7321 Y108.6444
G01 X154.7890 Y108.6178
G01 X154.8450 Y108.5893
G01 X154.9000 Y108.5589
G01 X154.9538 Y108.5265
G01 X155.0065 Y108.4923
G01 X155.0580 Y108.4562
G01 X155.1082 Y108.4184
G01 X155.1570 Y108.3789
G01 X155.2044 Y108.3377
G01 X155.2504 Y108.2948
G01 X155.2948 Y108.2504
G01 X155.3376 Y108.2044
G01 X155.3789 Y108.1570
G01 X155.4184 Y108.1082
G01 X155.4562 Y108.0580
G01 X155.4922 Y108.0066
G01 X155.5000 Y107.9946
G01 Y113.2000
G00 Z5.0000
G00 X52.0000 Y121.2000
G00 Z0.5000
G01 Z-1.0000 F300
G01 Y84.8000 F2000
G01 X49.7500
G01 Y89.2000
G01 X47.5000
G01 Y84.8000
G01 X45.2500
G01 Y89.2000
G01 X43.0000
G01 Y88.4965
G01 X42.9538 Y88.5265
G01 X42.9000 Y88.5589
G01 X42.8450 Y88.5893
G01 X42.7891 Y88.6178
G01 X42.7321 Y88.6444
G01 X42.6743 Y88.6689
G01 X42.6156 Y88.6915
G01 X42.5562 Y88.7119
G01 X42.4961 Y88.7303
G01 X42.4354 Y88.7465
G01 X42.3742 Y88.7607
G01 X42.3126 Y88.7727
G01 X42.2505 Y88.7825
G01 X42.1881 Y88.7902
G01 X42.1256 Y88.7956
G01 X42.0628 Y88.7989
G01 X42.0000 Y88.8000
G01 X40.7500
G01 Y89.7048
G01 X40.7052 Y89.7496
G01 X40.6623 Y89.7956
G01 X40.6211 Y89.8430
G01 X40.5816 Y89.8918
G01 X40.5438 Y89.9420
G01 X40.5077 Y89.9935
G01 X40.4735 Y90.0462
G01 X40.4411 Y90.1000
G01 X40.4107 Y90.1550
G01 X40.3822 Y90.2109
G01 X40.3556 Y90.2679
G01 X40.3311 Y90.3257
G01 X40.3085 Y90.3844
G01 X40.2881 Y90.4438
G01 X40.2697 Y90.5039
G01 X40.2535 Y90.5645
G01 X40.2393 Y90.6258
G01 X40.2273 Y90.6874
G01 X40.2175 Y90.7495
G01 X40.2099 Y90.8119
G01 X40.2044 Y90.8744
G01 X40.2011 Y90.9372
G01 X40.2000 Y91.0000
G01 Y101.2000
G01 X38.5000
G01 Y88.8000
G01 X38.0000
G01 X37.9372 Y88.7989
G01 X37.8744 Y88.7956
G01 X37.8118 Y88.7902
G01 X37.7495 Y88.7825
G01 X37.6874 Y88.7727
G01 X37.6257 Y88.7607
G01 X37.5645 Y88.7465
G01 X37.5038 Y88.7303
G01 X37.4438 Y88.7119
G01 X37.3844 Y88.6915
G01 X37.3257 Y88.6689
G01 X37.2679 Y88.6444
G01 X37.2109 Y88.6178
G01 X37.1549 Y88.5893
G01 X37.1000 Y88.5589
G01 X37.0461 Y88.5265
G01 X36.9934 Y88.4923
G01 X36.9420 Y88.4562
G01 X36.8918 Y88.4184
G01 X36.8430 Y88.3789
G01 X36.7956 Y88.3377
G01 X36.7496 Y88.2948
G01 X36.7052 Y88.2504
G01 X36.6623 Y88.2044
G01 X36.6211 Y88.1570
G01 X36.5816 Y88.1082
G01 X36.5438 Y88.0580
G01 X36.5077 Y88.0066
G01 X36.4735 Y87.9539
G01 X36.4411 Y87.9000
G01 X36.4107 Y87.8451
G01 X36.3822 Y87.7891
G01 X36.3556 Y87.7321
G01 X36.3311 Y87.6743
G01 X36.3085 Y87.6157
G01 X36.2881 Y87.5562
G01 X36.2697 Y87.4962
G01 X36.2535 Y87.4355
G01 X36.2500 Y87.4205
G01 Y101.2000
G01 X34.0000
G01 Y84.8000
G01 X31.7500
G01 Y90.5796
G01 X31.7465 Y90.5645
G01 X31.7303 Y90.5039
G01 X31.7119 Y90.4438
G01 X31.6914 Y90.3844
G01 X31.6689 Y90.3257
G01 X31.6444 Y90.2679
G01 X31.6178 Y90.2109
G01 X31.5893 Y90.1550
G01 X31.5588 Y90.1000
G01 X31.5265 Y90.0462
G01 X31.4923 Y89.9935
G01 X31.4562 Y89.9420
G01 X31.4184 Y89.8918
G01 X31.3789 Y89.8430
G01 X31.3377 Y89.7956
G01 X31.2948 Y89.7496
G01 X31.2504 Y89.7052
G01 X31.2044 Y89.6624
G01 X31.1570 Y89.6211
G01 X31.1082 Y89.5816
G01 X31.0580 Y89.5438
G01 X31.0065 Y89.5077
G01 X30.9538 Y89.4735
G01 X30.9000 Y89.4412
G01 X30.8450 Y89.4107
G01 X30.7891 Y89.3822
G01 X30.7321 Y89.3556
G01 X30.6743 Y89.3311
G01 X30.6156 Y89.3086
G01 X30.5562 Y89.2881
G01 X30.4961 Y89.2697
G01 X30.4354 Y89.2535
G01 X30.3742 Y89.2393
G01 X30.3126 Y89.2274
G01 X30.2505 Y89.2175
G01 X30.1881 Y89.2099
G01 X30.1256 Y89.2044
G01 X30.0628 Y89.2011
G01 X30.0000 Y89.2000
G01 X29.5000
G01 Y84.8000
G01 X27.2500
G01 Y89.2000
G01 X25.0000
G01 Y84.8000
G01 X23.8000
G01 Y87.0000
G01 X23.7989 Y87.0628
G01 X23.7956 Y87.1256
G01 X23.7901 Y87.1882
G01 X23.7825 Y87.2505
G01 X23.7726 Y87.3126
G01 X23.7607 Y87.3743
G01 X23.7465 Y87.4355
G01 X23.7303 Y87.4962
G01 X23.7119 Y87.5562
G01 X23.6914 Y87.6157
G01 X23.6689 Y87.6743
G01 X23.6444 Y87.7321
G01 X23.6178 Y87.7891
G01 X23.5893 Y87.8451
G01 X23.5588 Y87.9000
G01 X23.5265 Y87.9539
G01 X23.4923 Y88.0066
G01 X23.4562 Y88.0580
G01 X23.4184 Y88.1082
G01 X23.3789 Y88.1570
G01 X23.3376 Y88.2044
G01 X23.2948 Y88.2504
G01 X23.2504 Y88.2948
G01 X23.2044 Y88.3377
G01 X23.1570 Y88.3789
G01 X23.1082 Y88.4184
G01 X23.0580 Y88.4562
G01 X23.0065 Y88.4923
G01 X22.9538 Y88.5265
G01 X22.9000 Y88.5589
G01 X22.8450 Y88.5893
G01 X22.7891 Y88.6178
G01 X22.7500 Y88.6361
G01 Y89.2000
G01 X22.0000
G01 X21.9372 Y89.2011
G01 X21.8744 Y89.2044
G01 X21.8118 Y89.2099
G01 X21.7495 Y89.2175
G01 X21.6874 Y89.2274
G01 X21.6257 Y89.2393
G01 X21.5645 Y89.2535
G01 X21.5038 Y89.2697
G01 X21.4438 Y89.2881
G01 X21.3844 Y89.3086
G01 X21.3257 Y89.3311
G01 X21.2679 Y89.3556
G01 X21.2109 Y89.3822
G01 X21.1549 Y89.4107
G01 X21.1000 Y89.4412
G01 X21.0461 Y89.4735
G01 X20.9934 Y89.5077
G01 X20.9420 Y89.5438
G01 X20.8918 Y89.5816
G01 X20.8430 Y89.6211
G01 X20.7956 Y89.6624
G01 X20.7496 Y89.7052
G01 X20.7052 Y89.7496
G01 X20.6623 Y89.7956
G01 X20.6211 Y89.8430
G01 X20.5816 Y89.8918
G01 X20.5438 Y89.9420
G01 X20.5077 Y89.9935
G01 X20.5000 Y90.0054
G01 Y88.8000
G00 Z5.0000
G00 X34.0000 Y117.2000
G00 Z0.5000
G01 Z-1.0000 F300
G01 Y108.8000 F2000
G01 X36.2500
G01 Y117.2000
G01 X38.0000
G01 X38.0628 Y117.2011
G01 X38.1256 Y117.2044
G01 X38.1881 Y117.2099
G01 X38.2505 Y117.2175
G01 X38.3126 Y117.2274
G01 X38.3742 Y117.2393
G01 X38.4354 Y117.2535
G01 X38.5000 Y117.2709
G01 Y108.8000
G01 X40.2000
G01 Y119.0000
G01 X40.2011 Y119.0628
G01 X40.2044 Y119.1256
G01 X40.2099 Y119.1882
G01 X40.2175 Y119.2505
G01 X40.2273 Y119.3126
G01 X40.2393 Y119.3742
G01 X40.2535 Y119.4355
G01 X40.2697 Y119.4962
G01 X40.2881 Y119.5562
G01 X40.3085 Y119.6156
G01 X40.3311 Y119.6743
G01 X40.3556 Y119.7321
G01 X40.3822 Y119.7891
G01 X40.4107 Y119.8451
G01 X40.4411 Y119.9000
G01 X40.4735 Y119.9539
G01 X40.5077 Y120.0066
G01 X40.5438 Y120.0580
G01 X40.5816 Y120.1082
G01 X40.6211 Y120.1570
G01 X40.6623 Y120.2044
G01 X40.7052 Y120.2504
G01 X40.7500 Y120.2952
G01 Y121.2000
G01 X43.0000
G01 Y120.8000
G01 X45.2500
G01 Y121.2000
G01 X47.5000
G01 Y120.8000
G01 X49.7500
G01 Y121.2000
G00 Z5.0000
G00 X31.7500
G00 Z0.5000
G01 Z-1.0000 F300
G01 Y119.4204 F2000
G01 X31.7465 Y119.4355
G01 X31.7303 Y119.4962
G01 X31.7119 Y119.5562
G01 X31.6914 Y119.6156
G01 X31.6689 Y119.6743
G01 X31.6444 Y119.7321
G01 X31.6178 Y119.7891
G01 X31.5893 Y119.8451
G01 X31.5588 Y119.9000
G01 X31.5265 Y119.9539
G01 X31.4923 Y120.0066
G01 X31.4562 Y120.0580
G01 X31.4184 Y120.1082
G01 X31.3789 Y120.1570
G01 X31.3376 Y120.2044
G01 X31.2948 Y120.2504
G01 X31.2504 Y120.2948
G01 X31.2044 Y120.3377
G01 X31.1570 Y120.3789
G01 X31.1082 Y120.4184
G01 X31.0580 Y120.4562
G01 X31.0065 Y120.4923
G01 X30.9538 Y120.5265
G01 X30.9000 Y120.5589
G01 X30.8450 Y120.5893
G01 X30.7891 Y120.6178
G01 X30.7321 Y120.6444
G01 X30.6743 Y120.6689
G01 X30.6156 Y120.6915
G01 X30.5562 Y120.7119
G01 X30.4961 Y120.7303
G01 X30.4354 Y120.7465
G01 X30.3742 Y120.7607
G01 X30.3126 Y120.7727
G01 X30.2505 Y120.7825
G01 X30.1881 Y120.7901
G01 X30.1256 Y120.7956
G01 X30.0628 Y120.7989
G01 X30.0000 Y120.8000
G01 X29.5000
G01 Y121.2000
G01 X27.2500
G01 Y120.8000
G01 X25.0000
G01 Y121.2000
G01 X22.7500
G01 Y120.8000
G01 X22.0000
G01 X21.9372 Y120.7989
G01 X21.8744 Y120.7956
G01 X21.8118 Y120.7901
G01 X21.7495 Y120.7825
G01 X21.6874 Y120.7727
G01 X21.6257 Y120.7607
G01 X21.5645 Y120.7465
G01 X21.5038 Y120.7303
G01 X21.4438 Y120.7119
G01 X21.3844 Y120.6915
G01 X21.3257 Y120.6689
G01 X21.2679 Y120.6444
G01 X21.2109 Y120.6178
G01 X21.1549 Y120.5893
G01 X21.1000 Y120.5589
G01 X21.0461 Y120.5265
G01 X20.9934 Y120.4923
G01 X20.9420 Y120.4562
G01 X20.8918 Y120.4184
G01 X20.8430 Y120.3789
G01 X20.7956 Y120.3377
G01 X20.7496 Y120.2948
G01 X20.7052 Y120.2504
G01 X20.6623 Y120.2044
G01 X20.6211 Y120.1570
G01 X20.5816 Y120.1082
G01 X20.5438 Y120.0580
G01 X20.5077 Y120.0066
G01 X20.5000 Y119.9947
G01 Y121.2000
G00 Z5.0000
G00 X268.0000
G00 Z0.5000
G01 Z-1.0000 F300
G01 Y84.8000 F2000
G00 Z5.0000
G00 X277.0000 Y88.8000
G00 Z0.5000
G01 Z-1.0000 F300
G01 Y89.5035 F2000
G01 X277.0461 Y89.4735
G01 X277.1000 Y89.4412
G01 X277.1549 Y89.4107
G01 X277.2109 Y89.3822
G01 X277.2679 Y89.3556
G01 X277.3257 Y89.3311
G01 X277.3843 Y89.3086
G01 X277.4438 Y89.2881
G01 X277.5038 Y89.2697
G01 X277.5645 Y89.2535
G01 X277.6257 Y89.2393
G01 X277.6874 Y89.2274
G01 X277.7495 Y89.2175
G01 X277.8118 Y89.2099
G01 X277.8744 Y89.2044
G01 X277.9372 Y89.2011
G01 X278.0000 Y89.2000
G01 X279.2500
G01 Y88.2952
G01 X279.2948 Y88.2504
G01 X279.3376 Y88.2044
G01 X279.3789 Y88.1570
G01 X279.4184 Y88.1082
G01 X279.4562 Y88.0580
G01 X279.4922 Y88.0066
G01 X279.5265 Y87.9539
G01 X279.5588 Y87.9000
G01 X279.5893 Y87.8451
G01 X279.6178 Y87.7891
G01 X279.6444 Y87.7321
G01 X279.6689 Y87.6743
G01 X279.6914 Y87.6157
G01 X279.7119 Y87.5562
G01 X279.7303 Y87.4962
G01 X279.7465 Y87.4355
G01 X279.7607 Y87.3743
G01 X279.7726 Y87.3126
G01 X279.7825 Y87.2505
G01 X279.7901 Y87.1882
G01 X279.7956 Y87.1256
G01 X279.7989 Y87.0628
G01 X279.8000 Y87.0000
G01 Y84.8000
G01 X281.5000
G01 Y89.2000
G01 X283.7500
G01 Y84.8000
G01 X286.0000
G01 Y89.2000
G01 X286.0628 Y89.2011
G01 X286.1255 Y89.2044
G01 X286.1881 Y89.2099
G01 X286.2505 Y89.2175
G01 X286.3126 Y89.2274
G01 X286.3742 Y89.2393
G01 X286.4355 Y89.2535
G01 X286.4961 Y89.2697
G01 X286.5562 Y89.2881
G01 X286.6156 Y89.3086
G01 X286.6743 Y89.3311
G01 X286.7321 Y89.3556
G01 X286.7891 Y89.3822
G01 X286.8450 Y89.4107
G01 X286.9000 Y89.4412
G01 X286.9538 Y89.4735
G01 X287.0065 Y89.5077
G01 X287.0580 Y89.5438
G01 X287.1082 Y89.5816
G01 X287.1570 Y89.6211
G01 X287.2044 Y89.6624
G01 X287.2504 Y89.7052
G01 X287.2948 Y89.7496
G01 X287.3376 Y89.7956
G01 X287.3789 Y89.8430
G01 X287.4184 Y89.8918
G01 X287.4562 Y89.9420
G01 X287.4922 Y89.9935
G01 X287.5265 Y90.0462
G01 X287.5588 Y90.1000
G01 X287.5893 Y90.1550
G01 X287.6178 Y90.2109
G01 X287.6444 Y90.2679
G01 X287.6689 Y90.3257
G01 X287.6914 Y90.3844
G01 X287.7119 Y90.4438
G01 X287.7303 Y90.5039
G01 X287.7465 Y90.5645
G01 X287.7607 Y90.6258
G01 X287.7726 Y90.6874
G01 X287.7825 Y90.7495
G01 X287.7901 Y90.8119
G01 X287.7956 Y90.8744
G01 X287.7989 Y90.9372
G01 X287.8000 Y91.0000
G01 Y101.2000
G01 X288.2500
G01 Y84.8000
G01 X290.5000
G01 Y101.2709
G01 X290.5562 Y101.2881
G01 X290.6156 Y101.3086
G01 X290.6743 Y101.3311
G01 X290.7321 Y101.3556
G01 X290.7891 Y101.3822
G01 X290.8450 Y101.4107
G01 X290.9000 Y101.4412
G01 X290.9538 Y101.4735
G01 X291.0065 Y101.5077
G01 X291.0580 Y101.5438
G01 X291.1082 Y101.5816
G01 X291.1570 Y101.6211
G01 X291.2044 Y101.6623
G01 X291.2504 Y101.7052
G01 X291.2948 Y101.7496
G01 X291.3376 Y101.7956
G01 X291.3789 Y101.8430
G01 X291.4184 Y101.8918
G01 X291.4562 Y101.9420
G01 X291.4922 Y101.9935
G01 X291.5265 Y102.0462
G01 X291.5588 Y102.1000
G01 X291.5893 Y102.1550
G01 X291.6178 Y102.2109
G01 X291.6444 Y102.2679
G01 X291.6689 Y102.3257
G01 X291.6914 Y102.3844
G01 X291.7119 Y102.4438
G01 X291.7303 Y102.5039
G01 X291.7465 Y102.5645
G01 X291.7607 Y102.6258
G01 X291.7726 Y102.6874
G01 X291.7825 Y102.7495
G01 X291.7901 Y102.8119
G01 X291.7956 Y102.8744
G01 X291.7989 Y102.9372
G01 X291.8000 Y103.0000
G01 Y105.2000
G01 X292.7500
G01 Y96.2952
G01 X292.7956 Y96.3377
G01 X292.8430 Y96.3789
G01 X292.8918 Y96.4184
G01 X292.9420 Y96.4562
G01 X292.9934 Y96.4923
G01 X293.0461 Y96.5265
G01 X293.1000 Y96.5589
G01 X293.1549 Y96.5893
G01 X293.2109 Y96.6178
G01 X293.2679 Y96.6444
G01 X293.3257 Y96.6689
G01 X293.3843 Y96.6915
G01 X293.4438 Y96.7119
G01 X293.5038 Y96.7303
G01 X293.5645 Y96.7465
G01 X293.6257 Y96.7607
G01 X293.6874 Y96.7727
G01 X293.7495 Y96.7825
G01 X293.8118 Y96.7902
G01 X293.8744 Y96.7956
G01 X293.9372 Y96.7989
G01 X294.0000 Y96.8000
G01 X295.0000
G01 Y105.5035
G00 Z5.0000
G00 X297.2500 Y100.6361
G00 Z0.5000
G01 Z-1.0000 F300
G01 Y117.3640 F2000
G01 X297.2679 Y117.3556
G01 X297.3257 Y117.3311
G01 X297.3843 Y117.3086
G01 X297.4438 Y117.2881
G01 X297.5038 Y117.2697
G01 X297.5645 Y117.2535
G01 X297.6257 Y117.2393
G01 X297.6874 Y117.2274
G01 X297.7495 Y117.2175
G01 X297.8118 Y117.2099
G01 X297.8744 Y117.2044
G01 X297.9372 Y117.2011
G01 X298.0000 Y117.2000
G01 X299.5000
G01 Y100.8000
G00 Z5.0000
G00 X283.7500 Y121.2000
G00 Z0.5000
G01 Z-1.0000 F300
G01 Y108.8000 F2000
G01 X281.5000
G01 Y121.2000
G01 X279.2500
G01 Y120.2952
G01 X279.2044 Y120.3377
G01 X279.1570 Y120.3789
G01 X279.1082 Y120.4184
G01 X279.0580 Y120.4562
G01 X279.0065 Y120.4923
G01 X278.9538 Y120.5265
G01 X278.9000 Y120.5589
G01 X278.8450 Y120.5893
G01 X278.7891 Y120.6178
G01 X278.7321 Y120.6444
G01 X278.6743 Y120.6689
G01 X278.6156 Y120.6915
G01 X278.5562 Y120.7119
G01 X278.4961 Y120.7303
G01 X278.4355 Y120.7465
G01 X278.3742 Y120.7607
G01 X278.3126 Y120.7727
G01 X278.2505 Y120.7825
G01 X278.1881 Y120.7901
G01 X278.1255 Y120.7956
G01 X278.0628 Y120.7989
G01 X278.0000 Y120.8000
G01 X277.0000
G01 Y121.2000
G01 X274.7500
G01 Y120.8000
G01 X272.5000
G01 Y121.2000
G01 X270.2500
G01 Y120.8000
G00 Z5.0000
G00 Y105.2000
G00 Z0.5000
G01 Z-1.0000 F300
G01 Y100.8000 F2000
G01 X272.5000
G01 Y102.0053
G01 X272.5077 Y101.9935
G01 X272.5438 Y101.9420
G01 X272.5816 Y101.8918
G01 X272.6211 Y101.8430
G01 X272.6623 Y101.7956
G01 X272.7052 Y101.7496
G01 X272.7496 Y101.7052
G01 X272.7956 Y101.6623
G01 X272.8430 Y101.6211
G01 X272.8918 Y101.5816
G01 X272.9420 Y101.5438
G01 X272.9934 Y101.5077
G01 X273.0461 Y101.4735
G01 X273.1000 Y101.4412
G01 X273.1549 Y101.4107
G01 X273.2109 Y101.3822
G01 X273.2679 Y101.3556
G01 X273.3257 Y101.3311
G01 X273.3843 Y101.3086
G01 X273.4438 Y101.2881
G01 X273.5038 Y101.2697
G01 X273.5645 Y101.2535
G01 X273.6257 Y101.2393
G01 X273.6874 Y101.2274
G01 X273.7495 Y101.2175
G01 X273.8118 Y101.2099
G01 X273.8744 Y101.2044
G01 X273.9372 Y101.2011
G01 X274.0000 Y101.2000
G01 X274.7500
G01 Y100.6360
G00 Z5.0000
G00 X286.0000 Y121.2000
G00 Z0.5000
G01 Z-1.0000 F300
G01 Y120.8000 F2000
G01 X288.2500
G01 Y121.2000
G01 X290.5000
G01 Y120.8000
G01 X292.7500
G01 Y121.2000
G01 X295.0000
G01 Y120.4965
G00 Z5.0000
G00 X231.5000 Y99.0000
G00 Z0.5000
G01 Z-1.0000 F300
G01 Y117.5000 F2000
G01 X234.0000
G03 X235.5000 Y119.0000 I0.0000 J1.5000
G01 Y121.5000
G01 X260.5000
G01 Y119.0000
G03 X262.0000 Y117.5000 I1.5000 J0.0000
G01 X266.0000
G03 X267.5000 Y119.0000 I0.0000 J1.5000
G01 Y121.5000
G01 X296.5000
G01 Y119.0000
G03 X298.0000 Y117.5000 I1.5000 J0.0000
G01 X300.5000
G01 Y100.5000
G01 X298.0000
G03 X296.5000 Y99.0000 I0.0000 J-1.5000
G01 Y96.5000
G01 X294.0000
G03 X292.5000 Y95.0000 I0.0000 J-1.5000
G01 Y84.5000
G01 X279.5000
G01 Y87.0000
G03 X278.0000 Y88.5000 I-1.5000 J0.0000
G01 X275.5000
G01 Y99.0000
G03 X274.0000 Y100.5000 I-1.5001 J-0.0001
G01 X270.0000
G03 X268.5000 Y99.0000 I0.0000 J-1.5000
G01 Y84.5000
G01 X255.5000
G01 Y87.0000
G03 X254.0000 Y88.5000 I-1.5000 J0.0000
G01 X250.0000
G03 X248.5000 Y87.0000 I0.0000 J-1.5000
G01 Y84.5000
G01 X187.5000
G01 Y87.0000
G03 X186.0000 Y88.5000 I-1.5000 J0.0000
G01 X182.0000
G03 X180.5000 Y87.0000 I0.0000 J-1.5000
G01 Y84.5000
G01 X131.5000
G01 Y87.0000
G03 X130.0000 Y88.5000 I-1.5000 J0.0000
G01 X127.5000
G01 Y91.0000
G03 X126.0000 Y92.5000 I-1.5000 J0.0000
G01 X122.0000
G03 X120.5000 Y91.0000 I0.0000 J-1.5000
G01 Y88.5000
G01 X118.0000
G03 X116.5000 Y87.0000 I0.0000 J-1.5000
G01 Y84.5000
G01 X107.5000
G01 Y87.0000
G03 X106.0000 Y88.5000 I-1.5000 J0.0000
G01 X103.5000
G01 Y91.0000
G03 X102.0000 Y92.5000 I-1.5000 J0.0000
G01 X99.5000
G01 Y95.0000
G03 X98.0000 Y96.5000 I-1.5000 J0.0000
G01 X94.0000
G03 X92.5000 Y95.0000 I0.0000 J-1.5000
G01 Y88.5000
G01 X90.0000
G03 X88.5000 Y87.0000 I0.0000 J-1.5000
G01 Y84.5000
G01 X63.5000
G01 Y87.0000
G03 X62.0000 Y88.5000 I-1.5000 J0.0000
G01 X58.0000
G03 X56.5000 Y87.0000 I0.0000 J-1.5000
G01 Y84.5000
G01 X43.5000
G01 Y87.0000
G03 X42.0000 Y88.5000 I-1.5000 J0.0000
G01 X38.0000
G03 X36.5000 Y87.0000 I0.0000 J-1.5000
G01 Y84.5000
G01 X23.5000
G01 Y87.0000
G03 X22.0000 Y88.5000 I-1.5000 J0.0000
G01 X19.5000
G01 Y121.5000
G01 X32.5000
G01 Y119.0000
G03 X34.0000 Y117.5000 I1.5000 J0.0000
G01 X38.0000
G03 X39.5000 Y119.0000 I0.0000 J1.5000
G01 Y121.5000
G01 X52.5000
G01 Y119.0000
G03 X54.0000 Y117.5000 I1.5000 J0.0000
G01 X58.0000
G03 X59.5000 Y119.0000 I0.0000 J1.5000
G01 Y121.5000
G01 X84.5000
G01 Y119.0000
G03 X86.0000 Y117.5000 I1.5000 J0.0000
G01 X90.0000
G03 X91.5000 Y119.0000 I0.0000 J1.5000
G01 Y121.5000
G01 X104.5000
G01 Y119.0000
G03 X106.0000 Y117.5000 I1.5000 J0.0000
G01 X110.0000
G03 X111.5000 Y119.0000 I0.0000 J1.5000
G01 Y121.5000
G01 X192.5000
G01 Y119.0000
G03 X194.0000 Y117.5000 I1.5000 J0.0000
G01 X198.0000
G03 X199.5000 Y119.0000 I0.0000 J1.5000
G01 Y121.5000
G01 X212.5000
G01 Y119.0000
G03 X214.0000 Y117.5000 I1.5000 J0.0000
G01 X216.5000
G01 Y99.0000
G03 X218.0000 Y97.5000 I1.5000 J0.0000
G01 X230.0000
G03 X231.5000 Y99.0000 I0.0000 J1.5000
G00 Z5.0000

(Nr. 5 Teil 2)
G00 X31.5000 Y119.0000
G00 Z0.5000
G01 Z-1.0000 F300
G03 X30.0000 Y120.5000 I-1.5000 J0.0000 F2000
G01 X22.0000
G03 X20.5000 Y119.0000 I0.0000 J-1.5000
G01 Y91.0000
G03 X22.0000 Y89.5000 I1.5000 J0.0000
G01 X30.0000
G03 X31.5000 Y91.0000 I0.0000 J1.5000
G01 Y101.5000
G01 X40.5000
G01 Y91.0000
G03 X42.0000 Y89.5000 I1.5000 J0.0000
G01 X50.0000
G03 X51.5000 Y91.0000 I0.0000 J1.5000
G01 Y119.0000
G03 X50.0000 Y120.5000 I-1.5000 J0.0000
G01 X42.0000
G03 X40.5000 Y119.0000 I0.0000 J-1.5000
G01 Y108.5000
G01 X31.5000
G01 Y119.0000
G00 Z5.0000

(Nr. 6 Teil 3)
G00 X60.5000 Y116.5000
G00 Z0.5000
G01 Z-1.0000 F300
G01 X58.0000 F2000
G03 X56.5000 Y115.0000 I0.0000 J-1.5000
G01 Y95.0000
G03 X58.0000 Y93.5000 I1.5000 J0.0000
G01 X60.5000
G01 Y91.0000
G03 X62.0000 Y89.5000 I1.5000 J0.0000
G01 X82.0000
G03 X83.5000 Y91.0000 I0.0000 J1.5000
G01 Y93.5000
G01 X86.0000
G03 X87.5000 Y95.0000 I0.0000 J1.5000
G01 Y115.0000
G03 X86.0000 Y116.5000 I-1.5000 J0.0000
G01 X83.5000
G01 Y119.0000
G03 X82.0000 Y120.5000 I-1.5000 J0.0000
G01 X62.0000
G03 X60.5000 Y119.0000 I0.0000 J-1.5000
G01 Y116.5000
G00 Z5.0000

(Nr. 7 Teil 4)
G00 X92.4755 Y103.0000
G00 Z0.5000
G01 Z-1.0000 F300
G03 X93.9755 Y101.5000 I1.5000 J0.0000 F2000
G01 X96.4755
G01 Y99.0000
G03 X97.9755 Y97.5000 I1.5000 J0.0000
G01 X100.4755
G01 Y95.0000
G03 X101.9755 Y93.5000 I1.5000 J0.0000
G01 X104.4755
G01 Y91.0000
G03 X105.9755 Y89.5000 I1.5000 J0.0000
G01 X109.9755
G03 X111.4755 Y91.0000 I0.0000 J1.5000
G01 Y93.5000
G01 X113.9755
G03 X115.4755 Y95.0000 I0.0000 J1.5000
G01 Y97.5000
G01 X117.9755
G03 X119.4755 Y99.0000 I0.0000 J1.5000
G01 Y101.5000
G01 X121.9755
G03 X123.4755 Y103.0000 I0.0000 J1.5000
G01 Y119.0000
G03 X121.9755 Y120.5000 I-1.5000 J0.0000
G01 X113.9755
G03 X112.4755 Y119.0000 I0.0000 J-1.5000
G01 Y104.5000
G01 X109.9755
G03 X108.4755 Y103.0000 I0.0000 J-1.5000
G01 Y100.5000
G01 X107.4755
G01 Y103.0000
G03 X105.9755 Y104.5000 I-1.5000 J0.0000
G01 X103.4755
G01 Y119.0000
G03 X101.9755 Y120.5000 I-1.5000 J0.0000
G01 X93.9755
G03 X92.4755 Y119.0000 I0.0000 J-1.5000
G01 Y103.0000
G00 Z5.0000

(Nr. 8 Teil 5)
G00 X128.5000 Y91.0000
G00 Z0.5000
G01 Z-1.0000 F300
G03 X130.0000 Y89.5000 I1.5000 J0.0000 F2000
G01 X158.0000
G03 X159.5000 Y91.0000 I0.0000 J1.5000
G01 Y95.0000
G03 X158.0000 Y96.5000 I-1.5000 J0.0000
G01 X139.5000
G01 Y101.5000
G01 X154.0000
G03 X155.5000 Y103.0000 I0.0000 J1.5000
G01 Y107.0000
G03 X154.0000 Y108.5000 I-1.5000 J0.0000
G01 X139.5000
G01 Y113.5000
G01 X158.0000
G03 X159.5000 Y115.0000 I0.0000 J1.5000
G01 Y119.0000
G03 X158.0000 Y120.5000 I-1.5000 J0.0000
G01 X130.0000
G03 X128.5000 Y119.0000 I0.0000 J-1.5000
G01 Y91.0000
G00 Z5.0000

(Nr. 9 Teil 6)
G00 X164.4755
G00 Z0.5000
G01 Z-1.0000 F300
G03 X165.9755 Y89.5000 I1.5000 J0.0000 F2000
G01 X173.9755
G03 X175.4755 Y91.0000 I0.0000 J1.5000
G01 Y101.5000
G01 X184.4755
G01 Y91.0000
G03 X185.9755 Y89.5000 I1.5000 J0.0000
G01 X193.9755
G03 X195.4755 Y91.0000 I0.0000 J1.5000
G01 Y103.0000
G03 X193.9755 Y104.5000 I-1.5000 J0.0000
G01 X191.4755
G01 Y105.5000
G01 X193.9755
G03 X195.4755 Y107.0000 I0.0000 J1.5000
G01 Y115.0000
G03 X193.9755 Y116.5000 I-1.5000 J0.0000
G01 X191.4755
G01 Y119.0000
G03 X189.9755 Y120.5000 I-1.5000 J0.0000
G01 X165.9755
G03 X164.4755 Y119.0000 I0.0000 J-1.5000
G01 Y91.0000
G00 Z5.0000

(Nr. 10 Teil 7)
G00 X200.4755
G00 Z0.5000
G01 Z-1.0000 F300
G03 X201.9755 Y89.5000 I1.5000 J0.0000 F2000
G01 X225.9755
G03 X227.4755 Y91.0000 I0.0000 J1.5000
G01 Y95.0000
G03 X225.9755 Y96.5000 I-1.5000 J0.0000
G01 X211.4755
G01 Y119.0000
G03 X209.9755 Y120.5000 I-1.5000 J0.0000
G01 X201.9755
G03 X200.4755 Y119.0000 I0.0000 J-1.5000
G01 Y91.0000
G00 Z5.0000

(Nr. 11 Teil 8)
G00 X232.4755
G00 Z0.5000
G01 Z-1.0000 F300
G03 X233.9755 Y89.5000 I1.5000 J0.0000 F2000
G01 X241.9755
G03 X243.4755 Y91.0000 I0.0000 J1.5000
G01 Y97.5000
G01 X252.4755
G01 Y91.0000
G03 X253.9755 Y89.5000 I1.5000 J0.0000
G01 X261.9756
G03 X263.4755 Y91.0000 I0.0000 J1.5000
G01 Y115.0000
G03 X261.9755 Y116.5000 I-1.5000 J0.0000
G01 X259.4755
G01 Y119.0000
G03 X257.9755 Y120.5000 I-1.5000 J0.0000
G01 X237.9755
G03 X236.4755 Y119.0000 I0.0000 J-1.5000
G01 Y116.5000
G01 X233.9755
G03 X232.4755 Y115.0000 I0.0000 J-1.5000
G01 Y91.0000
G00 Z5.0000

(Nr. 12 Teil 9)
G00 X268.5000 Y107.0000
G00 Z0.5000
G01 Z-1.0000 F300
G03 X270.0000 Y105.5000 I1.5000 J0.0000 F2000
G01 X272.5000
G01 Y103.0000
G03 X274.0000 Y101.5000 I1.5000 J0.0000
G01 X276.5000
G01 Y91.0000
G03 X278.0000 Y89.5000 I1.5000 J0.0000
G01 X286.0000
G03 X287.5000 Y91.0000 I0.0000 J1.5000
G01 Y101.5000
G01 X290.0000
G03 X291.5000 Y103.0000 I0.0000 J1.5000
G01 Y105.5000
G01 X294.0000
G03 X295.5000 Y107.0000 I0.0000 J1.5000
G01 Y119.0000
G03 X294.0000 Y120.5000 I-1.5000 J0.0000
G01 X286.0000
G03 X284.5000 Y119.0000 I0.0000 J-1.5000
G01 Y108.5000
G01 X279.5000
G01 Y119.0000
G03 X278.0000 Y120.5000 I-1.5000 J0.0000
G01 X270.0000
G03 X268.5000 Y119.0000 I0.0000 J-1.5000
G01 Y107.0000
G00 Z5.0000

(Nr. 13 Teil 1)
G00 X321.5000 Y0.0000
G00 Z0.5000
G01 Z-1.0000 F300
G01 Y206.0000 F2000
G03 X320.0000 Y207.5000 I-1.5000 J0.0000
G01 X0.0000
G03 X-1.5000 Y206.0000 I0.0000 J-1.5000
G01 Y0.0000
G03 X0.0000 Y-1.5000 I1.5000 J0.0000
G01 X320.0000
G03 X321.5000 Y0.0000 I0.0000 J1.5000
G01 Z-2.0000 F300
G01 Y206.0000 F2000
G03 X320.0000 Y207.5000 I-1.5000 J0.0000
G01 X0.0000
G03 X-1.5000 Y206.0000 I0.0000 J-1.5000
G01 Y0.0000
G03 X0.0000 Y-1.5000 I1.5000 J0.0000
G01 X320.0000
G03 X321.5000 Y0.0000 I0.0000 J1.5000
G01 Z-3.0000 F300
G01 Y206.0000 F2000
G03 X320.0000 Y207.5000 I-1.5000 J0.0000
G01 X0.0000
G03 X-1.5000 Y206.0000 I0.0000 J-1.5000
G01 Y0.0000
G03 X0.0000 Y-1.5000 I1.5000 J0.0000
G01 X320.0000
G03 X321.5000 Y0.0000 I0.0000 J1.5000
G00 Z5.0000
G00 X0.0000

M05
M30
