(Projekt m-stirn)
(Erstellt mit Estlcam 2.5D Version 7 Build 7,101)
(Fraesrichtung: Gegenlauf)
(Nullpunkt: Auf Teileoberseite)
(Maximale Fraestiefe: 3,00mm)
(Verwendete Werkzeuge:)
(Fraeser 3 mm)

G90
M03
G00 Z5.0000

(Nr. 1 Bohrung 3)
G00 X60.5000 Y100.0000
G00 Z0.5000
G01 Z-1.0000 F300 S24000
G00 Z0.5000
G00 Z-0.5000
G01 Z-2.0000
G00 Z0.5000
G00 Z-1.5000
G01 Z-3.0000
G00 Z0.5000
G00 Z5.0000

(Nr. 2 Bohrung 4)
G00 X90.5000
G00 Z0.5000
G01 Z-1.0000
G00 Z0.5000
G00 Z-0.5000
G01 Z-2.0000
G00 Z0.5000
G00 Z-1.5000
G01 Z-3.0000
G00 Z0.5000
G00 Z5.0000

(Nr. 3 Bohrung 5)
G00 X180.5000
G00 Z0.5000
G01 Z-1.0000
G00 Z0.5000
G00 Z-0.5000
G01 Z-2.0000
G00 Z0.5000
G00 Z-1.5000
G01 Z-3.0000
G00 Z0.5000
G00 Z5.0000

(Nr. 4 Bohrung 6)
G00 X210.5000
G00 Z0.5000
G01 Z-1.0000
G00 Z0.5000
G00 Z-0.5000
G01 Z-2.0000
G00 Z0.5000
G00 Z-1.5000
G01 Z-3.0000
G00 Z0.5000
G00 Z5.0000

(Nr. 5 Ausschnitt 1)
G00 X145.6289 Y125.7202
G00 Z0.5000
G01 Z-1.0000
G01 X144.6163 Y123.8538 F2000
G01 X143.2733 Y122.2267
G01 X141.6462 Y120.8837
G01 X139.7798 Y119.8711
G01 X137.7186 Y119.2313
G01 X135.5000 Y119.0076
G01 X133.2814 Y119.2313
G01 X131.2200 Y119.8708
G01 X129.3540 Y120.8840
G01 X127.7267 Y122.2267
G01 X126.3840 Y123.8540
G01 X125.3711 Y125.7202
G01 X124.7309 Y127.7813
G01 X124.5072 Y130.0000
G01 X124.7309 Y132.2187
G01 X125.3711 Y134.2798
G01 X126.3837 Y136.1462
G01 X127.7267 Y137.7733
G01 X129.3540 Y139.1160
G01 X131.2200 Y140.1292
G01 X133.2813 Y140.7691
G01 X135.5000 Y140.9924
G01 X137.7186 Y140.7687
G01 X139.7798 Y140.1289
G01 X141.6460 Y139.1160
G01 X143.2733 Y137.7733
G01 X144.6163 Y136.1462
G01 X145.6289 Y134.2798
G01 X146.2687 Y132.2186
G01 X146.4924 Y130.0000
G01 X146.2687 Y127.7814
G01 X145.6289 Y125.7202
G01 Z-2.0000 F300
G01 X144.6163 Y123.8538 F2000
G01 X143.2733 Y122.2267
G01 X141.6462 Y120.8837
G01 X139.7798 Y119.8711
G01 X137.7186 Y119.2313
G01 X135.5000 Y119.0076
G01 X133.2814 Y119.2313
G01 X131.2200 Y119.8708
G01 X129.3540 Y120.8840
G01 X127.7267 Y122.2267
G01 X126.3840 Y123.8540
G01 X125.3711 Y125.7202
G01 X124.7309 Y127.7813
G01 X124.5072 Y130.0000
G01 X124.7309 Y132.2187
G01 X125.3711 Y134.2798
G01 X126.3837 Y136.1462
G01 X127.7267 Y137.7733
G01 X129.3540 Y139.1160
G01 X131.2200 Y140.1292
G01 X133.2813 Y140.7691
G01 X135.5000 Y140.9924
G01 X137.7186 Y140.7687
G01 X139.7798 Y140.1289
G01 X141.6460 Y139.1160
G01 X143.2733 Y137.7733
G01 X144.6163 Y136.1462
G01 X145.6289 Y134.2798
G01 X146.2687 Y132.2186
G01 X146.4924 Y130.0000
G01 X146.2687 Y127.7814
G01 X145.6289 Y125.7202
G01 Z-3.0000 F300
G01 X144.6163 Y123.8538 F2000
G01 X143.2733 Y122.2267
G01 X141.6462 Y120.8837
G01 X139.7798 Y119.8711
G01 X137.7186 Y119.2313
G01 X135.5000 Y119.0076
G01 X133.2814 Y119.2313
G01 X131.2200 Y119.8708
G01 X129.3540 Y120.8840
G01 X127.7267 Y122.2267
G01 X126.3840 Y123.8540
G01 X125.3711 Y125.7202
G01 X124.7309 Y127.7813
G01 X124.5072 Y130.0000
G01 X124.7309 Y132.2187
G01 X125.3711 Y134.2798
G01 X126.3837 Y136.1462
G01 X127.7267 Y137.7733
G01 X129.3540 Y139.1160
G01 X131.2200 Y140.1292
G01 X133.2813 Y140.7691
G01 X135.5000 Y140.9924
G01 X137.7186 Y140.7687
G01 X139.7798 Y140.1289
G01 X141.6460 Y139.1160
G01 X143.2733 Y137.7733
G01 X144.6163 Y136.1462
G01 X145.6289 Y134.2798
G01 X146.2687 Y132.2186
G01 X146.4924 Y130.0000
G01 X146.2687 Y127.7814
G01 X145.6289 Y125.7202
G00 Z5.0000

(Nr. 6 Teil 1)
G00 X163.2774 Y110.2313
G00 Z0.5000
G01 Z-1.0000 F300
G01 X157.3358 Y148.2889 F2000
G01 X180.0363 Y2.8837
G01 X180.0360 Y0.0001
G03 X181.5360 Y-1.5000 I1.5000 J-0.0001
G01 X184.0000
G03 X184.7857 Y-1.2777 I0.0000 J1.5000
G01 X271.7857 Y52.2223
G03 X272.3580 Y54.1371 I-0.7857 J1.2777
G01 X184.8580 Y240.6371
G03 X183.5000 Y241.5000 I-1.3580 J-0.6371
G01 X87.5000
G03 X86.1420 Y240.6371 I0.0000 J-1.5000
G01 X-1.3580 Y54.1371
G03 X-0.8296 Y52.2503 I1.3580 J-0.6371
G01 X86.2143 Y-1.2777
G03 X86.9483 Y-1.4991 I0.7857 J1.2778
G01 X89.4640 Y-1.5000
G03 X90.9640 Y0.0002 I0.0000 J1.5000
G01 X90.9632 Y2.8838
G01 X113.6640 Y148.2889
G01 X107.7226 Y110.2314
G03 X109.2046 Y108.5000 I1.4820 J-0.2314
G01 X161.7953
G03 X163.2774 Y110.2313 I0.0000 J1.5000
G01 Z-2.0000 F300
G01 X157.3358 Y148.2889 F2000
G01 X180.0363 Y2.8837
G01 X180.0360 Y0.0001
G03 X181.5360 Y-1.5000 I1.5000 J-0.0001
G01 X184.0000
G03 X184.7857 Y-1.2777 I0.0000 J1.5000
G01 X271.7857 Y52.2223
G03 X272.3580 Y54.1371 I-0.7857 J1.2777
G01 X184.8580 Y240.6371
G03 X183.5000 Y241.5000 I-1.3580 J-0.6371
G01 X87.5000
G03 X86.1420 Y240.6371 I0.0000 J-1.5000
G01 X-1.3580 Y54.1371
G03 X-0.8296 Y52.2503 I1.3580 J-0.6371
G01 X86.2143 Y-1.2777
G03 X86.9483 Y-1.4991 I0.7857 J1.2778
G01 X89.4640 Y-1.5000
G03 X90.9640 Y0.0002 I0.0000 J1.5000
G01 X90.9632 Y2.8838
G01 X113.6640 Y148.2889
G01 X107.7226 Y110.2314
G03 X109.2046 Y108.5000 I1.4820 J-0.2314
G01 X161.7953
G03 X163.2774 Y110.2313 I0.0000 J1.5000
G01 Z-3.0000 F300
G01 X157.3358 Y148.2889 F2000
G01 X180.0363 Y2.8837
G01 X180.0360 Y0.0001
G03 X181.5360 Y-1.5000 I1.5000 J-0.0001
G01 X184.0000
G03 X184.7857 Y-1.2777 I0.0000 J1.5000
G01 X271.7857 Y52.2223
G03 X272.3580 Y54.1371 I-0.7857 J1.2777
G01 X184.8580 Y240.6371
G03 X183.5000 Y241.5000 I-1.3580 J-0.6371
G01 X87.5000
G03 X86.1420 Y240.6371 I0.0000 J-1.5000
G01 X-1.3580 Y54.1371
G03 X-0.8296 Y52.2503 I1.3580 J-0.6371
G01 X86.2143 Y-1.2777
G03 X86.9483 Y-1.4991 I0.7857 J1.2778
G01 X89.4640 Y-1.5000
G03 X90.9640 Y0.0002 I0.0000 J1.5000
G01 X90.9632 Y2.8838
G01 X113.6640 Y148.2889
G01 X107.7226 Y110.2314
G03 X109.2046 Y108.5000 I1.4820 J-0.2314
G01 X161.7953
G03 X163.2774 Y110.2313 I0.0000 J1.5000
G00 Z5.0000
G00 X0.0000 Y0.0000

M05
M30
