(Projekt nebler-halter)
(Erstellt mit Estlcam 2.5D Version 7 Build 7,101)
(Fraesrichtung: Gegenlauf)
(Nullpunkt: Auf Teileoberseite)
(Maximale Fraestiefe: 3,00mm)
(Verwendete Werkzeuge:)
(Fraeser 3 mm)

G90
M03
G00 Z5.0000

(Nr. 1 Gravur 1)
G00 X70.0000 Y93.5000
G00 Z0.5000
G01 Z-1.0000 F300 S24000
G01 X10.0000 F2000
G00 Z5.0000
G00 X70.0000
G00 Z-0.5000
G01 Z-2.0000 F300
G01 X10.0000 F2000
G00 Z5.0000
G00 X70.0000
G00 Z-1.5000
G01 Z-3.0000 F300
G01 X10.0000 F2000
G00 Z5.0000

(Nr. 2 Gravur 2)
G00 X150.0000
G00 Z0.5000
G01 Z-1.0000 F300
G01 X90.0000 F2000
G00 Z5.0000
G00 X150.0000
G00 Z-0.5000
G01 Z-2.0000 F300
G01 X90.0000 F2000
G00 Z5.0000
G00 X150.0000
G00 Z-1.5000
G01 Z-3.0000 F300
G01 X90.0000 F2000
G00 Z5.0000

(Nr. 3 Gravur 3)
G00 X230.0000
G00 Z0.5000
G01 Z-1.0000 F300
G01 X170.0000 F2000
G00 Z5.0000
G00 X230.0000
G00 Z-0.5000
G01 Z-2.0000 F300
G01 X170.0000 F2000
G00 Z5.0000
G00 X230.0000
G00 Z-1.5000
G01 Z-3.0000 F300
G01 X170.0000 F2000
G00 Z5.0000

(Nr. 4 Gravur 4)
G00 X310.0000
G00 Z0.5000
G01 Z-1.0000 F300
G01 X250.0000 F2000
G00 Z5.0000
G00 X310.0000
G00 Z-0.5000
G01 Z-2.0000 F300
G01 X250.0000 F2000
G00 Z5.0000
G00 X310.0000
G00 Z-1.5000
G01 Z-3.0000 F300
G01 X250.0000 F2000
G00 Z5.0000

(Nr. 5 Gravur 8)
G00 X310.0000 Y33.5000
G00 Z0.5000
G01 Z-1.0000 F300
G01 X250.0000 F2000
G00 Z5.0000
G00 X310.0000
G00 Z-0.5000
G01 Z-2.0000 F300
G01 X250.0000 F2000
G00 Z5.0000
G00 X310.0000
G00 Z-1.5000
G01 Z-3.0000 F300
G01 X250.0000 F2000
G00 Z5.0000

(Nr. 6 Gravur 7)
G00 X230.0000
G00 Z0.5000
G01 Z-1.0000 F300
G01 X170.0000 F2000
G00 Z5.0000
G00 X230.0000
G00 Z-0.5000
G01 Z-2.0000 F300
G01 X170.0000 F2000
G00 Z5.0000
G00 X230.0000
G00 Z-1.5000
G01 Z-3.0000 F300
G01 X170.0000 F2000
G00 Z5.0000

(Nr. 7 Gravur 6)
G00 X150.0000
G00 Z0.5000
G01 Z-1.0000 F300
G01 X90.0000 F2000
G00 Z5.0000
G00 X150.0000
G00 Z-0.5000
G01 Z-2.0000 F300
G01 X90.0000 F2000
G00 Z5.0000
G00 X150.0000
G00 Z-1.5000
G01 Z-3.0000 F300
G01 X90.0000 F2000
G00 Z5.0000

(Nr. 8 Gravur 5)
G00 X70.0000
G00 Z0.5000
G01 Z-1.0000 F300
G01 X10.0000 F2000
G00 Z5.0000
G00 X70.0000
G00 Z-0.5000
G01 Z-2.0000 F300
G01 X10.0000 F2000
G00 Z5.0000
G00 X70.0000
G00 Z-1.5000
G01 Z-3.0000 F300
G01 X10.0000 F2000
G00 Z5.0000

(Nr. 9 Ausschnitt 1)
G00 X52.1927 Y51.3073
G00 Z0.5000
G01 Z-1.0000 F300
G01 X49.6404 Y49.2014 F2000
G01 X46.7126 Y47.6123
G01 X43.4783 Y46.6079
G01 X40.0000 Y46.2576
G01 X36.5217 Y46.6079
G01 X33.2874 Y47.6123
G01 X30.3596 Y49.2014
G01 X27.8070 Y51.3070
G01 X25.7014 Y53.8596
G01 X24.1123 Y56.7874
G01 X23.1079 Y60.0217
G01 X22.7576 Y63.5000
G01 X23.1079 Y66.9783
G01 X24.1123 Y70.2126
G01 X25.7014 Y73.1404
G01 X27.8073 Y75.6927
G01 X30.3596 Y77.7986
G01 X33.2874 Y79.3878
G01 X36.5217 Y80.3921
G01 X40.0000 Y80.7424
G01 X43.4783 Y80.3921
G01 X46.7126 Y79.3878
G01 X49.6404 Y77.7986
G01 X52.1927 Y75.6927
G01 X54.2986 Y73.1404
G01 X55.8878 Y70.2126
G01 X56.8918 Y66.9782
G01 X57.2424 Y63.5000
G01 X56.8918 Y60.0218
G01 X55.8881 Y56.7873
G01 X54.2986 Y53.8596
G01 X52.1927 Y51.3073
G01 Z-2.0000 F300
G01 X49.6404 Y49.2014 F2000
G01 X46.7126 Y47.6123
G01 X43.4783 Y46.6079
G01 X40.0000 Y46.2576
G01 X36.5217 Y46.6079
G01 X33.2874 Y47.6123
G01 X30.3596 Y49.2014
G01 X27.8070 Y51.3070
G01 X25.7014 Y53.8596
G01 X24.1123 Y56.7874
G01 X23.1079 Y60.0217
G01 X22.7576 Y63.5000
G01 X23.1079 Y66.9783
G01 X24.1123 Y70.2126
G01 X25.7014 Y73.1404
G01 X27.8073 Y75.6927
G01 X30.3596 Y77.7986
G01 X33.2874 Y79.3878
G01 X36.5217 Y80.3921
G01 X40.0000 Y80.7424
G01 X43.4783 Y80.3921
G01 X46.7126 Y79.3878
G01 X49.6404 Y77.7986
G01 X52.1927 Y75.6927
G01 X54.2986 Y73.1404
G01 X55.8878 Y70.2126
G01 X56.8918 Y66.9782
G01 X57.2424 Y63.5000
G01 X56.8918 Y60.0218
G01 X55.8881 Y56.7873
G01 X54.2986 Y53.8596
G01 X52.1927 Y51.3073
G01 Z-3.0000 F300
G01 X49.6404 Y49.2014 F2000
G01 X46.7126 Y47.6123
G01 X43.4783 Y46.6079
G01 X40.0000 Y46.2576
G01 X36.5217 Y46.6079
G01 X33.2874 Y47.6123
G01 X30.3596 Y49.2014
G01 X27.8070 Y51.3070
G01 X25.7014 Y53.8596
G01 X24.1123 Y56.7874
G01 X23.1079 Y60.0217
G01 X22.7576 Y63.5000
G01 X23.1079 Y66.9783
G01 X24.1123 Y70.2126
G01 X25.7014 Y73.1404
G01 X27.8073 Y75.6927
G01 X30.3596 Y77.7986
G01 X33.2874 Y79.3878
G01 X36.5217 Y80.3921
G01 X40.0000 Y80.7424
G01 X43.4783 Y80.3921
G01 X46.7126 Y79.3878
G01 X49.6404 Y77.7986
G01 X52.1927 Y75.6927
G01 X54.2986 Y73.1404
G01 X55.8878 Y70.2126
G01 X56.8918 Y66.9782
G01 X57.2424 Y63.5000
G01 X56.8918 Y60.0218
G01 X55.8881 Y56.7873
G01 X54.2986 Y53.8596
G01 X52.1927 Y51.3073
G00 Z5.0000

(Nr. 10 Ausschnitt 2)
G00 X64.1123 Y56.7874
G00 Z0.5000
G01 Z-1.0000 F300
G01 X63.1082 Y60.0218 F2000
G01 X62.7576 Y63.5000
G01 X63.1082 Y66.9782
G01 X64.1123 Y70.2126
G01 X65.7014 Y73.1404
G01 X67.8073 Y75.6927
G01 X70.3596 Y77.7986
G01 X73.2874 Y79.3878
G01 X76.5217 Y80.3921
G01 X80.0000 Y80.7424
G01 X83.4783 Y80.3921
G01 X86.7126 Y79.3878
G01 X89.6406 Y77.7989
G01 X92.1927 Y75.6927
G01 X94.2986 Y73.1404
G01 X95.8878 Y70.2126
G01 X96.8918 Y66.9782
G01 X97.2424 Y63.5000
G01 X96.8918 Y60.0218
G01 X95.8878 Y56.7874
G01 X94.2986 Y53.8596
G01 X92.1927 Y51.3073
G01 X89.6406 Y49.2011
G01 X86.7126 Y47.6123
G01 X83.4783 Y46.6079
G01 X80.0000 Y46.2576
G01 X76.5217 Y46.6079
G01 X73.2874 Y47.6123
G01 X70.3596 Y49.2014
G01 X67.8073 Y51.3073
G01 X65.7014 Y53.8596
G01 X64.1123 Y56.7874
G01 Z-2.0000 F300
G01 X63.1082 Y60.0218 F2000
G01 X62.7576 Y63.5000
G01 X63.1082 Y66.9782
G01 X64.1123 Y70.2126
G01 X65.7014 Y73.1404
G01 X67.8073 Y75.6927
G01 X70.3596 Y77.7986
G01 X73.2874 Y79.3878
G01 X76.5217 Y80.3921
G01 X80.0000 Y80.7424
G01 X83.4783 Y80.3921
G01 X86.7126 Y79.3878
G01 X89.6406 Y77.7989
G01 X92.1927 Y75.6927
G01 X94.2986 Y73.1404
G01 X95.8878 Y70.2126
G01 X96.8918 Y66.9782
G01 X97.2424 Y63.5000
G01 X96.8918 Y60.0218
G01 X95.8878 Y56.7874
G01 X94.2986 Y53.8596
G01 X92.1927 Y51.3073
G01 X89.6406 Y49.2011
G01 X86.7126 Y47.6123
G01 X83.4783 Y46.6079
G01 X80.0000 Y46.2576
G01 X76.5217 Y46.6079
G01 X73.2874 Y47.6123
G01 X70.3596 Y49.2014
G01 X67.8073 Y51.3073
G01 X65.7014 Y53.8596
G01 X64.1123 Y56.7874
G01 Z-3.0000 F300
G01 X63.1082 Y60.0218 F2000
G01 X62.7576 Y63.5000
G01 X63.1082 Y66.9782
G01 X64.1123 Y70.2126
G01 X65.7014 Y73.1404
G01 X67.8073 Y75.6927
G01 X70.3596 Y77.7986
G01 X73.2874 Y79.3878
G01 X76.5217 Y80.3921
G01 X80.0000 Y80.7424
G01 X83.4783 Y80.3921
G01 X86.7126 Y79.3878
G01 X89.6406 Y77.7989
G01 X92.1927 Y75.6927
G01 X94.2986 Y73.1404
G01 X95.8878 Y70.2126
G01 X96.8918 Y66.9782
G01 X97.2424 Y63.5000
G01 X96.8918 Y60.0218
G01 X95.8878 Y56.7874
G01 X94.2986 Y53.8596
G01 X92.1927 Y51.3073
G01 X89.6406 Y49.2011
G01 X86.7126 Y47.6123
G01 X83.4783 Y46.6079
G01 X80.0000 Y46.2576
G01 X76.5217 Y46.6079
G01 X73.2874 Y47.6123
G01 X70.3596 Y49.2014
G01 X67.8073 Y51.3073
G01 X65.7014 Y53.8596
G01 X64.1123 Y56.7874
G00 Z5.0000

(Nr. 11 Ausschnitt 3)
G00 X103.1082 Y60.0218
G00 Z0.5000
G01 Z-1.0000 F300
G01 X102.7576 Y63.5000 F2000
G01 X103.1082 Y66.9782
G01 X104.1123 Y70.2126
G01 X105.7014 Y73.1404
G01 X107.8073 Y75.6927
G01 X110.3596 Y77.7986
G01 X113.2874 Y79.3878
G01 X116.5217 Y80.3921
G01 X120.0000 Y80.7424
G01 X123.4783 Y80.3921
G01 X126.7126 Y79.3878
G01 X129.6404 Y77.7986
G01 X132.1927 Y75.6927
G01 X134.2986 Y73.1404
G01 X135.8878 Y70.2126
G01 X136.8918 Y66.9782
G01 X137.2424 Y63.5000
G01 X136.8918 Y60.0218
G01 X135.8878 Y56.7874
G01 X134.2986 Y53.8596
G01 X132.1927 Y51.3073
G01 X129.6404 Y49.2014
G01 X126.7126 Y47.6123
G01 X123.4783 Y46.6079
G01 X120.0000 Y46.2576
G01 X116.5217 Y46.6079
G01 X113.2874 Y47.6123
G01 X110.3596 Y49.2014
G01 X107.8073 Y51.3073
G01 X105.7014 Y53.8596
G01 X104.1123 Y56.7874
G01 X103.1082 Y60.0218
G01 Z-2.0000 F300
G01 X102.7576 Y63.5000 F2000
G01 X103.1082 Y66.9782
G01 X104.1123 Y70.2126
G01 X105.7014 Y73.1404
G01 X107.8073 Y75.6927
G01 X110.3596 Y77.7986
G01 X113.2874 Y79.3878
G01 X116.5217 Y80.3921
G01 X120.0000 Y80.7424
G01 X123.4783 Y80.3921
G01 X126.7126 Y79.3878
G01 X129.6404 Y77.7986
G01 X132.1927 Y75.6927
G01 X134.2986 Y73.1404
G01 X135.8878 Y70.2126
G01 X136.8918 Y66.9782
G01 X137.2424 Y63.5000
G01 X136.8918 Y60.0218
G01 X135.8878 Y56.7874
G01 X134.2986 Y53.8596
G01 X132.1927 Y51.3073
G01 X129.6404 Y49.2014
G01 X126.7126 Y47.6123
G01 X123.4783 Y46.6079
G01 X120.0000 Y46.2576
G01 X116.5217 Y46.6079
G01 X113.2874 Y47.6123
G01 X110.3596 Y49.2014
G01 X107.8073 Y51.3073
G01 X105.7014 Y53.8596
G01 X104.1123 Y56.7874
G01 X103.1082 Y60.0218
G01 Z-3.0000 F300
G01 X102.7576 Y63.5000 F2000
G01 X103.1082 Y66.9782
G01 X104.1123 Y70.2126
G01 X105.7014 Y73.1404
G01 X107.8073 Y75.6927
G01 X110.3596 Y77.7986
G01 X113.2874 Y79.3878
G01 X116.5217 Y80.3921
G01 X120.0000 Y80.7424
G01 X123.4783 Y80.3921
G01 X126.7126 Y79.3878
G01 X129.6404 Y77.7986
G01 X132.1927 Y75.6927
G01 X134.2986 Y73.1404
G01 X135.8878 Y70.2126
G01 X136.8918 Y66.9782
G01 X137.2424 Y63.5000
G01 X136.8918 Y60.0218
G01 X135.8878 Y56.7874
G01 X134.2986 Y53.8596
G01 X132.1927 Y51.3073
G01 X129.6404 Y49.2014
G01 X126.7126 Y47.6123
G01 X123.4783 Y46.6079
G01 X120.0000 Y46.2576
G01 X116.5217 Y46.6079
G01 X113.2874 Y47.6123
G01 X110.3596 Y49.2014
G01 X107.8073 Y51.3073
G01 X105.7014 Y53.8596
G01 X104.1123 Y56.7874
G01 X103.1082 Y60.0218
G00 Z5.0000

(Nr. 12 Ausschnitt 4)
G00 X142.7576 Y63.5000
G00 Z0.5000
G01 Z-1.0000 F300
G01 X143.1082 Y66.9782 F2000
G01 X144.1122 Y70.2126
G01 X145.7014 Y73.1404
G01 X147.8073 Y75.6927
G01 X150.3596 Y77.7986
G01 X153.2873 Y79.3881
G01 X156.5218 Y80.3918
G01 X160.0000 Y80.7424
G01 X163.4782 Y80.3918
G01 X166.7126 Y79.3878
G01 X169.6404 Y77.7986
G01 X172.1927 Y75.6927
G01 X174.2986 Y73.1404
G01 X175.8878 Y70.2126
G01 X176.8918 Y66.9782
G01 X177.2424 Y63.5000
G01 X176.8918 Y60.0218
G01 X175.8878 Y56.7874
G01 X174.2986 Y53.8596
G01 X172.1927 Y51.3073
G01 X169.6404 Y49.2014
G01 X166.7126 Y47.6123
G01 X163.4782 Y46.6082
G01 X160.0000 Y46.2576
G01 X156.5218 Y46.6082
G01 X153.2874 Y47.6123
G01 X150.3596 Y49.2014
G01 X147.8073 Y51.3073
G01 X145.7014 Y53.8596
G01 X144.1122 Y56.7874
G01 X143.1082 Y60.0218
G01 X142.7576 Y63.5000
G01 Z-2.0000 F300
G01 X143.1082 Y66.9782 F2000
G01 X144.1122 Y70.2126
G01 X145.7014 Y73.1404
G01 X147.8073 Y75.6927
G01 X150.3596 Y77.7986
G01 X153.2873 Y79.3881
G01 X156.5218 Y80.3918
G01 X160.0000 Y80.7424
G01 X163.4782 Y80.3918
G01 X166.7126 Y79.3878
G01 X169.6404 Y77.7986
G01 X172.1927 Y75.6927
G01 X174.2986 Y73.1404
G01 X175.8878 Y70.2126
G01 X176.8918 Y66.9782
G01 X177.2424 Y63.5000
G01 X176.8918 Y60.0218
G01 X175.8878 Y56.7874
G01 X174.2986 Y53.8596
G01 X172.1927 Y51.3073
G01 X169.6404 Y49.2014
G01 X166.7126 Y47.6123
G01 X163.4782 Y46.6082
G01 X160.0000 Y46.2576
G01 X156.5218 Y46.6082
G01 X153.2874 Y47.6123
G01 X150.3596 Y49.2014
G01 X147.8073 Y51.3073
G01 X145.7014 Y53.8596
G01 X144.1122 Y56.7874
G01 X143.1082 Y60.0218
G01 X142.7576 Y63.5000
G01 Z-3.0000 F300
G01 X143.1082 Y66.9782 F2000
G01 X144.1122 Y70.2126
G01 X145.7014 Y73.1404
G01 X147.8073 Y75.6927
G01 X150.3596 Y77.7986
G01 X153.2873 Y79.3881
G01 X156.5218 Y80.3918
G01 X160.0000 Y80.7424
G01 X163.4782 Y80.3918
G01 X166.7126 Y79.3878
G01 X169.6404 Y77.7986
G01 X172.1927 Y75.6927
G01 X174.2986 Y73.1404
G01 X175.8878 Y70.2126
G01 X176.8918 Y66.9782
G01 X177.2424 Y63.5000
G01 X176.8918 Y60.0218
G01 X175.8878 Y56.7874
G01 X174.2986 Y53.8596
G01 X172.1927 Y51.3073
G01 X169.6404 Y49.2014
G01 X166.7126 Y47.6123
G01 X163.4782 Y46.6082
G01 X160.0000 Y46.2576
G01 X156.5218 Y46.6082
G01 X153.2874 Y47.6123
G01 X150.3596 Y49.2014
G01 X147.8073 Y51.3073
G01 X145.7014 Y53.8596
G01 X144.1122 Y56.7874
G01 X143.1082 Y60.0218
G01 X142.7576 Y63.5000
G00 Z5.0000

(Nr. 13 Ausschnitt 5)
G00 X182.7576
G00 Z0.5000
G01 Z-1.0000 F300
G01 X183.1082 Y66.9782 F2000
G01 X184.1122 Y70.2126
G01 X185.7014 Y73.1404
G01 X187.8073 Y75.6927
G01 X190.3596 Y77.7986
G01 X193.2874 Y79.3878
G01 X196.5218 Y80.3918
G01 X200.0000 Y80.7424
G01 X203.4782 Y80.3918
G01 X206.7126 Y79.3878
G01 X209.6404 Y77.7986
G01 X212.1927 Y75.6927
G01 X214.2986 Y73.1404
G01 X215.8878 Y70.2126
G01 X216.8918 Y66.9782
G01 X217.2424 Y63.5000
G01 X216.8918 Y60.0218
G01 X215.8878 Y56.7874
G01 X214.2986 Y53.8596
G01 X212.1927 Y51.3073
G01 X209.6404 Y49.2014
G01 X206.7126 Y47.6123
G01 X203.4782 Y46.6082
G01 X200.0000 Y46.2576
G01 X196.5218 Y46.6082
G01 X193.2874 Y47.6123
G01 X190.3596 Y49.2014
G01 X187.8073 Y51.3073
G01 X185.7014 Y53.8596
G01 X184.1122 Y56.7874
G01 X183.1082 Y60.0218
G01 X182.7576 Y63.5000
G01 Z-2.0000 F300
G01 X183.1082 Y66.9782 F2000
G01 X184.1122 Y70.2126
G01 X185.7014 Y73.1404
G01 X187.8073 Y75.6927
G01 X190.3596 Y77.7986
G01 X193.2874 Y79.3878
G01 X196.5218 Y80.3918
G01 X200.0000 Y80.7424
G01 X203.4782 Y80.3918
G01 X206.7126 Y79.3878
G01 X209.6404 Y77.7986
G01 X212.1927 Y75.6927
G01 X214.2986 Y73.1404
G01 X215.8878 Y70.2126
G01 X216.8918 Y66.9782
G01 X217.2424 Y63.5000
G01 X216.8918 Y60.0218
G01 X215.8878 Y56.7874
G01 X214.2986 Y53.8596
G01 X212.1927 Y51.3073
G01 X209.6404 Y49.2014
G01 X206.7126 Y47.6123
G01 X203.4782 Y46.6082
G01 X200.0000 Y46.2576
G01 X196.5218 Y46.6082
G01 X193.2874 Y47.6123
G01 X190.3596 Y49.2014
G01 X187.8073 Y51.3073
G01 X185.7014 Y53.8596
G01 X184.1122 Y56.7874
G01 X183.1082 Y60.0218
G01 X182.7576 Y63.5000
G01 Z-3.0000 F300
G01 X183.1082 Y66.9782 F2000
G01 X184.1122 Y70.2126
G01 X185.7014 Y73.1404
G01 X187.8073 Y75.6927
G01 X190.3596 Y77.7986
G01 X193.2874 Y79.3878
G01 X196.5218 Y80.3918
G01 X200.0000 Y80.7424
G01 X203.4782 Y80.3918
G01 X206.7126 Y79.3878
G01 X209.6404 Y77.7986
G01 X212.1927 Y75.6927
G01 X214.2986 Y73.1404
G01 X215.8878 Y70.2126
G01 X216.8918 Y66.9782
G01 X217.2424 Y63.5000
G01 X216.8918 Y60.0218
G01 X215.8878 Y56.7874
G01 X214.2986 Y53.8596
G01 X212.1927 Y51.3073
G01 X209.6404 Y49.2014
G01 X206.7126 Y47.6123
G01 X203.4782 Y46.6082
G01 X200.0000 Y46.2576
G01 X196.5218 Y46.6082
G01 X193.2874 Y47.6123
G01 X190.3596 Y49.2014
G01 X187.8073 Y51.3073
G01 X185.7014 Y53.8596
G01 X184.1122 Y56.7874
G01 X183.1082 Y60.0218
G01 X182.7576 Y63.5000
G00 Z5.0000

(Nr. 14 Ausschnitt 6)
G00 X222.7576
G00 Z0.5000
G01 Z-1.0000 F300
G01 X223.1082 Y66.9782 F2000
G01 X224.1122 Y70.2126
G01 X225.7014 Y73.1404
G01 X227.8073 Y75.6927
G01 X230.3596 Y77.7986
G01 X233.2874 Y79.3878
G01 X236.5218 Y80.3918
G01 X240.0000 Y80.7424
G01 X243.4782 Y80.3918
G01 X246.7126 Y79.3878
G01 X249.6404 Y77.7986
G01 X252.1927 Y75.6927
G01 X254.2986 Y73.1404
G01 X255.8878 Y70.2126
G01 X256.8918 Y66.9782
G01 X257.2424 Y63.5000
G01 X256.8918 Y60.0218
G01 X255.8878 Y56.7874
G01 X254.2986 Y53.8596
G01 X252.1927 Y51.3073
G01 X249.6404 Y49.2014
G01 X246.7126 Y47.6123
G01 X243.4782 Y46.6082
G01 X240.0000 Y46.2576
G01 X236.5218 Y46.6082
G01 X233.2874 Y47.6123
G01 X230.3596 Y49.2014
G01 X227.8073 Y51.3073
G01 X225.7014 Y53.8596
G01 X224.1122 Y56.7874
G01 X223.1082 Y60.0218
G01 X222.7576 Y63.5000
G01 Z-2.0000 F300
G01 X223.1082 Y66.9782 F2000
G01 X224.1122 Y70.2126
G01 X225.7014 Y73.1404
G01 X227.8073 Y75.6927
G01 X230.3596 Y77.7986
G01 X233.2874 Y79.3878
G01 X236.5218 Y80.3918
G01 X240.0000 Y80.7424
G01 X243.4782 Y80.3918
G01 X246.7126 Y79.3878
G01 X249.6404 Y77.7986
G01 X252.1927 Y75.6927
G01 X254.2986 Y73.1404
G01 X255.8878 Y70.2126
G01 X256.8918 Y66.9782
G01 X257.2424 Y63.5000
G01 X256.8918 Y60.0218
G01 X255.8878 Y56.7874
G01 X254.2986 Y53.8596
G01 X252.1927 Y51.3073
G01 X249.6404 Y49.2014
G01 X246.7126 Y47.6123
G01 X243.4782 Y46.6082
G01 X240.0000 Y46.2576
G01 X236.5218 Y46.6082
G01 X233.2874 Y47.6123
G01 X230.3596 Y49.2014
G01 X227.8073 Y51.3073
G01 X225.7014 Y53.8596
G01 X224.1122 Y56.7874
G01 X223.1082 Y60.0218
G01 X222.7576 Y63.5000
G01 Z-3.0000 F300
G01 X223.1082 Y66.9782 F2000
G01 X224.1122 Y70.2126
G01 X225.7014 Y73.1404
G01 X227.8073 Y75.6927
G01 X230.3596 Y77.7986
G01 X233.2874 Y79.3878
G01 X236.5218 Y80.3918
G01 X240.0000 Y80.7424
G01 X243.4782 Y80.3918
G01 X246.7126 Y79.3878
G01 X249.6404 Y77.7986
G01 X252.1927 Y75.6927
G01 X254.2986 Y73.1404
G01 X255.8878 Y70.2126
G01 X256.8918 Y66.9782
G01 X257.2424 Y63.5000
G01 X256.8918 Y60.0218
G01 X255.8878 Y56.7874
G01 X254.2986 Y53.8596
G01 X252.1927 Y51.3073
G01 X249.6404 Y49.2014
G01 X246.7126 Y47.6123
G01 X243.4782 Y46.6082
G01 X240.0000 Y46.2576
G01 X236.5218 Y46.6082
G01 X233.2874 Y47.6123
G01 X230.3596 Y49.2014
G01 X227.8073 Y51.3073
G01 X225.7014 Y53.8596
G01 X224.1122 Y56.7874
G01 X223.1082 Y60.0218
G01 X222.7576 Y63.5000
G00 Z5.0000

(Nr. 15 Ausschnitt 7)
G00 X262.7576
G00 Z0.5000
G01 Z-1.0000 F300
G01 X263.1082 Y66.9782 F2000
G01 X264.1122 Y70.2126
G01 X265.7014 Y73.1404
G01 X267.8070 Y75.6930
G01 X270.3594 Y77.7989
G01 X273.2874 Y79.3878
G01 X276.5218 Y80.3918
G01 X280.0000 Y80.7424
G01 X283.4782 Y80.3918
G01 X286.7126 Y79.3878
G01 X289.6406 Y77.7989
G01 X292.1930 Y75.6930
G01 X294.2989 Y73.1406
G01 X295.8878 Y70.2126
G01 X296.8918 Y66.9782
G01 X297.2424 Y63.5000
G01 X296.8918 Y60.0218
G01 X295.8878 Y56.7874
G01 X294.2989 Y53.8594
G01 X292.1930 Y51.3070
G01 X289.6406 Y49.2011
G01 X286.7126 Y47.6123
G01 X283.4782 Y46.6082
G01 X280.0000 Y46.2576
G01 X276.5218 Y46.6082
G01 X273.2874 Y47.6123
G01 X270.3594 Y49.2011
G01 X267.8070 Y51.3070
G01 X265.7014 Y53.8596
G01 X264.1122 Y56.7874
G01 X263.1082 Y60.0218
G01 X262.7576 Y63.5000
G01 Z-2.0000 F300
G01 X263.1082 Y66.9782 F2000
G01 X264.1122 Y70.2126
G01 X265.7014 Y73.1404
G01 X267.8070 Y75.6930
G01 X270.3594 Y77.7989
G01 X273.2874 Y79.3878
G01 X276.5218 Y80.3918
G01 X280.0000 Y80.7424
G01 X283.4782 Y80.3918
G01 X286.7126 Y79.3878
G01 X289.6406 Y77.7989
G01 X292.1930 Y75.6930
G01 X294.2989 Y73.1406
G01 X295.8878 Y70.2126
G01 X296.8918 Y66.9782
G01 X297.2424 Y63.5000
G01 X296.8918 Y60.0218
G01 X295.8878 Y56.7874
G01 X294.2989 Y53.8594
G01 X292.1930 Y51.3070
G01 X289.6406 Y49.2011
G01 X286.7126 Y47.6123
G01 X283.4782 Y46.6082
G01 X280.0000 Y46.2576
G01 X276.5218 Y46.6082
G01 X273.2874 Y47.6123
G01 X270.3594 Y49.2011
G01 X267.8070 Y51.3070
G01 X265.7014 Y53.8596
G01 X264.1122 Y56.7874
G01 X263.1082 Y60.0218
G01 X262.7576 Y63.5000
G01 Z-3.0000 F300
G01 X263.1082 Y66.9782 F2000
G01 X264.1122 Y70.2126
G01 X265.7014 Y73.1404
G01 X267.8070 Y75.6930
G01 X270.3594 Y77.7989
G01 X273.2874 Y79.3878
G01 X276.5218 Y80.3918
G01 X280.0000 Y80.7424
G01 X283.4782 Y80.3918
G01 X286.7126 Y79.3878
G01 X289.6406 Y77.7989
G01 X292.1930 Y75.6930
G01 X294.2989 Y73.1406
G01 X295.8878 Y70.2126
G01 X296.8918 Y66.9782
G01 X297.2424 Y63.5000
G01 X296.8918 Y60.0218
G01 X295.8878 Y56.7874
G01 X294.2989 Y53.8594
G01 X292.1930 Y51.3070
G01 X289.6406 Y49.2011
G01 X286.7126 Y47.6123
G01 X283.4782 Y46.6082
G01 X280.0000 Y46.2576
G01 X276.5218 Y46.6082
G01 X273.2874 Y47.6123
G01 X270.3594 Y49.2011
G01 X267.8070 Y51.3070
G01 X265.7014 Y53.8596
G01 X264.1122 Y56.7874
G01 X263.1082 Y60.0218
G01 X262.7576 Y63.5000
G00 Z5.0000

(Nr. 16 Teil 2)
G00 X320.0000 Y21.5000
G00 Z0.5000
G01 Z-1.0000 F300
G03 X321.5000 Y23.0000 I0.0000 J1.5000 F2000
G01 Y104.0000
G03 X320.0000 Y105.5000 I-1.5000 J0.0000
G01 X0.0000
G03 X-1.5000 Y104.0000 I0.0000 J-1.5000
G01 Y23.0000
G03 X0.0000 Y21.5000 I1.5000 J0.0000
G01 X320.0000
G01 Z-2.0000 F300
G03 X321.5000 Y23.0000 I0.0000 J1.5000 F2000
G01 Y104.0000
G03 X320.0000 Y105.5000 I-1.5000 J0.0000
G01 X0.0000
G03 X-1.5000 Y104.0000 I0.0000 J-1.5000
G01 Y23.0000
G03 X0.0000 Y21.5000 I1.5000 J0.0000
G01 X320.0000
G01 Z-3.0000 F300
G03 X321.5000 Y23.0000 I0.0000 J1.5000 F2000
G01 Y104.0000
G03 X320.0000 Y105.5000 I-1.5000 J0.0000
G01 X0.0000
G03 X-1.5000 Y104.0000 I0.0000 J-1.5000
G01 Y23.0000
G03 X0.0000 Y21.5000 I1.5000 J0.0000
G01 X320.0000
G00 Z5.0000

(Nr. 17 Teil 3)
G00 Y14.5000
G00 Z0.5000
G01 Z-1.0000 F300
G01 X0.0000 F2000
G03 X-1.5000 Y13.0000 I0.0000 J-1.5000
G01 Y3.0000
G03 X0.0000 Y1.5000 I1.5000 J0.0000
G01 X8.4999
G01 X8.9392 Y1.9393
G01 X8.4999 Y1.5000
G01 X8.5000 Y-0.0001
G03 X9.9477 Y-1.4991 I1.5000 J0.0001
G01 X70.0000 Y-1.5000
G03 X71.5000 Y0.0000 I0.0000 J1.5000
G01 Y1.5000
G01 X71.0607 Y1.9393
G01 X71.5000 Y1.5000
G01 X88.5001
G01 X88.9395 Y1.9394
G01 X88.5001 Y1.5000
G01 X88.5000 Y0.0001
G03 X89.9477 Y-1.4991 I1.5000 J-0.0001
G01 X150.0000 Y-1.5000
G03 X151.5000 Y0.0000 I0.0000 J1.5000
G01 Y1.5000
G01 X151.0607 Y1.9393
G01 X151.5000 Y1.5000
G01 X168.4999
G01 X168.9391 Y1.9393
G01 X168.4999 Y1.5000
G01 X168.5000 Y-0.0001
G03 X170.0000 Y-1.5000 I1.5000 J0.0001
G01 X230.0000
G03 X231.4991 Y-0.0523 I0.0000 J1.5000
G01 X231.5000 Y1.5000
G01 X231.0606 Y1.9394
G01 X231.5000 Y1.5000
G01 X248.5000
G01 X248.9394 Y1.9393
G01 X248.5000 Y1.5000
G01 Y0.0000
G03 X250.0000 Y-1.5000 I1.5000 J0.0000
G01 X310.0000
G03 X311.5000 Y-0.0001 I0.0000 J1.5000
G01 X311.5001 Y1.5000
G01 X311.0608 Y1.9393
G01 X311.5001 Y1.5000
G01 X320.0000
G03 X321.5000 Y3.0000 I0.0000 J1.5000
G01 Y13.0000
G03 X320.0000 Y14.5000 I-1.5000 J0.0000
G01 Z-2.0000 F300
G01 X0.0000 F2000
G03 X-1.5000 Y13.0000 I0.0000 J-1.5000
G01 Y3.0000
G03 X0.0000 Y1.5000 I1.5000 J0.0000
G01 X8.4999
G01 X8.9392 Y1.9393
G01 X8.4999 Y1.5000
G01 X8.5000 Y-0.0001
G03 X9.9477 Y-1.4991 I1.5000 J0.0001
G01 X70.0000 Y-1.5000
G03 X71.5000 Y0.0000 I0.0000 J1.5000
G01 Y1.5000
G01 X71.0607 Y1.9393
G01 X71.5000 Y1.5000
G01 X88.5001
G01 X88.9395 Y1.9394
G01 X88.5001 Y1.5000
G01 X88.5000 Y0.0001
G03 X89.9477 Y-1.4991 I1.5000 J-0.0001
G01 X150.0000 Y-1.5000
G03 X151.5000 Y0.0000 I0.0000 J1.5000
G01 Y1.5000
G01 X151.0607 Y1.9393
G01 X151.5000 Y1.5000
G01 X168.4999
G01 X168.9391 Y1.9393
G01 X168.4999 Y1.5000
G01 X168.5000 Y-0.0001
G03 X170.0000 Y-1.5000 I1.5000 J0.0001
G01 X230.0000
G03 X231.4991 Y-0.0523 I0.0000 J1.5000
G01 X231.5000 Y1.5000
G01 X231.0606 Y1.9394
G01 X231.5000 Y1.5000
G01 X248.5000
G01 X248.9394 Y1.9393
G01 X248.5000 Y1.5000
G01 Y0.0000
G03 X250.0000 Y-1.5000 I1.5000 J0.0000
G01 X310.0000
G03 X311.5000 Y-0.0001 I0.0000 J1.5000
G01 X311.5001 Y1.5000
G01 X311.0608 Y1.9393
G01 X311.5001 Y1.5000
G01 X320.0000
G03 X321.5000 Y3.0000 I0.0000 J1.5000
G01 Y13.0000
G03 X320.0000 Y14.5000 I-1.5000 J0.0000
G01 Z-3.0000 F300
G01 X0.0000 F2000
G03 X-1.5000 Y13.0000 I0.0000 J-1.5000
G01 Y3.0000
G03 X0.0000 Y1.5000 I1.5000 J0.0000
G01 X8.4999
G01 X8.9392 Y1.9393
G01 X8.4999 Y1.5000
G01 X8.5000 Y-0.0001
G03 X9.9477 Y-1.4991 I1.5000 J0.0001
G01 X70.0000 Y-1.5000
G03 X71.5000 Y0.0000 I0.0000 J1.5000
G01 Y1.5000
G01 X71.0607 Y1.9393
G01 X71.5000 Y1.5000
G01 X88.5001
G01 X88.9395 Y1.9394
G01 X88.5001 Y1.5000
G01 X88.5000 Y0.0001
G03 X89.9477 Y-1.4991 I1.5000 J-0.0001
G01 X150.0000 Y-1.5000
G03 X151.5000 Y0.0000 I0.0000 J1.5000
G01 Y1.5000
G01 X151.0607 Y1.9393
G01 X151.5000 Y1.5000
G01 X168.4999
G01 X168.9391 Y1.9393
G01 X168.4999 Y1.5000
G01 X168.5000 Y-0.0001
G03 X170.0000 Y-1.5000 I1.5000 J0.0001
G01 X230.0000
G03 X231.4991 Y-0.0523 I0.0000 J1.5000
G01 X231.5000 Y1.5000
G01 X231.0606 Y1.9394
G01 X231.5000 Y1.5000
G01 X248.5000
G01 X248.9394 Y1.9393
G01 X248.5000 Y1.5000
G01 Y0.0000
G03 X250.0000 Y-1.5000 I1.5000 J0.0000
G01 X310.0000
G03 X311.5000 Y-0.0001 I0.0000 J1.5000
G01 X311.5001 Y1.5000
G01 X311.0608 Y1.9393
G01 X311.5001 Y1.5000
G01 X320.0000
G03 X321.5000 Y3.0000 I0.0000 J1.5000
G01 Y13.0000
G03 X320.0000 Y14.5000 I-1.5000 J0.0000
G00 Z5.0000

(Nr. 18 Teil 1)
G00 Y112.5000
G00 Z0.5000
G01 Z-1.0000 F300
G03 X321.5000 Y114.0000 I0.0000 J1.5000 F2000
G01 Y124.0000
G03 X320.0000 Y125.5000 I-1.5000 J0.0000
G01 X311.5001
G01 X311.0608 Y125.0607
G01 X311.5001 Y125.5000
G01 X311.5000 Y127.0001
G03 X310.0000 Y128.5000 I-1.5000 J-0.0001
G01 X250.0000
G03 X248.5000 Y127.0000 I0.0000 J-1.5000
G01 Y125.5000
G01 X248.9394 Y125.0607
G01 X248.5000 Y125.5000
G01 X231.5000
G01 X231.0606 Y125.0606
G01 X231.5000 Y125.5000
G01 Y127.0000
G03 X230.0524 Y128.4991 I-1.5000 J0.0000
G01 X170.0000 Y128.5000
G03 X168.5009 Y127.0525 I0.0000 J-1.5000
G01 X168.4999 Y125.5000
G01 X168.9391 Y125.0607
G01 X168.4999 Y125.5000
G01 X151.5000
G01 X151.0607 Y125.0607
G01 X151.5000 Y125.5000
G01 Y127.0000
G03 X150.0000 Y128.5000 I-1.5000 J0.0000
G01 X90.0000
G03 X88.5009 Y127.0522 I0.0000 J-1.5000
G01 X88.5001 Y125.5000
G01 X88.9395 Y125.0606
G01 X88.5001 Y125.5000
G01 X71.5000
G01 X71.0607 Y125.0607
G01 X71.5000 Y125.5000
G01 Y127.0000
G03 X70.0000 Y128.5000 I-1.5000 J0.0000
G01 X10.0000
G03 X8.5009 Y127.0524 I0.0000 J-1.5000
G01 X8.4999 Y125.5000
G01 X8.9392 Y125.0607
G01 X8.4999 Y125.5000
G01 X0.0000
G03 X-1.5000 Y124.0000 I0.0000 J-1.5000
G01 Y114.0000
G03 X0.0000 Y112.5000 I1.5000 J0.0000
G01 X320.0000
G01 Z-2.0000 F300
G03 X321.5000 Y114.0000 I0.0000 J1.5000 F2000
G01 Y124.0000
G03 X320.0000 Y125.5000 I-1.5000 J0.0000
G01 X311.5001
G01 X311.0608 Y125.0607
G01 X311.5001 Y125.5000
G01 X311.5000 Y127.0001
G03 X310.0000 Y128.5000 I-1.5000 J-0.0001
G01 X250.0000
G03 X248.5000 Y127.0000 I0.0000 J-1.5000
G01 Y125.5000
G01 X248.9394 Y125.0607
G01 X248.5000 Y125.5000
G01 X231.5000
G01 X231.0606 Y125.0606
G01 X231.5000 Y125.5000
G01 Y127.0000
G03 X230.0524 Y128.4991 I-1.5000 J0.0000
G01 X170.0000 Y128.5000
G03 X168.5009 Y127.0525 I0.0000 J-1.5000
G01 X168.4999 Y125.5000
G01 X168.9391 Y125.0607
G01 X168.4999 Y125.5000
G01 X151.5000
G01 X151.0607 Y125.0607
G01 X151.5000 Y125.5000
G01 Y127.0000
G03 X150.0000 Y128.5000 I-1.5000 J0.0000
G01 X90.0000
G03 X88.5009 Y127.0522 I0.0000 J-1.5000
G01 X88.5001 Y125.5000
G01 X88.9395 Y125.0606
G01 X88.5001 Y125.5000
G01 X71.5000
G01 X71.0607 Y125.0607
G01 X71.5000 Y125.5000
G01 Y127.0000
G03 X70.0000 Y128.5000 I-1.5000 J0.0000
G01 X10.0000
G03 X8.5009 Y127.0524 I0.0000 J-1.5000
G01 X8.4999 Y125.5000
G01 X8.9392 Y125.0607
G01 X8.4999 Y125.5000
G01 X0.0000
G03 X-1.5000 Y124.0000 I0.0000 J-1.5000
G01 Y114.0000
G03 X0.0000 Y112.5000 I1.5000 J0.0000
G01 X320.0000
G01 Z-3.0000 F300
G03 X321.5000 Y114.0000 I0.0000 J1.5000 F2000
G01 Y124.0000
G03 X320.0000 Y125.5000 I-1.5000 J0.0000
G01 X311.5001
G01 X311.0608 Y125.0607
G01 X311.5001 Y125.5000
G01 X311.5000 Y127.0001
G03 X310.0000 Y128.5000 I-1.5000 J-0.0001
G01 X250.0000
G03 X248.5000 Y127.0000 I0.0000 J-1.5000
G01 Y125.5000
G01 X248.9394 Y125.0607
G01 X248.5000 Y125.5000
G01 X231.5000
G01 X231.0606 Y125.0606
G01 X231.5000 Y125.5000
G01 Y127.0000
G03 X230.0524 Y128.4991 I-1.5000 J0.0000
G01 X170.0000 Y128.5000
G03 X168.5009 Y127.0525 I0.0000 J-1.5000
G01 X168.4999 Y125.5000
G01 X168.9391 Y125.0607
G01 X168.4999 Y125.5000
G01 X151.5000
G01 X151.0607 Y125.0607
G01 X151.5000 Y125.5000
G01 Y127.0000
G03 X150.0000 Y128.5000 I-1.5000 J0.0000
G01 X90.0000
G03 X88.5009 Y127.0522 I0.0000 J-1.5000
G01 X88.5001 Y125.5000
G01 X88.9395 Y125.0606
G01 X88.5001 Y125.5000
G01 X71.5000
G01 X71.0607 Y125.0607
G01 X71.5000 Y125.5000
G01 Y127.0000
G03 X70.0000 Y128.5000 I-1.5000 J0.0000
G01 X10.0000
G03 X8.5009 Y127.0524 I0.0000 J-1.5000
G01 X8.4999 Y125.5000
G01 X8.9392 Y125.0607
G01 X8.4999 Y125.5000
G01 X0.0000
G03 X-1.5000 Y124.0000 I0.0000 J-1.5000
G01 Y114.0000
G03 X0.0000 Y112.5000 I1.5000 J0.0000
G01 X320.0000
G00 Z5.0000
G00 X0.0000 Y0.0000

M05
M30
