(Projekt stromversorgung)
(Erstellt mit Estlcam 2.5D Version 7 Build 7,101)
(Fraesrichtung: Gegenlauf)
(Nullpunkt: Auf Teileoberseite)
(Maximale Fraestiefe: 3,00mm)
(Verwendete Werkzeuge:)
(Fraeser 3 mm)

G90
M03
G00 Z5.0000

(Nr. 1 Ausschnitt 3)
G00 X12.2444 Y16.0000
G00 Z0.5000
G01 Z-1.0000 F300 S24000
G01 X45.2556 F2000
G00 Z0.0000
G01 X49.7556
G01 Z-1.0000 F300
G01 X82.7669 F2000
G00 Z0.0000
G01 X87.2669
G01 Z-1.0000 F300
G01 X120.2782 F2000
G00 Z0.0000
G01 X124.7782
G01 Z-1.0000 F300
G01 X157.7895 F2000
G00 Z0.0000
G01 X159.9246
G01 X161.2109 Y15.8703
G01 X162.2348 Y15.5525
G01 Z-1.0000 F300
G01 X162.3336 Y15.5218 F2000
G01 X163.3504 Y14.9699
G01 X164.2380 Y14.2380
G01 X164.9699 Y13.3504
G01 X165.5218 Y12.3336
G01 X165.8703 Y11.2109
G01 X165.9928 Y10.0000
G01 X165.8703 Y8.7891
G01 X165.5218 Y7.6664
G01 X164.9699 Y6.6496
G01 X164.2378 Y5.7622
G01 X163.3504 Y5.0301
G01 X162.3337 Y4.4778
G01 X161.2109 Y4.1297
G01 X159.9246 Y4.0000
G01 X143.5000
G00 Z0.0000
G01 X139.0000
G01 Z-1.0000 F300
G01 X105.9887 F2000
G00 Z0.0000
G01 X101.4887
G01 Z-1.0000 F300
G01 X68.4774 F2000
G00 Z0.0000
G01 X63.9774
G01 Z-1.0000 F300
G01 X30.9661 F2000
G00 Z0.0000
G01 X26.4662
G01 Z-1.0000 F300
G01 X10.0754 F2000
G01 X8.7891 Y4.1297
G01 X7.6663 Y4.4778
G01 X6.6496 Y5.0301
G01 X5.7622 Y5.7622
G01 X5.0301 Y6.6496
G01 X4.4778 Y7.6663
G01 X4.1293 Y8.7890
G01 X4.0076 Y10.0000
G01 X4.1297 Y11.2109
G01 X4.4782 Y12.3336
G01 X5.0301 Y13.3504
G01 X5.7622 Y14.2378
G01 X6.6496 Y14.9699
G01 X7.6664 Y15.5218
G01 X7.7976 Y15.5625
G00 Z0.0000
G01 X8.7891 Y15.8703
G01 X10.0754 Y16.0000
G01 X12.2444
G00 Z-0.5000
G01 Z-2.0000 F300
G01 X45.2556 F2000
G00 Z0.0000
G01 X49.7556
G00 Z-0.5000
G01 Z-2.0000 F300
G01 X82.7669 F2000
G00 Z0.0000
G01 X87.2669
G00 Z-0.5000
G01 Z-2.0000 F300
G01 X120.2782 F2000
G00 Z0.0000
G01 X124.7782
G00 Z-0.5000
G01 Z-2.0000 F300
G01 X157.7895 F2000
G00 Z0.0000
G01 X159.9246
G01 X161.2109 Y15.8703
G01 X162.2348 Y15.5525
G00 Z-0.5000
G01 Z-2.0000 F300
G01 X162.3336 Y15.5218 F2000
G01 X163.3504 Y14.9699
G01 X164.2380 Y14.2380
G01 X164.9699 Y13.3504
G01 X165.5218 Y12.3336
G01 X165.8703 Y11.2109
G01 X165.9928 Y10.0000
G01 X165.8703 Y8.7891
G01 X165.5218 Y7.6664
G01 X164.9699 Y6.6496
G01 X164.2378 Y5.7622
G01 X163.3504 Y5.0301
G01 X162.3337 Y4.4778
G01 X161.2109 Y4.1297
G01 X159.9246 Y4.0000
G01 X143.5000
G00 Z0.0000
G01 X139.0000
G00 Z-0.5000
G01 Z-2.0000 F300
G01 X105.9887 F2000
G00 Z0.0000
G01 X101.4887
G00 Z-0.5000
G01 Z-2.0000 F300
G01 X68.4774 F2000
G00 Z0.0000
G01 X63.9774
G00 Z-0.5000
G01 Z-2.0000 F300
G01 X30.9661 F2000
G00 Z0.0000
G01 X26.4662
G00 Z-0.5000
G01 Z-2.0000 F300
G01 X10.0754 F2000
G01 X8.7891 Y4.1297
G01 X7.6663 Y4.4778
G01 X6.6496 Y5.0301
G01 X5.7622 Y5.7622
G01 X5.0301 Y6.6496
G01 X4.4778 Y7.6663
G01 X4.1293 Y8.7890
G01 X4.0076 Y10.0000
G01 X4.1297 Y11.2109
G01 X4.4782 Y12.3336
G01 X5.0301 Y13.3504
G01 X5.7622 Y14.2378
G01 X6.6496 Y14.9699
G01 X7.6664 Y15.5218
G01 X7.7976 Y15.5625
G00 Z0.0000
G01 X8.7891 Y15.8703
G01 X10.0754 Y16.0000
G01 X12.2444
G00 Z-1.5000
G01 Z-3.0000 F300
G01 X45.2556 F2000
G00 Z0.0000
G01 X49.7556
G00 Z-1.5000
G01 Z-3.0000 F300
G01 X82.7669 F2000
G00 Z0.0000
G01 X87.2669
G00 Z-1.5000
G01 Z-3.0000 F300
G01 X120.2782 F2000
G00 Z0.0000
G01 X124.7782
G00 Z-1.5000
G01 Z-3.0000 F300
G01 X157.7895 F2000
G00 Z0.0000
G01 X159.9246
G01 X161.2109 Y15.8703
G01 X162.2348 Y15.5525
G00 Z-1.5000
G01 Z-3.0000 F300
G01 X162.3336 Y15.5218 F2000
G01 X163.3504 Y14.9699
G01 X164.2380 Y14.2380
G01 X164.9699 Y13.3504
G01 X165.5218 Y12.3336
G01 X165.8703 Y11.2109
G01 X165.9928 Y10.0000
G01 X165.8703 Y8.7891
G01 X165.5218 Y7.6664
G01 X164.9699 Y6.6496
G01 X164.2378 Y5.7622
G01 X163.3504 Y5.0301
G01 X162.3337 Y4.4778
G01 X161.2109 Y4.1297
G01 X159.9246 Y4.0000
G01 X143.5000
G00 Z0.0000
G01 X139.0000
G00 Z-1.5000
G01 Z-3.0000 F300
G01 X105.9887 F2000
G00 Z0.0000
G01 X101.4887
G00 Z-1.5000
G01 Z-3.0000 F300
G01 X68.4774 F2000
G00 Z0.0000
G01 X63.9774
G00 Z-1.5000
G01 Z-3.0000 F300
G01 X30.9661 F2000
G00 Z0.0000
G01 X26.4662
G00 Z-1.5000
G01 Z-3.0000 F300
G01 X10.0754 F2000
G01 X8.7891 Y4.1297
G01 X7.6663 Y4.4778
G01 X6.6496 Y5.0301
G01 X5.7622 Y5.7622
G01 X5.0301 Y6.6496
G01 X4.4778 Y7.6663
G01 X4.1293 Y8.7890
G01 X4.0076 Y10.0000
G01 X4.1297 Y11.2109
G01 X4.4782 Y12.3336
G01 X5.0301 Y13.3504
G01 X5.7622 Y14.2378
G01 X6.6496 Y14.9699
G01 X7.6664 Y15.5218
G01 X7.7976 Y15.5625
G00 Z0.0000
G01 X8.7891 Y15.8703
G01 X10.0754 Y16.0000
G01 X12.2444
G00 Z5.0000

(Nr. 2 Teil 5)
G00 X19.4454 Y-1.4992
G00 Z0.5000
G01 Z-1.0000 F300
G01 X56.2969 Y-1.4994 F2000
G00 Z0.0000
G01 X60.7969
G01 Z-1.0000 F300
G01 X97.6485 Y-1.4997 F2000
G00 Z0.0000
G01 X102.1485
G01 Z-1.0000 F300
G01 X139.0000 Y-1.4999 F2000
G00 Z0.0000
G01 X143.5000
G01 Z-1.0000 F300
G01 X160.0000 Y-1.5000 F2000
G01 X160.1505 Y-1.4924
G01 X162.1658 Y-1.2893
G03 X162.4600 Y-1.2294 I-0.1505 J1.4924
G01 X164.3371 Y-0.6467
G03 X164.6080 Y-0.5325 I-0.4447 J1.4326
G01 X166.3067 Y0.3895
G03 X166.5081 Y0.5208 I-0.7156 J1.3183
G01 X168.0257 Y1.7719
G03 X168.2281 Y1.9743 I-0.9546 J1.1570
G01 X169.4492 Y3.4543
G03 X169.5868 Y3.6514 I-1.1570 J0.9546
G01 X170.5325 Y5.3920
G03 X170.6467 Y5.6629 I-1.3183 J0.7156
G01 X171.2294 Y7.5400
G03 X171.2834 Y7.7844 I-1.4326 J0.4447
G01 X171.4924 Y9.8495
G03 X171.4966 Y10.1004 I-1.4924 J0.1504
G01 X171.2893 Y12.1658
G01 X171.2697 Y12.2986
G00 Z0.0000
G01 X171.2435 Y12.4119
G01 X170.6467 Y14.3371
G03 X170.5325 Y14.6080 I-1.4326 J-0.4447
G01 X169.6105 Y16.3067
G01 X169.5375 Y16.4271
G01 Z-1.0000 F300
G01 X169.4792 Y16.5081 F2000
G01 X168.2281 Y18.0257
G03 X168.0692 Y18.1908 I-1.1570 J-0.9546
G01 X166.5457 Y19.4492
G03 X166.3486 Y19.5868 I-0.9546 J-1.1570
G01 X164.6080 Y20.5325
G03 X164.3838 Y20.6314 I-0.7156 J-1.3183
G01 X162.4600 Y21.2294
G03 X162.2156 Y21.2834 I-0.4447 J-1.4326
G01 X160.1505 Y21.4924
G01 X160.0502 Y21.4992
G01 X134.3788 Y21.4993
G00 Z0.0000
G01 X129.8789
G01 Z-1.0000 F300
G01 X93.0273 Y21.4996 F2000
G00 Z0.0000
G01 X88.5273
G01 Z-1.0000 F300
G01 X51.6758 Y21.4998 F2000
G00 Z0.0000
G01 X47.1758 Y21.4999
G01 Z-1.0000 F300
G01 X28.7500 Y21.5000 F2000
G01 X10.3242
G00 Z0.0000
G03 X9.8496 Y21.4924 I-0.1790 J-3.6650
G01 X7.8342 Y21.2893
G03 X7.5400 Y21.2294 I0.1504 J-1.4924
G01 X5.9176 Y20.7258
G01 Z-1.0000 F300
G03 X5.3920 Y20.5325 I0.4778 J-2.1103 F2000
G01 X3.6934 Y19.6105
G03 X3.4919 Y19.4792 I0.7156 J-1.3183
G01 X1.9743 Y18.2281
G03 X1.8092 Y18.0692 I0.9546 J-1.1570
G01 X0.5508 Y16.5457
G03 X0.4132 Y16.3486 I1.1570 J-0.9546
G01 X-0.5325 Y14.6080
G03 X-0.6467 Y14.3371 I1.3183 J-0.7156
G01 X-1.2294 Y12.4600
G03 X-1.2893 Y12.1658 I1.4326 J-0.4447
G01 X-1.4924 Y10.1505
G03 Y9.8495 I1.4924 J-0.1504
G01 X-1.2893 Y7.8342
G03 X-1.2435 Y7.5881 I1.4925 J0.1505
G01 X-0.6467 Y5.6629
G03 X-0.5552 Y5.4355 I1.4326 J0.4447
G01 X0.3895 Y3.6933
G03 X0.5208 Y3.4919 I1.3183 J0.7156
G01 X1.7719 Y1.9743
G03 X1.9743 Y1.7719 I1.1570 J0.9546
G01 X3.4543 Y0.5508
G03 X3.6934 Y0.3895 I0.9546 J1.1570
G01 X5.3920 Y-0.5325
G03 X5.6629 Y-0.6467 I0.7156 J1.3183
G01 X7.5400 Y-1.2294
G03 X7.8342 Y-1.2893 I0.4447 J1.4326
G01 X9.8496 Y-1.4924
G01 X9.9498 Y-1.4992
G01 X14.9454
G00 Z0.0000
G01 X19.4454
G00 Z-0.5000
G01 Z-2.0000 F300
G01 X56.2969 Y-1.4994 F2000
G00 Z0.0000
G01 X60.7969
G00 Z-0.5000
G01 Z-2.0000 F300
G01 X97.6485 Y-1.4997 F2000
G00 Z0.0000
G01 X102.1485
G00 Z-0.5000
G01 Z-2.0000 F300
G01 X139.0000 Y-1.4999 F2000
G00 Z0.0000
G01 X143.5000
G00 Z-0.5000
G01 Z-2.0000 F300
G01 X160.0000 Y-1.5000 F2000
G01 X160.1505 Y-1.4924
G01 X162.1658 Y-1.2893
G03 X162.4600 Y-1.2294 I-0.1505 J1.4924
G01 X164.3371 Y-0.6467
G03 X164.6080 Y-0.5325 I-0.4447 J1.4326
G01 X166.3067 Y0.3895
G03 X166.5081 Y0.5208 I-0.7156 J1.3183
G01 X168.0257 Y1.7719
G03 X168.2281 Y1.9743 I-0.9546 J1.1570
G01 X169.4492 Y3.4543
G03 X169.5868 Y3.6514 I-1.1570 J0.9546
G01 X170.5325 Y5.3920
G03 X170.6467 Y5.6629 I-1.3183 J0.7156
G01 X171.2294 Y7.5400
G03 X171.2834 Y7.7844 I-1.4326 J0.4447
G01 X171.4924 Y9.8495
G03 X171.4966 Y10.1004 I-1.4924 J0.1504
G01 X171.2893 Y12.1658
G01 X171.2697 Y12.2986
G00 Z0.0000
G01 X171.2435 Y12.4119
G01 X170.6467 Y14.3371
G03 X170.5325 Y14.6080 I-1.4326 J-0.4447
G01 X169.6105 Y16.3067
G01 X169.5375 Y16.4271
G00 Z-0.5000
G01 Z-2.0000 F300
G01 X169.4792 Y16.5081 F2000
G01 X168.2281 Y18.0257
G03 X168.0692 Y18.1908 I-1.1570 J-0.9546
G01 X166.5457 Y19.4492
G03 X166.3486 Y19.5868 I-0.9546 J-1.1570
G01 X164.6080 Y20.5325
G03 X164.3838 Y20.6314 I-0.7156 J-1.3183
G01 X162.4600 Y21.2294
G03 X162.2156 Y21.2834 I-0.4447 J-1.4326
G01 X160.1505 Y21.4924
G01 X160.0502 Y21.4992
G01 X134.3788 Y21.4993
G00 Z0.0000
G01 X129.8789
G00 Z-0.5000
G01 Z-2.0000 F300
G01 X93.0273 Y21.4996 F2000
G00 Z0.0000
G01 X88.5273
G00 Z-0.5000
G01 Z-2.0000 F300
G01 X51.6758 Y21.4998 F2000
G00 Z0.0000
G01 X47.1758 Y21.4999
G00 Z-0.5000
G01 Z-2.0000 F300
G01 X28.7500 Y21.5000 F2000
G01 X10.3242
G00 Z0.0000
G03 X9.8496 Y21.4924 I-0.1790 J-3.6650
G01 X7.8342 Y21.2893
G03 X7.5400 Y21.2294 I0.1504 J-1.4924
G01 X5.9176 Y20.7258
G00 Z-0.5000
G01 Z-2.0000 F300
G03 X5.3920 Y20.5325 I0.4778 J-2.1103 F2000
G01 X3.6934 Y19.6105
G03 X3.4919 Y19.4792 I0.7156 J-1.3183
G01 X1.9743 Y18.2281
G03 X1.8092 Y18.0692 I0.9546 J-1.1570
G01 X0.5508 Y16.5457
G03 X0.4132 Y16.3486 I1.1570 J-0.9546
G01 X-0.5325 Y14.6080
G03 X-0.6467 Y14.3371 I1.3183 J-0.7156
G01 X-1.2294 Y12.4600
G03 X-1.2893 Y12.1658 I1.4326 J-0.4447
G01 X-1.4924 Y10.1505
G03 Y9.8495 I1.4924 J-0.1504
G01 X-1.2893 Y7.8342
G03 X-1.2435 Y7.5881 I1.4925 J0.1505
G01 X-0.6467 Y5.6629
G03 X-0.5552 Y5.4355 I1.4326 J0.4447
G01 X0.3895 Y3.6933
G03 X0.5208 Y3.4919 I1.3183 J0.7156
G01 X1.7719 Y1.9743
G03 X1.9743 Y1.7719 I1.1570 J0.9546
G01 X3.4543 Y0.5508
G03 X3.6934 Y0.3895 I0.9546 J1.1570
G01 X5.3920 Y-0.5325
G03 X5.6629 Y-0.6467 I0.7156 J1.3183
G01 X7.5400 Y-1.2294
G03 X7.8342 Y-1.2893 I0.4447 J1.4326
G01 X9.8496 Y-1.4924
G01 X9.9498 Y-1.4992
G01 X14.9454
G00 Z0.0000
G01 X19.4454
G00 Z-1.5000
G01 Z-3.0000 F300
G01 X56.2969 Y-1.4994 F2000
G00 Z0.0000
G01 X60.7969
G00 Z-1.5000
G01 Z-3.0000 F300
G01 X97.6485 Y-1.4997 F2000
G00 Z0.0000
G01 X102.1485
G00 Z-1.5000
G01 Z-3.0000 F300
G01 X139.0000 Y-1.4999 F2000
G00 Z0.0000
G01 X143.5000
G00 Z-1.5000
G01 Z-3.0000 F300
G01 X160.0000 Y-1.5000 F2000
G01 X160.1505 Y-1.4924
G01 X162.1658 Y-1.2893
G03 X162.4600 Y-1.2294 I-0.1505 J1.4924
G01 X164.3371 Y-0.6467
G03 X164.6080 Y-0.5325 I-0.4447 J1.4326
G01 X166.3067 Y0.3895
G03 X166.5081 Y0.5208 I-0.7156 J1.3183
G01 X168.0257 Y1.7719
G03 X168.2281 Y1.9743 I-0.9546 J1.1570
G01 X169.4492 Y3.4543
G03 X169.5868 Y3.6514 I-1.1570 J0.9546
G01 X170.5325 Y5.3920
G03 X170.6467 Y5.6629 I-1.3183 J0.7156
G01 X171.2294 Y7.5400
G03 X171.2834 Y7.7844 I-1.4326 J0.4447
G01 X171.4924 Y9.8495
G03 X171.4966 Y10.1004 I-1.4924 J0.1504
G01 X171.2893 Y12.1658
G01 X171.2697 Y12.2986
G00 Z0.0000
G01 X171.2435 Y12.4119
G01 X170.6467 Y14.3371
G03 X170.5325 Y14.6080 I-1.4326 J-0.4447
G01 X169.6105 Y16.3067
G01 X169.5375 Y16.4271
G00 Z-1.5000
G01 Z-3.0000 F300
G01 X169.4792 Y16.5081 F2000
G01 X168.2281 Y18.0257
G03 X168.0692 Y18.1908 I-1.1570 J-0.9546
G01 X166.5457 Y19.4492
G03 X166.3486 Y19.5868 I-0.9546 J-1.1570
G01 X164.6080 Y20.5325
G03 X164.3838 Y20.6314 I-0.7156 J-1.3183
G01 X162.4600 Y21.2294
G03 X162.2156 Y21.2834 I-0.4447 J-1.4326
G01 X160.1505 Y21.4924
G01 X160.0502 Y21.4992
G01 X134.3788 Y21.4993
G00 Z0.0000
G01 X129.8789
G00 Z-1.5000
G01 Z-3.0000 F300
G01 X93.0273 Y21.4996 F2000
G00 Z0.0000
G01 X88.5273
G00 Z-1.5000
G01 Z-3.0000 F300
G01 X51.6758 Y21.4998 F2000
G00 Z0.0000
G01 X47.1758 Y21.4999
G00 Z-1.5000
G01 Z-3.0000 F300
G01 X28.7500 Y21.5000 F2000
G01 X10.3242
G00 Z0.0000
G03 X9.8496 Y21.4924 I-0.1790 J-3.6650
G01 X7.8342 Y21.2893
G03 X7.5400 Y21.2294 I0.1504 J-1.4924
G01 X5.9176 Y20.7258
G00 Z-1.5000
G01 Z-3.0000 F300
G03 X5.3920 Y20.5325 I0.4778 J-2.1103 F2000
G01 X3.6934 Y19.6105
G03 X3.4919 Y19.4792 I0.7156 J-1.3183
G01 X1.9743 Y18.2281
G03 X1.8092 Y18.0692 I0.9546 J-1.1570
G01 X0.5508 Y16.5457
G03 X0.4132 Y16.3486 I1.1570 J-0.9546
G01 X-0.5325 Y14.6080
G03 X-0.6467 Y14.3371 I1.3183 J-0.7156
G01 X-1.2294 Y12.4600
G03 X-1.2893 Y12.1658 I1.4326 J-0.4447
G01 X-1.4924 Y10.1505
G03 Y9.8495 I1.4924 J-0.1504
G01 X-1.2893 Y7.8342
G03 X-1.2435 Y7.5881 I1.4925 J0.1505
G01 X-0.6467 Y5.6629
G03 X-0.5552 Y5.4355 I1.4326 J0.4447
G01 X0.3895 Y3.6933
G03 X0.5208 Y3.4919 I1.3183 J0.7156
G01 X1.7719 Y1.9743
G03 X1.9743 Y1.7719 I1.1570 J0.9546
G01 X3.4543 Y0.5508
G03 X3.6934 Y0.3895 I0.9546 J1.1570
G01 X5.3920 Y-0.5325
G03 X5.6629 Y-0.6467 I0.7156 J1.3183
G01 X7.5400 Y-1.2294
G03 X7.8342 Y-1.2893 I0.4447 J1.4326
G01 X9.8496 Y-1.4924
G01 X9.9498 Y-1.4992
G01 X14.9454
G00 Z0.0000
G01 X19.4454
G00 Z5.0000

(Nr. 3 Ausschnitt 2)
G00 X63.9774 Y34.0000
G00 Z0.5000
G01 Z-1.0000 F300
G01 X30.9661 F2000
G00 Z0.0000
G01 X26.4661
G01 Z-1.0000 F300
G01 X10.0754 F2000
G01 X8.7891 Y34.1297
G01 X7.6663 Y34.4778
G01 X6.6496 Y35.0301
G01 X5.7622 Y35.7622
G01 X5.0298 Y36.6494
G01 X4.4782 Y37.6664
G01 X4.1297 Y38.7891
G01 X4.0073 Y40.0000
G01 X4.1293 Y41.2110
G01 X4.4782 Y42.3336
G01 X5.0301 Y43.3504
G01 X5.7622 Y44.2378
G01 X6.6496 Y44.9699
G01 X7.6664 Y45.5218
G01 X7.7976 Y45.5626
G00 Z0.0000
G01 X8.7890 Y45.8707
G01 X10.0754 Y46.0000
G01 X12.2443
G01 Z-1.0000 F300
G01 X28.7500 F2000
G01 X45.2557
G00 Z0.0000
G01 X49.7557
G01 Z-1.0000 F300
G01 X82.7670 F2000
G00 Z0.0000
G01 X87.2670
G01 Z-1.0000 F300
G01 X120.2783 F2000
G00 Z0.0000
G01 X124.7783
G01 Z-1.0000 F300
G01 X157.7896 F2000
G00 Z0.0000
G01 X159.9246
G01 X161.2109 Y45.8703
G01 X162.2348 Y45.5525
G01 Z-1.0000 F300
G01 X162.3336 Y45.5218 F2000
G01 X163.3504 Y44.9699
G01 X164.2381 Y44.2380
G01 X164.9699 Y43.3504
G01 X165.5222 Y42.3337
G01 X165.8703 Y41.2109
G01 X165.9928 Y40.0000
G01 X165.8703 Y38.7891
G01 X165.5222 Y37.6663
G01 X164.9699 Y36.6496
G01 X164.2378 Y35.7622
G01 X163.3504 Y35.0301
G01 X162.3336 Y34.4782
G01 X161.2109 Y34.1297
G01 X159.9246 Y34.0000
G01 X143.5000
G00 Z0.0000
G01 X139.0000
G01 Z-1.0000 F300
G01 X105.9886 F2000
G00 Z0.0000
G01 X101.4887
G01 Z-1.0000 F300
G01 X68.4774 F2000
G00 Z0.0000
G01 X63.9774
G00 Z-0.5000
G01 Z-2.0000 F300
G01 X30.9661 F2000
G00 Z0.0000
G01 X26.4661
G00 Z-0.5000
G01 Z-2.0000 F300
G01 X10.0754 F2000
G01 X8.7891 Y34.1297
G01 X7.6663 Y34.4778
G01 X6.6496 Y35.0301
G01 X5.7622 Y35.7622
G01 X5.0298 Y36.6494
G01 X4.4782 Y37.6664
G01 X4.1297 Y38.7891
G01 X4.0073 Y40.0000
G01 X4.1293 Y41.2110
G01 X4.4782 Y42.3336
G01 X5.0301 Y43.3504
G01 X5.7622 Y44.2378
G01 X6.6496 Y44.9699
G01 X7.6664 Y45.5218
G01 X7.7976 Y45.5626
G00 Z0.0000
G01 X8.7890 Y45.8707
G01 X10.0754 Y46.0000
G01 X12.2443
G00 Z-0.5000
G01 Z-2.0000 F300
G01 X28.7500 F2000
G01 X45.2557
G00 Z0.0000
G01 X49.7557
G00 Z-0.5000
G01 Z-2.0000 F300
G01 X82.7670 F2000
G00 Z0.0000
G01 X87.2670
G00 Z-0.5000
G01 Z-2.0000 F300
G01 X120.2783 F2000
G00 Z0.0000
G01 X124.7783
G00 Z-0.5000
G01 Z-2.0000 F300
G01 X157.7896 F2000
G00 Z0.0000
G01 X159.9246
G01 X161.2109 Y45.8703
G01 X162.2348 Y45.5525
G00 Z-0.5000
G01 Z-2.0000 F300
G01 X162.3336 Y45.5218 F2000
G01 X163.3504 Y44.9699
G01 X164.2381 Y44.2380
G01 X164.9699 Y43.3504
G01 X165.5222 Y42.3337
G01 X165.8703 Y41.2109
G01 X165.9928 Y40.0000
G01 X165.8703 Y38.7891
G01 X165.5222 Y37.6663
G01 X164.9699 Y36.6496
G01 X164.2378 Y35.7622
G01 X163.3504 Y35.0301
G01 X162.3336 Y34.4782
G01 X161.2109 Y34.1297
G01 X159.9246 Y34.0000
G01 X143.5000
G00 Z0.0000
G01 X139.0000
G00 Z-0.5000
G01 Z-2.0000 F300
G01 X105.9886 F2000
G00 Z0.0000
G01 X101.4887
G00 Z-0.5000
G01 Z-2.0000 F300
G01 X68.4774 F2000
G00 Z0.0000
G01 X63.9774
G00 Z-1.5000
G01 Z-3.0000 F300
G01 X30.9661 F2000
G00 Z0.0000
G01 X26.4661
G00 Z-1.5000
G01 Z-3.0000 F300
G01 X10.0754 F2000
G01 X8.7891 Y34.1297
G01 X7.6663 Y34.4778
G01 X6.6496 Y35.0301
G01 X5.7622 Y35.7622
G01 X5.0298 Y36.6494
G01 X4.4782 Y37.6664
G01 X4.1297 Y38.7891
G01 X4.0073 Y40.0000
G01 X4.1293 Y41.2110
G01 X4.4782 Y42.3336
G01 X5.0301 Y43.3504
G01 X5.7622 Y44.2378
G01 X6.6496 Y44.9699
G01 X7.6664 Y45.5218
G01 X7.7976 Y45.5626
G00 Z0.0000
G01 X8.7890 Y45.8707
G01 X10.0754 Y46.0000
G01 X12.2443
G00 Z-1.5000
G01 Z-3.0000 F300
G01 X28.7500 F2000
G01 X45.2557
G00 Z0.0000
G01 X49.7557
G00 Z-1.5000
G01 Z-3.0000 F300
G01 X82.7670 F2000
G00 Z0.0000
G01 X87.2670
G00 Z-1.5000
G01 Z-3.0000 F300
G01 X120.2783 F2000
G00 Z0.0000
G01 X124.7783
G00 Z-1.5000
G01 Z-3.0000 F300
G01 X157.7896 F2000
G00 Z0.0000
G01 X159.9246
G01 X161.2109 Y45.8703
G01 X162.2348 Y45.5525
G00 Z-1.5000
G01 Z-3.0000 F300
G01 X162.3336 Y45.5218 F2000
G01 X163.3504 Y44.9699
G01 X164.2381 Y44.2380
G01 X164.9699 Y43.3504
G01 X165.5222 Y42.3337
G01 X165.8703 Y41.2109
G01 X165.9928 Y40.0000
G01 X165.8703 Y38.7891
G01 X165.5222 Y37.6663
G01 X164.9699 Y36.6496
G01 X164.2378 Y35.7622
G01 X163.3504 Y35.0301
G01 X162.3336 Y34.4782
G01 X161.2109 Y34.1297
G01 X159.9246 Y34.0000
G01 X143.5000
G00 Z0.0000
G01 X139.0000
G00 Z-1.5000
G01 Z-3.0000 F300
G01 X105.9886 F2000
G00 Z0.0000
G01 X101.4887
G00 Z-1.5000
G01 Z-3.0000 F300
G01 X68.4774 F2000
G00 Z0.0000
G01 X63.9774
G00 Z5.0000

(Nr. 4 Teil 4)
G00 X102.1485 Y28.5000
G00 Z0.5000
G01 Z-1.0000 F300
G01 X139.0000 F2000
G00 Z0.0000
G01 X143.5000
G01 Z-1.0000 F300
G01 X160.0000 F2000
G01 X160.1004 Y28.5034
G01 X162.1658 Y28.7107
G03 X162.4600 Y28.7706 I-0.1505 J1.4925
G01 X164.3372 Y29.3533
G03 X164.6080 Y29.4675 I-0.4447 J1.4326
G01 X166.3067 Y30.3895
G03 X166.5081 Y30.5208 I-0.7155 J1.3183
G01 X168.0257 Y31.7719
G03 X168.2281 Y31.9743 I-0.9546 J1.1570
G01 X169.4492 Y33.4543
G03 X169.6105 Y33.6934 I-1.1570 J0.9546
G01 X170.5325 Y35.3920
G03 X170.6314 Y35.6162 I-1.3183 J0.7155
G01 X171.2294 Y37.5400
G03 X171.2834 Y37.7844 I-1.4326 J0.4447
G01 X171.4924 Y39.8495
G03 X171.4966 Y40.1004 I-1.4924 J0.1504
G01 X171.2893 Y42.1658
G01 X171.2697 Y42.2986
G00 Z0.0000
G01 X171.2435 Y42.4119
G01 X170.6467 Y44.3371
G03 X170.5325 Y44.6080 I-1.4326 J-0.4447
G01 X169.6105 Y46.3067
G01 X169.5375 Y46.4272
G01 Z-1.0000 F300
G01 X169.4792 Y46.5081 F2000
G01 X168.2281 Y48.0257
G03 X168.0692 Y48.1908 I-1.1570 J-0.9546
G01 X166.5457 Y49.4492
G03 X166.3067 Y49.6105 I-0.9546 J-1.1570
G01 X164.6080 Y50.5325
G03 X164.3371 Y50.6467 I-0.7156 J-1.3183
G01 X162.4600 Y51.2294
G03 X162.2156 Y51.2834 I-0.4447 J-1.4326
G01 X160.1505 Y51.4924
G01 X160.0502 Y51.4992
G01 X134.3788
G00 Z0.0000
G01 X129.8789 Y51.4993
G01 Z-1.0000 F300
G01 X93.0273 Y51.4994 F2000
G00 Z0.0000
G01 X88.5273
G01 Z-1.0000 F300
G01 X51.6758 Y51.4995 F2000
G00 Z0.0000
G01 X47.1758 Y51.4996
G01 Z-1.0000 F300
G01 X28.7500 F2000
G01 X10.3242 Y51.5000
G00 Z0.0000
G03 X9.8496 Y51.4924 I-0.1791 J-3.6641
G01 X7.8342 Y51.2893
G03 X7.5400 Y51.2294 I0.1504 J-1.4924
G01 X5.9176 Y50.7258
G01 Z-1.0000 F300
G03 X5.4355 Y50.5552 I0.5630 J-2.3571 F2000
G01 X3.6934 Y49.6105
G03 X3.4919 Y49.4792 I0.7156 J-1.3183
G01 X1.9743 Y48.2281
G03 X1.8092 Y48.0692 I0.9546 J-1.1570
G01 X0.5508 Y46.5457
G03 X0.3895 Y46.3067 I1.1570 J-0.9546
G01 X-0.5325 Y44.6080
G03 X-0.6467 Y44.3371 I1.3183 J-0.7156
G01 X-1.2294 Y42.4600
G03 X-1.2893 Y42.1658 I1.4326 J-0.4447
G01 X-1.4924 Y40.1504
G03 Y39.8495 I1.4924 J-0.1505
G01 X-1.2893 Y37.8342
G03 X-1.2435 Y37.5881 I1.4924 J0.1505
G01 X-0.6467 Y35.6629
G03 X-0.5325 Y35.3920 I1.4326 J0.4447
G01 X0.3895 Y33.6933
G03 X0.5508 Y33.4543 I1.3183 J0.7156
G01 X1.7719 Y31.9743
G03 X1.9308 Y31.8092 I1.1570 J0.9546
G01 X3.4543 Y30.5508
G03 X3.6514 Y30.4132 I0.9546 J1.1570
G01 X5.3920 Y29.4675
G03 X5.6629 Y29.3533 I0.7156 J1.3183
G01 X7.5400 Y28.7706
G03 X7.8342 Y28.7107 I0.4447 J1.4326
G01 X9.8496 Y28.5076
G01 X10.0000 Y28.5000
G01 X14.9454
G00 Z0.0000
G01 X19.4454
G01 Z-1.0000 F300
G01 X56.2969 F2000
G00 Z0.0000
G01 X60.7969
G01 Z-1.0000 F300
G01 X97.6485 F2000
G00 Z0.0000
G01 X102.1485
G00 Z-0.5000
G01 Z-2.0000 F300
G01 X139.0000 F2000
G00 Z0.0000
G01 X143.5000
G00 Z-0.5000
G01 Z-2.0000 F300
G01 X160.0000 F2000
G01 X160.1004 Y28.5034
G01 X162.1658 Y28.7107
G03 X162.4600 Y28.7706 I-0.1505 J1.4925
G01 X164.3372 Y29.3533
G03 X164.6080 Y29.4675 I-0.4447 J1.4326
G01 X166.3067 Y30.3895
G03 X166.5081 Y30.5208 I-0.7155 J1.3183
G01 X168.0257 Y31.7719
G03 X168.2281 Y31.9743 I-0.9546 J1.1570
G01 X169.4492 Y33.4543
G03 X169.6105 Y33.6934 I-1.1570 J0.9546
G01 X170.5325 Y35.3920
G03 X170.6314 Y35.6162 I-1.3183 J0.7155
G01 X171.2294 Y37.5400
G03 X171.2834 Y37.7844 I-1.4326 J0.4447
G01 X171.4924 Y39.8495
G03 X171.4966 Y40.1004 I-1.4924 J0.1504
G01 X171.2893 Y42.1658
G01 X171.2697 Y42.2986
G00 Z0.0000
G01 X171.2435 Y42.4119
G01 X170.6467 Y44.3371
G03 X170.5325 Y44.6080 I-1.4326 J-0.4447
G01 X169.6105 Y46.3067
G01 X169.5375 Y46.4272
G00 Z-0.5000
G01 Z-2.0000 F300
G01 X169.4792 Y46.5081 F2000
G01 X168.2281 Y48.0257
G03 X168.0692 Y48.1908 I-1.1570 J-0.9546
G01 X166.5457 Y49.4492
G03 X166.3067 Y49.6105 I-0.9546 J-1.1570
G01 X164.6080 Y50.5325
G03 X164.3371 Y50.6467 I-0.7156 J-1.3183
G01 X162.4600 Y51.2294
G03 X162.2156 Y51.2834 I-0.4447 J-1.4326
G01 X160.1505 Y51.4924
G01 X160.0502 Y51.4992
G01 X134.3788
G00 Z0.0000
G01 X129.8789 Y51.4993
G00 Z-0.5000
G01 Z-2.0000 F300
G01 X93.0273 Y51.4994 F2000
G00 Z0.0000
G01 X88.5273
G00 Z-0.5000
G01 Z-2.0000 F300
G01 X51.6758 Y51.4995 F2000
G00 Z0.0000
G01 X47.1758 Y51.4996
G00 Z-0.5000
G01 Z-2.0000 F300
G01 X28.7500 F2000
G01 X10.3242 Y51.5000
G00 Z0.0000
G03 X9.8496 Y51.4924 I-0.1791 J-3.6641
G01 X7.8342 Y51.2893
G03 X7.5400 Y51.2294 I0.1504 J-1.4924
G01 X5.9176 Y50.7258
G00 Z-0.5000
G01 Z-2.0000 F300
G03 X5.4355 Y50.5552 I0.5630 J-2.3571 F2000
G01 X3.6934 Y49.6105
G03 X3.4919 Y49.4792 I0.7156 J-1.3183
G01 X1.9743 Y48.2281
G03 X1.8092 Y48.0692 I0.9546 J-1.1570
G01 X0.5508 Y46.5457
G03 X0.3895 Y46.3067 I1.1570 J-0.9546
G01 X-0.5325 Y44.6080
G03 X-0.6467 Y44.3371 I1.3183 J-0.7156
G01 X-1.2294 Y42.4600
G03 X-1.2893 Y42.1658 I1.4326 J-0.4447
G01 X-1.4924 Y40.1504
G03 Y39.8495 I1.4924 J-0.1505
G01 X-1.2893 Y37.8342
G03 X-1.2435 Y37.5881 I1.4924 J0.1505
G01 X-0.6467 Y35.6629
G03 X-0.5325 Y35.3920 I1.4326 J0.4447
G01 X0.3895 Y33.6933
G03 X0.5508 Y33.4543 I1.3183 J0.7156
G01 X1.7719 Y31.9743
G03 X1.9308 Y31.8092 I1.1570 J0.9546
G01 X3.4543 Y30.5508
G03 X3.6514 Y30.4132 I0.9546 J1.1570
G01 X5.3920 Y29.4675
G03 X5.6629 Y29.3533 I0.7156 J1.3183
G01 X7.5400 Y28.7706
G03 X7.8342 Y28.7107 I0.4447 J1.4326
G01 X9.8496 Y28.5076
G01 X10.0000 Y28.5000
G01 X14.9454
G00 Z0.0000
G01 X19.4454
G00 Z-0.5000
G01 Z-2.0000 F300
G01 X56.2969 F2000
G00 Z0.0000
G01 X60.7969
G00 Z-0.5000
G01 Z-2.0000 F300
G01 X97.6485 F2000
G00 Z0.0000
G01 X102.1485
G00 Z-1.5000
G01 Z-3.0000 F300
G01 X139.0000 F2000
G00 Z0.0000
G01 X143.5000
G00 Z-1.5000
G01 Z-3.0000 F300
G01 X160.0000 F2000
G01 X160.1004 Y28.5034
G01 X162.1658 Y28.7107
G03 X162.4600 Y28.7706 I-0.1505 J1.4925
G01 X164.3372 Y29.3533
G03 X164.6080 Y29.4675 I-0.4447 J1.4326
G01 X166.3067 Y30.3895
G03 X166.5081 Y30.5208 I-0.7155 J1.3183
G01 X168.0257 Y31.7719
G03 X168.2281 Y31.9743 I-0.9546 J1.1570
G01 X169.4492 Y33.4543
G03 X169.6105 Y33.6934 I-1.1570 J0.9546
G01 X170.5325 Y35.3920
G03 X170.6314 Y35.6162 I-1.3183 J0.7155
G01 X171.2294 Y37.5400
G03 X171.2834 Y37.7844 I-1.4326 J0.4447
G01 X171.4924 Y39.8495
G03 X171.4966 Y40.1004 I-1.4924 J0.1504
G01 X171.2893 Y42.1658
G01 X171.2697 Y42.2986
G00 Z0.0000
G01 X171.2435 Y42.4119
G01 X170.6467 Y44.3371
G03 X170.5325 Y44.6080 I-1.4326 J-0.4447
G01 X169.6105 Y46.3067
G01 X169.5375 Y46.4272
G00 Z-1.5000
G01 Z-3.0000 F300
G01 X169.4792 Y46.5081 F2000
G01 X168.2281 Y48.0257
G03 X168.0692 Y48.1908 I-1.1570 J-0.9546
G01 X166.5457 Y49.4492
G03 X166.3067 Y49.6105 I-0.9546 J-1.1570
G01 X164.6080 Y50.5325
G03 X164.3371 Y50.6467 I-0.7156 J-1.3183
G01 X162.4600 Y51.2294
G03 X162.2156 Y51.2834 I-0.4447 J-1.4326
G01 X160.1505 Y51.4924
G01 X160.0502 Y51.4992
G01 X134.3788
G00 Z0.0000
G01 X129.8789 Y51.4993
G00 Z-1.5000
G01 Z-3.0000 F300
G01 X93.0273 Y51.4994 F2000
G00 Z0.0000
G01 X88.5273
G00 Z-1.5000
G01 Z-3.0000 F300
G01 X51.6758 Y51.4995 F2000
G00 Z0.0000
G01 X47.1758 Y51.4996
G00 Z-1.5000
G01 Z-3.0000 F300
G01 X28.7500 F2000
G01 X10.3242 Y51.5000
G00 Z0.0000
G03 X9.8496 Y51.4924 I-0.1791 J-3.6641
G01 X7.8342 Y51.2893
G03 X7.5400 Y51.2294 I0.1504 J-1.4924
G01 X5.9176 Y50.7258
G00 Z-1.5000
G01 Z-3.0000 F300
G03 X5.4355 Y50.5552 I0.5630 J-2.3571 F2000
G01 X3.6934 Y49.6105
G03 X3.4919 Y49.4792 I0.7156 J-1.3183
G01 X1.9743 Y48.2281
G03 X1.8092 Y48.0692 I0.9546 J-1.1570
G01 X0.5508 Y46.5457
G03 X0.3895 Y46.3067 I1.1570 J-0.9546
G01 X-0.5325 Y44.6080
G03 X-0.6467 Y44.3371 I1.3183 J-0.7156
G01 X-1.2294 Y42.4600
G03 X-1.2893 Y42.1658 I1.4326 J-0.4447
G01 X-1.4924 Y40.1504
G03 Y39.8495 I1.4924 J-0.1505
G01 X-1.2893 Y37.8342
G03 X-1.2435 Y37.5881 I1.4924 J0.1505
G01 X-0.6467 Y35.6629
G03 X-0.5325 Y35.3920 I1.4326 J0.4447
G01 X0.3895 Y33.6933
G03 X0.5508 Y33.4543 I1.3183 J0.7156
G01 X1.7719 Y31.9743
G03 X1.9308 Y31.8092 I1.1570 J0.9546
G01 X3.4543 Y30.5508
G03 X3.6514 Y30.4132 I0.9546 J1.1570
G01 X5.3920 Y29.4675
G03 X5.6629 Y29.3533 I0.7156 J1.3183
G01 X7.5400 Y28.7706
G03 X7.8342 Y28.7107 I0.4447 J1.4326
G01 X9.8496 Y28.5076
G01 X10.0000 Y28.5000
G01 X14.9454
G00 Z0.0000
G01 X19.4454
G00 Z-1.5000
G01 Z-3.0000 F300
G01 X56.2969 F2000
G00 Z0.0000
G01 X60.7969
G00 Z-1.5000
G01 Z-3.0000 F300
G01 X97.6485 F2000
G00 Z0.0000
G01 X102.1485
G00 Z5.0000

(Nr. 5 Ausschnitt 1)
G00 X63.9776 Y63.9999
G00 Z0.5000
G01 Z-1.0000 F300
G01 X30.9663 Y64.0000 F2000
G00 Z0.0000
G01 X26.4663
G01 Z-1.0000 F300
G01 X10.0754 F2000
G01 X8.7891 Y64.1297
G01 X7.6664 Y64.4782
G01 X6.6496 Y65.0301
G01 X5.7622 Y65.7622
G01 X5.0301 Y66.6496
G01 X4.4778 Y67.6663
G01 X4.1297 Y68.7891
G01 X4.0076 Y70.0000
G01 X4.1297 Y71.2109
G01 X4.4782 Y72.3336
G01 X5.0301 Y73.3504
G01 X5.7620 Y74.2380
G01 X6.6496 Y74.9699
G01 X7.6664 Y75.5218
G01 X7.7976 Y75.5625
G00 Z0.0000
G01 X8.7891 Y75.8703
G01 X10.0754 Y76.0000
G01 X12.2443
G01 Z-1.0000 F300
G01 X28.7500 F2000
G01 X45.2557
G00 Z0.0000
G01 X49.7557
G01 Z-1.0000 F300
G01 X82.7670 F2000
G00 Z0.0000
G01 X87.2670
G01 Z-1.0000 F300
G01 X120.2783 F2000
G00 Z0.0000
G01 X124.7783
G01 Z-1.0000 F300
G01 X157.7896 F2000
G00 Z0.0000
G01 X159.9246
G01 X161.2109 Y75.8703
G01 X162.2348 Y75.5525
G01 Z-1.0000 F300
G01 X162.3336 Y75.5218 F2000
G01 X163.3504 Y74.9699
G01 X164.2381 Y74.2380
G01 X164.9699 Y73.3504
G01 X165.5222 Y72.3337
G01 X165.8703 Y71.2109
G01 X165.9924 Y70.0000
G01 X165.8703 Y68.7891
G01 X165.5222 Y67.6663
G01 X164.9699 Y66.6496
G01 X164.2381 Y65.7620
G01 X163.3506 Y65.0298
G01 X162.3336 Y64.4782
G01 X161.2110 Y64.1293
G01 X159.9246 Y63.9996
G01 X143.5001 Y63.9997
G00 Z0.0000
G01 X139.0002
G01 Z-1.0000 F300
G01 X105.9888 Y63.9998 F2000
G00 Z0.0000
G01 X101.4888
G01 Z-1.0000 F300
G01 X68.4775 Y63.9999 F2000
G00 Z0.0000
G01 X63.9776
G00 Z-0.5000
G01 Z-2.0000 F300
G01 X30.9663 Y64.0000 F2000
G00 Z0.0000
G01 X26.4663
G00 Z-0.5000
G01 Z-2.0000 F300
G01 X10.0754 F2000
G01 X8.7891 Y64.1297
G01 X7.6664 Y64.4782
G01 X6.6496 Y65.0301
G01 X5.7622 Y65.7622
G01 X5.0301 Y66.6496
G01 X4.4778 Y67.6663
G01 X4.1297 Y68.7891
G01 X4.0076 Y70.0000
G01 X4.1297 Y71.2109
G01 X4.4782 Y72.3336
G01 X5.0301 Y73.3504
G01 X5.7620 Y74.2380
G01 X6.6496 Y74.9699
G01 X7.6664 Y75.5218
G01 X7.7976 Y75.5625
G00 Z0.0000
G01 X8.7891 Y75.8703
G01 X10.0754 Y76.0000
G01 X12.2443
G00 Z-0.5000
G01 Z-2.0000 F300
G01 X28.7500 F2000
G01 X45.2557
G00 Z0.0000
G01 X49.7557
G00 Z-0.5000
G01 Z-2.0000 F300
G01 X82.7670 F2000
G00 Z0.0000
G01 X87.2670
G00 Z-0.5000
G01 Z-2.0000 F300
G01 X120.2783 F2000
G00 Z0.0000
G01 X124.7783
G00 Z-0.5000
G01 Z-2.0000 F300
G01 X157.7896 F2000
G00 Z0.0000
G01 X159.9246
G01 X161.2109 Y75.8703
G01 X162.2348 Y75.5525
G00 Z-0.5000
G01 Z-2.0000 F300
G01 X162.3336 Y75.5218 F2000
G01 X163.3504 Y74.9699
G01 X164.2381 Y74.2380
G01 X164.9699 Y73.3504
G01 X165.5222 Y72.3337
G01 X165.8703 Y71.2109
G01 X165.9924 Y70.0000
G01 X165.8703 Y68.7891
G01 X165.5222 Y67.6663
G01 X164.9699 Y66.6496
G01 X164.2381 Y65.7620
G01 X163.3506 Y65.0298
G01 X162.3336 Y64.4782
G01 X161.2110 Y64.1293
G01 X159.9246 Y63.9996
G01 X143.5001 Y63.9997
G00 Z0.0000
G01 X139.0002
G00 Z-0.5000
G01 Z-2.0000 F300
G01 X105.9888 Y63.9998 F2000
G00 Z0.0000
G01 X101.4888
G00 Z-0.5000
G01 Z-2.0000 F300
G01 X68.4775 Y63.9999 F2000
G00 Z0.0000
G01 X63.9776
G00 Z-1.5000
G01 Z-3.0000 F300
G01 X30.9663 Y64.0000 F2000
G00 Z0.0000
G01 X26.4663
G00 Z-1.5000
G01 Z-3.0000 F300
G01 X10.0754 F2000
G01 X8.7891 Y64.1297
G01 X7.6664 Y64.4782
G01 X6.6496 Y65.0301
G01 X5.7622 Y65.7622
G01 X5.0301 Y66.6496
G01 X4.4778 Y67.6663
G01 X4.1297 Y68.7891
G01 X4.0076 Y70.0000
G01 X4.1297 Y71.2109
G01 X4.4782 Y72.3336
G01 X5.0301 Y73.3504
G01 X5.7620 Y74.2380
G01 X6.6496 Y74.9699
G01 X7.6664 Y75.5218
G01 X7.7976 Y75.5625
G00 Z0.0000
G01 X8.7891 Y75.8703
G01 X10.0754 Y76.0000
G01 X12.2443
G00 Z-1.5000
G01 Z-3.0000 F300
G01 X28.7500 F2000
G01 X45.2557
G00 Z0.0000
G01 X49.7557
G00 Z-1.5000
G01 Z-3.0000 F300
G01 X82.7670 F2000
G00 Z0.0000
G01 X87.2670
G00 Z-1.5000
G01 Z-3.0000 F300
G01 X120.2783 F2000
G00 Z0.0000
G01 X124.7783
G00 Z-1.5000
G01 Z-3.0000 F300
G01 X157.7896 F2000
G00 Z0.0000
G01 X159.9246
G01 X161.2109 Y75.8703
G01 X162.2348 Y75.5525
G00 Z-1.5000
G01 Z-3.0000 F300
G01 X162.3336 Y75.5218 F2000
G01 X163.3504 Y74.9699
G01 X164.2381 Y74.2380
G01 X164.9699 Y73.3504
G01 X165.5222 Y72.3337
G01 X165.8703 Y71.2109
G01 X165.9924 Y70.0000
G01 X165.8703 Y68.7891
G01 X165.5222 Y67.6663
G01 X164.9699 Y66.6496
G01 X164.2381 Y65.7620
G01 X163.3506 Y65.0298
G01 X162.3336 Y64.4782
G01 X161.2110 Y64.1293
G01 X159.9246 Y63.9996
G01 X143.5001 Y63.9997
G00 Z0.0000
G01 X139.0002
G00 Z-1.5000
G01 Z-3.0000 F300
G01 X105.9888 Y63.9998 F2000
G00 Z0.0000
G01 X101.4888
G00 Z-1.5000
G01 Z-3.0000 F300
G01 X68.4775 Y63.9999 F2000
G00 Z0.0000
G01 X63.9776
G00 Z5.0000

(Nr. 6 Teil 3)
G00 X102.1485 Y58.5000
G00 Z0.5000
G01 Z-1.0000 F300
G01 X139.0000 F2000
G00 Z0.0000
G01 X143.5000
G01 Z-1.0000 F300
G01 X160.0000 F2000
G01 X160.1505 Y58.5076
G01 X162.1658 Y58.7107
G03 X162.4119 Y58.7565 I-0.1505 J1.4924
G01 X164.3371 Y59.3533
G03 X164.6080 Y59.4675 I-0.4447 J1.4326
G01 X166.3067 Y60.3895
G03 X166.5081 Y60.5208 I-0.7156 J1.3183
G01 X168.0257 Y61.7719
G03 X168.1908 Y61.9308 I-0.9546 J1.1570
G01 X169.4492 Y63.4543
G03 X169.6105 Y63.6933 I-1.1570 J0.9546
G01 X170.5325 Y65.3920
G03 X170.6467 Y65.6629 I-1.3183 J0.7156
G01 X171.2294 Y67.5400
G03 X171.2834 Y67.7844 I-1.4326 J0.4447
G01 X171.4924 Y69.8495
G03 X171.4966 Y70.1004 I-1.4924 J0.1505
G01 X171.2893 Y72.1658
G01 X171.2697 Y72.2986
G00 Z0.0000
G01 X171.2435 Y72.4119
G01 X170.6467 Y74.3371
G03 X170.5325 Y74.6080 I-1.4326 J-0.4447
G01 X169.6105 Y76.3067
G01 X169.5375 Y76.4271
G01 Z-1.0000 F300
G01 X169.4492 Y76.5457 F2000
G01 X168.2281 Y78.0257
G03 X168.0257 Y78.2281 I-1.1570 J-0.9546
G01 X166.5457 Y79.4492
G03 X166.3486 Y79.5868 I-0.9546 J-1.1570
G01 X164.6080 Y80.5325
G03 X164.3371 Y80.6467 I-0.7156 J-1.3183
G01 X162.4600 Y81.2294
G03 X162.2156 Y81.2834 I-0.4447 J-1.4326
G01 X160.1505 Y81.4924
G01 X160.0000 Y81.5000
G01 X134.3788
G00 Z0.0000
G01 X129.8789
G01 Z-1.0000 F300
G01 X93.0273 F2000
G00 Z0.0000
G01 X88.5274
G01 Z-1.0000 F300
G01 X51.6758 F2000
G00 Z0.0000
G01 X47.1758
G01 Z-1.0000 F300
G01 X28.7500 F2000
G01 X10.3242
G00 Z0.0000
G01 X9.8996 Y81.4966
G01 X7.8342 Y81.2893
G03 X7.5881 Y81.2435 I0.1505 J-1.4924
G01 X5.9176 Y80.7257
G01 Z-1.0000 F300
G03 X5.4355 Y80.5552 I0.5601 J-2.3505 F2000
G01 X3.6934 Y79.6105
G03 X3.4919 Y79.4792 I0.7156 J-1.3183
G01 X1.9743 Y78.2281
G03 X1.7719 Y78.0257 I0.9546 J-1.1570
G01 X0.5508 Y76.5457
G03 X0.3895 Y76.3067 I1.1570 J-0.9546
G01 X-0.5325 Y74.6080
G03 X-0.6467 Y74.3371 I1.3183 J-0.7156
G01 X-1.2294 Y72.4600
G03 X-1.2893 Y72.1658 I1.4326 J-0.4447
G01 X-1.4924 Y70.1504
G03 Y69.8495 I1.4924 J-0.1505
G01 X-1.2893 Y67.8342
G03 X-1.2294 Y67.5400 I1.4924 J0.1505
G01 X-0.6467 Y65.6629
G03 X-0.5325 Y65.3920 I1.4325 J0.4447
G01 X0.3895 Y63.6933
G03 X0.5508 Y63.4543 I1.3183 J0.7156
G01 X1.7719 Y61.9743
G03 X1.9743 Y61.7719 I1.1570 J0.9546
G01 X3.4543 Y60.5508
G03 X3.6934 Y60.3895 I0.9546 J1.1570
G01 X5.3920 Y59.4675
G03 X5.6162 Y59.3686 I0.7156 J1.3183
G01 X7.5400 Y58.7706
G03 X7.8342 Y58.7107 I0.4447 J1.4326
G01 X9.8496 Y58.5076
G01 X10.0000 Y58.5000
G01 X14.9454
G00 Z0.0000
G01 X19.4454
G01 Z-1.0000 F300
G01 X56.2969 F2000
G00 Z0.0000
G01 X60.7969
G01 Z-1.0000 F300
G01 X97.6485 F2000
G00 Z0.0000
G01 X102.1485
G00 Z-0.5000
G01 Z-2.0000 F300
G01 X139.0000 F2000
G00 Z0.0000
G01 X143.5000
G00 Z-0.5000
G01 Z-2.0000 F300
G01 X160.0000 F2000
G01 X160.1505 Y58.5076
G01 X162.1658 Y58.7107
G03 X162.4119 Y58.7565 I-0.1505 J1.4924
G01 X164.3371 Y59.3533
G03 X164.6080 Y59.4675 I-0.4447 J1.4326
G01 X166.3067 Y60.3895
G03 X166.5081 Y60.5208 I-0.7156 J1.3183
G01 X168.0257 Y61.7719
G03 X168.1908 Y61.9308 I-0.9546 J1.1570
G01 X169.4492 Y63.4543
G03 X169.6105 Y63.6933 I-1.1570 J0.9546
G01 X170.5325 Y65.3920
G03 X170.6467 Y65.6629 I-1.3183 J0.7156
G01 X171.2294 Y67.5400
G03 X171.2834 Y67.7844 I-1.4326 J0.4447
G01 X171.4924 Y69.8495
G03 X171.4966 Y70.1004 I-1.4924 J0.1505
G01 X171.2893 Y72.1658
G01 X171.2697 Y72.2986
G00 Z0.0000
G01 X171.2435 Y72.4119
G01 X170.6467 Y74.3371
G03 X170.5325 Y74.6080 I-1.4326 J-0.4447
G01 X169.6105 Y76.3067
G01 X169.5375 Y76.4271
G00 Z-0.5000
G01 Z-2.0000 F300
G01 X169.4492 Y76.5457 F2000
G01 X168.2281 Y78.0257
G03 X168.0257 Y78.2281 I-1.1570 J-0.9546
G01 X166.5457 Y79.4492
G03 X166.3486 Y79.5868 I-0.9546 J-1.1570
G01 X164.6080 Y80.5325
G03 X164.3371 Y80.6467 I-0.7156 J-1.3183
G01 X162.4600 Y81.2294
G03 X162.2156 Y81.2834 I-0.4447 J-1.4326
G01 X160.1505 Y81.4924
G01 X160.0000 Y81.5000
G01 X134.3788
G00 Z0.0000
G01 X129.8789
G00 Z-0.5000
G01 Z-2.0000 F300
G01 X93.0273 F2000
G00 Z0.0000
G01 X88.5274
G00 Z-0.5000
G01 Z-2.0000 F300
G01 X51.6758 F2000
G00 Z0.0000
G01 X47.1758
G00 Z-0.5000
G01 Z-2.0000 F300
G01 X28.7500 F2000
G01 X10.3242
G00 Z0.0000
G01 X9.8996 Y81.4966
G01 X7.8342 Y81.2893
G03 X7.5881 Y81.2435 I0.1505 J-1.4924
G01 X5.9176 Y80.7257
G00 Z-0.5000
G01 Z-2.0000 F300
G03 X5.4355 Y80.5552 I0.5601 J-2.3505 F2000
G01 X3.6934 Y79.6105
G03 X3.4919 Y79.4792 I0.7156 J-1.3183
G01 X1.9743 Y78.2281
G03 X1.7719 Y78.0257 I0.9546 J-1.1570
G01 X0.5508 Y76.5457
G03 X0.3895 Y76.3067 I1.1570 J-0.9546
G01 X-0.5325 Y74.6080
G03 X-0.6467 Y74.3371 I1.3183 J-0.7156
G01 X-1.2294 Y72.4600
G03 X-1.2893 Y72.1658 I1.4326 J-0.4447
G01 X-1.4924 Y70.1504
G03 Y69.8495 I1.4924 J-0.1505
G01 X-1.2893 Y67.8342
G03 X-1.2294 Y67.5400 I1.4924 J0.1505
G01 X-0.6467 Y65.6629
G03 X-0.5325 Y65.3920 I1.4325 J0.4447
G01 X0.3895 Y63.6933
G03 X0.5508 Y63.4543 I1.3183 J0.7156
G01 X1.7719 Y61.9743
G03 X1.9743 Y61.7719 I1.1570 J0.9546
G01 X3.4543 Y60.5508
G03 X3.6934 Y60.3895 I0.9546 J1.1570
G01 X5.3920 Y59.4675
G03 X5.6162 Y59.3686 I0.7156 J1.3183
G01 X7.5400 Y58.7706
G03 X7.8342 Y58.7107 I0.4447 J1.4326
G01 X9.8496 Y58.5076
G01 X10.0000 Y58.5000
G01 X14.9454
G00 Z0.0000
G01 X19.4454
G00 Z-0.5000
G01 Z-2.0000 F300
G01 X56.2969 F2000
G00 Z0.0000
G01 X60.7969
G00 Z-0.5000
G01 Z-2.0000 F300
G01 X97.6485 F2000
G00 Z0.0000
G01 X102.1485
G00 Z-1.5000
G01 Z-3.0000 F300
G01 X139.0000 F2000
G00 Z0.0000
G01 X143.5000
G00 Z-1.5000
G01 Z-3.0000 F300
G01 X160.0000 F2000
G01 X160.1505 Y58.5076
G01 X162.1658 Y58.7107
G03 X162.4119 Y58.7565 I-0.1505 J1.4924
G01 X164.3371 Y59.3533
G03 X164.6080 Y59.4675 I-0.4447 J1.4326
G01 X166.3067 Y60.3895
G03 X166.5081 Y60.5208 I-0.7156 J1.3183
G01 X168.0257 Y61.7719
G03 X168.1908 Y61.9308 I-0.9546 J1.1570
G01 X169.4492 Y63.4543
G03 X169.6105 Y63.6933 I-1.1570 J0.9546
G01 X170.5325 Y65.3920
G03 X170.6467 Y65.6629 I-1.3183 J0.7156
G01 X171.2294 Y67.5400
G03 X171.2834 Y67.7844 I-1.4326 J0.4447
G01 X171.4924 Y69.8495
G03 X171.4966 Y70.1004 I-1.4924 J0.1505
G01 X171.2893 Y72.1658
G01 X171.2697 Y72.2986
G00 Z0.0000
G01 X171.2435 Y72.4119
G01 X170.6467 Y74.3371
G03 X170.5325 Y74.6080 I-1.4326 J-0.4447
G01 X169.6105 Y76.3067
G01 X169.5375 Y76.4271
G00 Z-1.5000
G01 Z-3.0000 F300
G01 X169.4492 Y76.5457 F2000
G01 X168.2281 Y78.0257
G03 X168.0257 Y78.2281 I-1.1570 J-0.9546
G01 X166.5457 Y79.4492
G03 X166.3486 Y79.5868 I-0.9546 J-1.1570
G01 X164.6080 Y80.5325
G03 X164.3371 Y80.6467 I-0.7156 J-1.3183
G01 X162.4600 Y81.2294
G03 X162.2156 Y81.2834 I-0.4447 J-1.4326
G01 X160.1505 Y81.4924
G01 X160.0000 Y81.5000
G01 X134.3788
G00 Z0.0000
G01 X129.8789
G00 Z-1.5000
G01 Z-3.0000 F300
G01 X93.0273 F2000
G00 Z0.0000
G01 X88.5274
G00 Z-1.5000
G01 Z-3.0000 F300
G01 X51.6758 F2000
G00 Z0.0000
G01 X47.1758
G00 Z-1.5000
G01 Z-3.0000 F300
G01 X28.7500 F2000
G01 X10.3242
G00 Z0.0000
G01 X9.8996 Y81.4966
G01 X7.8342 Y81.2893
G03 X7.5881 Y81.2435 I0.1505 J-1.4924
G01 X5.9176 Y80.7257
G00 Z-1.5000
G01 Z-3.0000 F300
G03 X5.4355 Y80.5552 I0.5601 J-2.3505 F2000
G01 X3.6934 Y79.6105
G03 X3.4919 Y79.4792 I0.7156 J-1.3183
G01 X1.9743 Y78.2281
G03 X1.7719 Y78.0257 I0.9546 J-1.1570
G01 X0.5508 Y76.5457
G03 X0.3895 Y76.3067 I1.1570 J-0.9546
G01 X-0.5325 Y74.6080
G03 X-0.6467 Y74.3371 I1.3183 J-0.7156
G01 X-1.2294 Y72.4600
G03 X-1.2893 Y72.1658 I1.4326 J-0.4447
G01 X-1.4924 Y70.1504
G03 Y69.8495 I1.4924 J-0.1505
G01 X-1.2893 Y67.8342
G03 X-1.2294 Y67.5400 I1.4924 J0.1505
G01 X-0.6467 Y65.6629
G03 X-0.5325 Y65.3920 I1.4325 J0.4447
G01 X0.3895 Y63.6933
G03 X0.5508 Y63.4543 I1.3183 J0.7156
G01 X1.7719 Y61.9743
G03 X1.9743 Y61.7719 I1.1570 J0.9546
G01 X3.4543 Y60.5508
G03 X3.6934 Y60.3895 I0.9546 J1.1570
G01 X5.3920 Y59.4675
G03 X5.6162 Y59.3686 I0.7156 J1.3183
G01 X7.5400 Y58.7706
G03 X7.8342 Y58.7107 I0.4447 J1.4326
G01 X9.8496 Y58.5076
G01 X10.0000 Y58.5000
G01 X14.9454
G00 Z0.0000
G01 X19.4454
G00 Z-1.5000
G01 Z-3.0000 F300
G01 X56.2969 F2000
G00 Z0.0000
G01 X60.7969
G00 Z-1.5000
G01 Z-3.0000 F300
G01 X97.6485 F2000
G00 Z0.0000
G01 X102.1485
G00 Z5.0000

(Nr. 7 Teil 2)
G00 X10.0000 Y88.5000
G00 Z0.5000
G01 Z-1.0000 F300
G01 X160.0000 F2000
G01 X160.1004 Y88.5034
G01 X162.1658 Y88.7107
G03 X162.4600 Y88.7706 I-0.1504 J1.4923
G01 X164.3372 Y89.3533
G03 X164.6080 Y89.4675 I-0.4451 J1.4334
G01 X166.3067 Y90.3895
G03 X166.5457 Y90.5508 I-0.7160 J1.3189
G01 X168.0257 Y91.7719
G03 X168.2281 Y91.9743 I-0.9557 J1.1581
G01 X169.4492 Y93.4543
G03 X169.6105 Y93.6933 I-1.1578 J0.9552
G01 X170.5325 Y95.3920
G03 X170.6467 Y95.6628 I-1.3165 J0.7148
G01 X171.2294 Y97.5399
G03 X171.2834 Y97.7844 I-1.4317 J0.4445
G01 X171.4924 Y99.8495
G03 X171.4966 Y100.1004 I-1.4931 J0.1505
G01 X171.2893 Y102.1658
G03 X171.2435 Y102.4119 I-1.4927 J-0.1505
G01 X170.6467 Y104.3371
G03 X170.5325 Y104.6080 I-1.4311 J-0.4441
G01 X169.6105 Y106.3066
G03 X169.4492 Y106.5457 I-1.3191 J-0.7162
G01 X168.2281 Y108.0257
G03 X168.0257 Y108.2281 I-1.1570 J-0.9546
G01 X166.5457 Y109.4492
G03 X166.3067 Y109.6105 I-0.9546 J-1.1570
G01 X164.6080 Y110.5324
G03 X164.3371 Y110.6467 I-0.7154 J-1.3180
G01 X162.4600 Y111.2294
G03 X162.2156 Y111.2834 I-0.4446 J-1.4323
G01 X160.1505 Y111.4924
G01 X160.0502 Y111.4991
G01 X28.7500 Y111.4996
G01 X10.0000 Y111.5000
G01 X9.8496 Y111.4924
G01 X7.8342 Y111.2892
G03 X7.5400 Y111.2294 I0.1504 J-1.4924
G01 X5.6629 Y110.6467
G03 X5.4355 Y110.5552 I0.4450 J-1.4334
G01 X3.6934 Y109.6105
G03 X3.4543 Y109.4492 I0.7154 J-1.3181
G01 X1.9743 Y108.2281
G03 X1.7719 Y108.0257 I0.9548 J-1.1572
G01 X0.5508 Y106.5457
G03 X0.3895 Y106.3066 I1.1565 J-0.9543
G01 X-0.5325 Y104.6080
G03 X-0.6467 Y104.3371 I1.3179 J-0.7154
G01 X-1.2294 Y102.4600
G03 X-1.2893 Y102.1658 I1.4327 J-0.4447
G01 X-1.4924 Y100.1504
G03 Y99.8495 I1.4924 J-0.1505
G01 X-1.2893 Y97.8342
G03 X-1.2294 Y97.5399 I1.4924 J0.1504
G01 X-0.6467 Y95.6628
G03 X-0.5325 Y95.3920 I1.4326 J0.4447
G01 X0.3895 Y93.6933
G03 X0.5508 Y93.4543 I1.3185 J0.7157
G01 X1.7719 Y91.9743
G03 X1.9308 Y91.8092 I1.1573 J0.9548
G01 X3.4543 Y90.5508
G03 X3.6934 Y90.3895 I0.9549 J1.1574
G01 X5.3920 Y89.4675
G03 X5.6629 Y89.3533 I0.7158 J1.3188
G01 X7.5400 Y88.7706
G03 X7.8342 Y88.7107 I0.4447 J1.4325
G01 X9.8496 Y88.5076
G01 X10.0000 Y88.5000
G01 Z-2.0000 F300
G01 X160.0000 F2000
G01 X160.1004 Y88.5034
G01 X162.1658 Y88.7107
G03 X162.4600 Y88.7706 I-0.1504 J1.4923
G01 X164.3372 Y89.3533
G03 X164.6080 Y89.4675 I-0.4451 J1.4334
G01 X166.3067 Y90.3895
G03 X166.5457 Y90.5508 I-0.7160 J1.3189
G01 X168.0257 Y91.7719
G03 X168.2281 Y91.9743 I-0.9557 J1.1581
G01 X169.4492 Y93.4543
G03 X169.6105 Y93.6933 I-1.1578 J0.9552
G01 X170.5325 Y95.3920
G03 X170.6467 Y95.6628 I-1.3165 J0.7148
G01 X171.2294 Y97.5399
G03 X171.2834 Y97.7844 I-1.4317 J0.4445
G01 X171.4924 Y99.8495
G03 X171.4966 Y100.1004 I-1.4931 J0.1505
G01 X171.2893 Y102.1658
G03 X171.2435 Y102.4119 I-1.4927 J-0.1505
G01 X170.6467 Y104.3371
G03 X170.5325 Y104.6080 I-1.4311 J-0.4441
G01 X169.6105 Y106.3066
G03 X169.4492 Y106.5457 I-1.3191 J-0.7162
G01 X168.2281 Y108.0257
G03 X168.0257 Y108.2281 I-1.1570 J-0.9546
G01 X166.5457 Y109.4492
G03 X166.3067 Y109.6105 I-0.9546 J-1.1570
G01 X164.6080 Y110.5324
G03 X164.3371 Y110.6467 I-0.7154 J-1.3180
G01 X162.4600 Y111.2294
G03 X162.2156 Y111.2834 I-0.4446 J-1.4323
G01 X160.1505 Y111.4924
G01 X160.0502 Y111.4991
G01 X28.7500 Y111.4996
G01 X10.0000 Y111.5000
G01 X9.8496 Y111.4924
G01 X7.8342 Y111.2892
G03 X7.5400 Y111.2294 I0.1504 J-1.4924
G01 X5.6629 Y110.6467
G03 X5.4355 Y110.5552 I0.4450 J-1.4334
G01 X3.6934 Y109.6105
G03 X3.4543 Y109.4492 I0.7154 J-1.3181
G01 X1.9743 Y108.2281
G03 X1.7719 Y108.0257 I0.9548 J-1.1572
G01 X0.5508 Y106.5457
G03 X0.3895 Y106.3066 I1.1565 J-0.9543
G01 X-0.5325 Y104.6080
G03 X-0.6467 Y104.3371 I1.3179 J-0.7154
G01 X-1.2294 Y102.4600
G03 X-1.2893 Y102.1658 I1.4327 J-0.4447
G01 X-1.4924 Y100.1504
G03 Y99.8495 I1.4924 J-0.1505
G01 X-1.2893 Y97.8342
G03 X-1.2294 Y97.5399 I1.4924 J0.1504
G01 X-0.6467 Y95.6628
G03 X-0.5325 Y95.3920 I1.4326 J0.4447
G01 X0.3895 Y93.6933
G03 X0.5508 Y93.4543 I1.3185 J0.7157
G01 X1.7719 Y91.9743
G03 X1.9308 Y91.8092 I1.1573 J0.9548
G01 X3.4543 Y90.5508
G03 X3.6934 Y90.3895 I0.9549 J1.1574
G01 X5.3920 Y89.4675
G03 X5.6629 Y89.3533 I0.7158 J1.3188
G01 X7.5400 Y88.7706
G03 X7.8342 Y88.7107 I0.4447 J1.4325
G01 X9.8496 Y88.5076
G01 X10.0000 Y88.5000
G01 Z-3.0000 F300
G01 X160.0000 F2000
G01 X160.1004 Y88.5034
G01 X162.1658 Y88.7107
G03 X162.4600 Y88.7706 I-0.1504 J1.4923
G01 X164.3372 Y89.3533
G03 X164.6080 Y89.4675 I-0.4451 J1.4334
G01 X166.3067 Y90.3895
G03 X166.5457 Y90.5508 I-0.7160 J1.3189
G01 X168.0257 Y91.7719
G03 X168.2281 Y91.9743 I-0.9557 J1.1581
G01 X169.4492 Y93.4543
G03 X169.6105 Y93.6933 I-1.1578 J0.9552
G01 X170.5325 Y95.3920
G03 X170.6467 Y95.6628 I-1.3165 J0.7148
G01 X171.2294 Y97.5399
G03 X171.2834 Y97.7844 I-1.4317 J0.4445
G01 X171.4924 Y99.8495
G03 X171.4966 Y100.1004 I-1.4931 J0.1505
G01 X171.2893 Y102.1658
G03 X171.2435 Y102.4119 I-1.4927 J-0.1505
G01 X170.6467 Y104.3371
G03 X170.5325 Y104.6080 I-1.4311 J-0.4441
G01 X169.6105 Y106.3066
G03 X169.4492 Y106.5457 I-1.3191 J-0.7162
G01 X168.2281 Y108.0257
G03 X168.0257 Y108.2281 I-1.1570 J-0.9546
G01 X166.5457 Y109.4492
G03 X166.3067 Y109.6105 I-0.9546 J-1.1570
G01 X164.6080 Y110.5324
G03 X164.3371 Y110.6467 I-0.7154 J-1.3180
G01 X162.4600 Y111.2294
G03 X162.2156 Y111.2834 I-0.4446 J-1.4323
G01 X160.1505 Y111.4924
G01 X160.0502 Y111.4991
G01 X28.7500 Y111.4996
G01 X10.0000 Y111.5000
G01 X9.8496 Y111.4924
G01 X7.8342 Y111.2892
G03 X7.5400 Y111.2294 I0.1504 J-1.4924
G01 X5.6629 Y110.6467
G03 X5.4355 Y110.5552 I0.4450 J-1.4334
G01 X3.6934 Y109.6105
G03 X3.4543 Y109.4492 I0.7154 J-1.3181
G01 X1.9743 Y108.2281
G03 X1.7719 Y108.0257 I0.9548 J-1.1572
G01 X0.5508 Y106.5457
G03 X0.3895 Y106.3066 I1.1565 J-0.9543
G01 X-0.5325 Y104.6080
G03 X-0.6467 Y104.3371 I1.3179 J-0.7154
G01 X-1.2294 Y102.4600
G03 X-1.2893 Y102.1658 I1.4327 J-0.4447
G01 X-1.4924 Y100.1504
G03 Y99.8495 I1.4924 J-0.1505
G01 X-1.2893 Y97.8342
G03 X-1.2294 Y97.5399 I1.4924 J0.1504
G01 X-0.6467 Y95.6628
G03 X-0.5325 Y95.3920 I1.4326 J0.4447
G01 X0.3895 Y93.6933
G03 X0.5508 Y93.4543 I1.3185 J0.7157
G01 X1.7719 Y91.9743
G03 X1.9308 Y91.8092 I1.1573 J0.9548
G01 X3.4543 Y90.5508
G03 X3.6934 Y90.3895 I0.9549 J1.1574
G01 X5.3920 Y89.4675
G03 X5.6629 Y89.3533 I0.7158 J1.3188
G01 X7.5400 Y88.7706
G03 X7.8342 Y88.7107 I0.4447 J1.4325
G01 X9.8496 Y88.5076
G01 X10.0000 Y88.5000
G00 Z5.0000

(Nr. 8 Bohrung 1)
G00 Y130.0000
G00 Z0.5000
G01 Z-1.0000 F300
G00 Z0.5000
G00 Z-0.5000
G01 Z-2.0000
G00 Z0.5000
G00 Z-1.5000
G01 Z-3.0000
G00 Z0.5000
G00 Z5.0000

(Nr. 9 Bohrung 2)
G00 X40.0000
G00 Z0.5000
G01 Z-1.0000
G00 Z0.5000
G00 Z-0.5000
G01 Z-2.0000
G00 Z0.5000
G00 Z-1.5000
G01 Z-3.0000
G00 Z0.5000
G00 Z5.0000

(Nr. 10 Bohrung 3)
G00 X70.0000
G00 Z0.5000
G01 Z-1.0000
G00 Z0.5000
G00 Z-0.5000
G01 Z-2.0000
G00 Z0.5000
G00 Z-1.5000
G01 Z-3.0000
G00 Z0.5000
G00 Z5.0000

(Nr. 11 Bohrung 4)
G00 X100.0000
G00 Z0.5000
G01 Z-1.0000
G00 Z0.5000
G00 Z-0.5000
G01 Z-2.0000
G00 Z0.5000
G00 Z-1.5000
G01 Z-3.0000
G00 Z0.5000
G00 Z5.0000

(Nr. 12 Bohrung 6)
G00 X130.0000
G00 Z0.5000
G01 Z-1.0000
G00 Z0.5000
G00 Z-0.5000
G01 Z-2.0000
G00 Z0.5000
G00 Z-1.5000
G01 Z-3.0000
G00 Z0.5000
G00 Z5.0000

(Nr. 13 Bohrung 7)
G00 X160.0000
G00 Z0.5000
G01 Z-1.0000
G00 Z0.5000
G00 Z-0.5000
G01 Z-2.0000
G00 Z0.5000
G00 Z-1.5000
G01 Z-3.0000
G00 Z0.5000
G00 Z5.0000

(Nr. 14 Teil 1)
G00 X160.1505 Y118.5076
G00 Z0.5000
G01 Z-1.0000
G01 X162.1658 Y118.7107 F2000
G03 X162.4600 Y118.7706 I-0.1506 J1.4930
G01 X164.3371 Y119.3533
G03 X164.5645 Y119.4448 I-0.4445 J1.4321
G01 X166.3067 Y120.3895
G03 X166.5457 Y120.5508 I-0.7155 J1.3183
G01 X168.0257 Y121.7719
G03 X168.2281 Y121.9743 I-0.9557 J1.1581
G01 X169.4492 Y123.4543
G03 X169.5868 Y123.6514 I-1.1567 J0.9544
G01 X170.5325 Y125.3920
G03 X170.6314 Y125.6162 I-1.3175 J0.7152
G01 X171.2294 Y127.5399
G03 X171.2893 Y127.8342 I-1.4319 J0.4446
G01 X171.4924 Y129.8495
G03 X171.4966 Y130.1004 I-1.4921 J0.1505
G01 X171.2893 Y132.1658
G03 X171.2435 Y132.4119 I-1.4931 J-0.1505
G01 X170.6467 Y134.3371
G03 X170.5325 Y134.6080 I-1.4314 J-0.4442
G01 X169.6105 Y136.3066
G03 X169.4492 Y136.5457 I-1.3188 J-0.7159
G01 X168.2281 Y138.0257
G03 X168.0257 Y138.2281 I-1.1585 J-0.9561
G01 X166.5457 Y139.4492
G03 X166.3486 Y139.5868 I-0.9533 J-1.1552
G01 X164.6080 Y140.5325
G03 X164.3838 Y140.6314 I-0.7170 J-1.3214
G01 X162.4601 Y141.2294
G03 X162.1658 Y141.2893 I-0.4446 J-1.4321
G01 X160.1505 Y141.4924
G01 X160.0502 Y141.4991
G01 X28.7500 Y141.5000
G01 X10.0000
G01 X9.8496 Y141.4924
G01 X7.8342 Y141.2893
G03 X7.5400 Y141.2294 I0.1503 J-1.4917
G01 X5.6629 Y140.6467
G03 X5.3920 Y140.5325 I0.4440 J-1.4310
G01 X3.6934 Y139.6105
G03 X3.4919 Y139.4792 I0.7170 J-1.3206
G01 X1.9743 Y138.2281
G03 X1.8092 Y138.0692 I0.9541 J-1.1565
G01 X0.5508 Y136.5457
G03 X0.3895 Y136.3067 I1.1572 J-0.9548
G01 X-0.5325 Y134.6080
G03 X-0.6314 Y134.3838 I1.3185 J-0.7157
G01 X-1.2294 Y132.4600
G03 X-1.2893 Y132.1658 I1.4323 J-0.4446
G01 X-1.4924 Y130.1504
G03 Y129.8495 I1.4925 J-0.1505
G01 X-1.2893 Y127.8342
G03 X-1.2294 Y127.5399 I1.4924 J0.1504
G01 X-0.6467 Y125.6628
G03 X-0.5552 Y125.4355 I1.4325 J0.4446
G01 X0.3895 Y123.6933
G03 X0.5208 Y123.4919 I1.3182 J0.7155
G01 X1.7719 Y121.9743
G03 X1.9743 Y121.7719 I1.1571 J0.9547
G01 X3.4543 Y120.5508
G03 X3.6934 Y120.3895 I0.9545 J1.1568
G01 X5.3920 Y119.4675
G03 X5.6629 Y119.3533 I0.7154 J1.3181
G01 X7.5400 Y118.7706
G03 X7.8342 Y118.7107 I0.4449 J1.4332
G01 X9.8496 Y118.5076
G01 X9.9498 Y118.5008
G01 X160.0000 Y118.5000
G01 X160.1505 Y118.5076
G01 Z-2.0000 F300
G01 X162.1658 Y118.7107 F2000
G03 X162.4600 Y118.7706 I-0.1506 J1.4930
G01 X164.3371 Y119.3533
G03 X164.5645 Y119.4448 I-0.4445 J1.4321
G01 X166.3067 Y120.3895
G03 X166.5457 Y120.5508 I-0.7155 J1.3183
G01 X168.0257 Y121.7719
G03 X168.2281 Y121.9743 I-0.9557 J1.1581
G01 X169.4492 Y123.4543
G03 X169.5868 Y123.6514 I-1.1567 J0.9544
G01 X170.5325 Y125.3920
G03 X170.6314 Y125.6162 I-1.3175 J0.7152
G01 X171.2294 Y127.5399
G03 X171.2893 Y127.8342 I-1.4319 J0.4446
G01 X171.4924 Y129.8495
G03 X171.4966 Y130.1004 I-1.4921 J0.1505
G01 X171.2893 Y132.1658
G03 X171.2435 Y132.4119 I-1.4931 J-0.1505
G01 X170.6467 Y134.3371
G03 X170.5325 Y134.6080 I-1.4314 J-0.4442
G01 X169.6105 Y136.3066
G03 X169.4492 Y136.5457 I-1.3188 J-0.7159
G01 X168.2281 Y138.0257
G03 X168.0257 Y138.2281 I-1.1585 J-0.9561
G01 X166.5457 Y139.4492
G03 X166.3486 Y139.5868 I-0.9533 J-1.1552
G01 X164.6080 Y140.5325
G03 X164.3838 Y140.6314 I-0.7170 J-1.3214
G01 X162.4601 Y141.2294
G03 X162.1658 Y141.2893 I-0.4446 J-1.4321
G01 X160.1505 Y141.4924
G01 X160.0502 Y141.4991
G01 X28.7500 Y141.5000
G01 X10.0000
G01 X9.8496 Y141.4924
G01 X7.8342 Y141.2893
G03 X7.5400 Y141.2294 I0.1503 J-1.4917
G01 X5.6629 Y140.6467
G03 X5.3920 Y140.5325 I0.4440 J-1.4310
G01 X3.6934 Y139.6105
G03 X3.4919 Y139.4792 I0.7170 J-1.3206
G01 X1.9743 Y138.2281
G03 X1.8092 Y138.0692 I0.9541 J-1.1565
G01 X0.5508 Y136.5457
G03 X0.3895 Y136.3067 I1.1572 J-0.9548
G01 X-0.5325 Y134.6080
G03 X-0.6314 Y134.3838 I1.3185 J-0.7157
G01 X-1.2294 Y132.4600
G03 X-1.2893 Y132.1658 I1.4323 J-0.4446
G01 X-1.4924 Y130.1504
G03 Y129.8495 I1.4925 J-0.1505
G01 X-1.2893 Y127.8342
G03 X-1.2294 Y127.5399 I1.4924 J0.1504
G01 X-0.6467 Y125.6628
G03 X-0.5552 Y125.4355 I1.4325 J0.4446
G01 X0.3895 Y123.6933
G03 X0.5208 Y123.4919 I1.3182 J0.7155
G01 X1.7719 Y121.9743
G03 X1.9743 Y121.7719 I1.1571 J0.9547
G01 X3.4543 Y120.5508
G03 X3.6934 Y120.3895 I0.9545 J1.1568
G01 X5.3920 Y119.4675
G03 X5.6629 Y119.3533 I0.7154 J1.3181
G01 X7.5400 Y118.7706
G03 X7.8342 Y118.7107 I0.4449 J1.4332
G01 X9.8496 Y118.5076
G01 X9.9498 Y118.5008
G01 X160.0000 Y118.5000
G01 X160.1505 Y118.5076
G01 Z-3.0000 F300
G01 X162.1658 Y118.7107 F2000
G03 X162.4600 Y118.7706 I-0.1506 J1.4930
G01 X164.3371 Y119.3533
G03 X164.5645 Y119.4448 I-0.4445 J1.4321
G01 X166.3067 Y120.3895
G03 X166.5457 Y120.5508 I-0.7155 J1.3183
G01 X168.0257 Y121.7719
G03 X168.2281 Y121.9743 I-0.9557 J1.1581
G01 X169.4492 Y123.4543
G03 X169.5868 Y123.6514 I-1.1567 J0.9544
G01 X170.5325 Y125.3920
G03 X170.6314 Y125.6162 I-1.3175 J0.7152
G01 X171.2294 Y127.5399
G03 X171.2893 Y127.8342 I-1.4319 J0.4446
G01 X171.4924 Y129.8495
G03 X171.4966 Y130.1004 I-1.4921 J0.1505
G01 X171.2893 Y132.1658
G03 X171.2435 Y132.4119 I-1.4931 J-0.1505
G01 X170.6467 Y134.3371
G03 X170.5325 Y134.6080 I-1.4314 J-0.4442
G01 X169.6105 Y136.3066
G03 X169.4492 Y136.5457 I-1.3188 J-0.7159
G01 X168.2281 Y138.0257
G03 X168.0257 Y138.2281 I-1.1585 J-0.9561
G01 X166.5457 Y139.4492
G03 X166.3486 Y139.5868 I-0.9533 J-1.1552
G01 X164.6080 Y140.5325
G03 X164.3838 Y140.6314 I-0.7170 J-1.3214
G01 X162.4601 Y141.2294
G03 X162.1658 Y141.2893 I-0.4446 J-1.4321
G01 X160.1505 Y141.4924
G01 X160.0502 Y141.4991
G01 X28.7500 Y141.5000
G01 X10.0000
G01 X9.8496 Y141.4924
G01 X7.8342 Y141.2893
G03 X7.5400 Y141.2294 I0.1503 J-1.4917
G01 X5.6629 Y140.6467
G03 X5.3920 Y140.5325 I0.4440 J-1.4310
G01 X3.6934 Y139.6105
G03 X3.4919 Y139.4792 I0.7170 J-1.3206
G01 X1.9743 Y138.2281
G03 X1.8092 Y138.0692 I0.9541 J-1.1565
G01 X0.5508 Y136.5457
G03 X0.3895 Y136.3067 I1.1572 J-0.9548
G01 X-0.5325 Y134.6080
G03 X-0.6314 Y134.3838 I1.3185 J-0.7157
G01 X-1.2294 Y132.4600
G03 X-1.2893 Y132.1658 I1.4323 J-0.4446
G01 X-1.4924 Y130.1504
G03 Y129.8495 I1.4925 J-0.1505
G01 X-1.2893 Y127.8342
G03 X-1.2294 Y127.5399 I1.4924 J0.1504
G01 X-0.6467 Y125.6628
G03 X-0.5552 Y125.4355 I1.4325 J0.4446
G01 X0.3895 Y123.6933
G03 X0.5208 Y123.4919 I1.3182 J0.7155
G01 X1.7719 Y121.9743
G03 X1.9743 Y121.7719 I1.1571 J0.9547
G01 X3.4543 Y120.5508
G03 X3.6934 Y120.3895 I0.9545 J1.1568
G01 X5.3920 Y119.4675
G03 X5.6629 Y119.3533 I0.7154 J1.3181
G01 X7.5400 Y118.7706
G03 X7.8342 Y118.7107 I0.4449 J1.4332
G01 X9.8496 Y118.5076
G01 X9.9498 Y118.5008
G01 X160.0000 Y118.5000
G01 X160.1505 Y118.5076
G00 Z5.0000
G00 X0.0000 Y0.0000

M05
M30
