; generated by Slic3r 1.0.1 on 2014-05-03 at 12:36:36

; layer_height = 0.2
; perimeters = 3
; top_solid_layers = 5
; bottom_solid_layers = 5
; fill_density = 0.3
; perimeter_speed = 80
; infill_speed = 150
; travel_speed = 150
; nozzle_diameter = 0.3
; filament_diameter = 1.7
; extrusion_multiplier = 1
; perimeters extrusion width = 0.30mm
; infill extrusion width = 0.30mm
; solid infill extrusion width = 0.30mm
; top infill extrusion width = 0.30mm
; first layer extrusion width = 0.30mm

G21 ; set units to millimeters
M190 S110 ; wait for bed temperature to be reached
M104 S255 ; set temperature
G28 ; home all axes
G1 Z5 F5000 ; lift nozzle
; M105; fan off
G92 E0 ; set extruded length zero
; G0 E20 ; grab some filament
G92 E0 ; set extruded length zero again
M109 S255 ; wait for temperature to be reached
G90 ; use absolute coordinates
G92 E0
M82 ; use absolute distances for extrusion
M106 S127
G1 Z0.200 F9000.000
; next layer
G1 F2400.000 E-4.50000
G92 E0
G1 X76.400 Y57.560 F9000.000
G1 E4.50000 F2400.000
G1 X77.490 Y56.240 E4.54525 F1200.000
G1 X77.850 Y55.850 E4.55928
G1 X78.240 Y55.490 E4.57331
G1 X79.560 Y54.400 E4.61856
G1 X80.010 Y54.070 E4.63331
G1 X80.500 Y53.780 E4.64837
G1 X82.020 Y52.970 E4.69389
G1 X82.510 Y52.740 E4.70820
G1 X83.020 Y52.550 E4.72259
G1 X84.660 Y52.050 E4.76791
G1 X85.190 Y51.920 E4.78234
G1 X85.740 Y51.840 E4.79703
G1 X87.360 Y51.680 E4.84006
G1 X87.910 Y51.650 E4.85462
G1 X112.000 Y51.650 E5.49142
G1 X112.520 Y51.670 E5.50517
G1 X114.220 Y51.830 E5.55031
G1 X114.780 Y51.920 E5.56530
G1 X115.330 Y52.050 E5.58024
G1 X116.970 Y52.550 E5.62556
G1 X117.480 Y52.740 E5.63995
G1 X117.970 Y52.970 E5.65426
G1 X119.490 Y53.780 E5.69979
G1 X119.980 Y54.070 E5.71484
G1 X120.430 Y54.400 E5.72959
G1 X121.750 Y55.490 E5.77484
G1 X122.140 Y55.850 E5.78887
G1 X122.500 Y56.240 E5.80290
G1 X123.590 Y57.560 E5.84815
G1 X123.920 Y58.010 E5.86290
G1 X124.210 Y58.500 E5.87795
G1 X125.020 Y60.020 E5.92348
G1 X125.250 Y60.510 E5.93779
G1 X125.440 Y61.020 E5.95218
G1 X125.940 Y62.660 E5.99750
G1 X126.070 Y63.190 E6.01193
G1 X126.150 Y63.730 E6.02636
G1 X126.320 Y65.430 E6.07152
G1 X126.350 Y65.990 E6.08634
G1 X126.350 Y113.990 E7.35518
G1 X126.320 Y114.540 E7.36974
G1 X126.150 Y116.250 E7.41516
G1 X126.070 Y116.800 E7.42985
G1 X125.940 Y117.330 E7.44428
G1 X125.440 Y118.970 E7.48960
G1 X125.250 Y119.480 E7.50399
G1 X125.020 Y119.970 E7.51829
G1 X124.210 Y121.490 E7.56382
G1 X123.920 Y121.980 E7.57887
G1 X123.590 Y122.430 E7.59363
G1 X122.500 Y123.750 E7.63888
G1 X122.140 Y124.140 E7.65291
G1 X121.750 Y124.500 E7.66694
G1 X120.430 Y125.590 E7.71219
G1 X119.980 Y125.920 E7.72694
G1 X119.490 Y126.210 E7.74199
G1 X117.970 Y127.020 E7.78752
G1 X117.480 Y127.250 E7.80183
G1 X116.970 Y127.440 E7.81622
G1 X115.330 Y127.940 E7.86154
G1 X114.800 Y128.070 E7.87596
G1 X114.260 Y128.150 E7.89039
G1 X112.560 Y128.320 E7.93555
G1 X112.000 Y128.350 E7.95038
G1 X88.000 Y128.350 E8.58480
G1 X87.450 Y128.320 E8.59936
G1 X85.740 Y128.150 E8.64478
G1 X85.190 Y128.070 E8.65947
G1 X84.660 Y127.940 E8.67390
G1 X83.020 Y127.440 E8.71922
G1 X82.510 Y127.250 E8.73361
G1 X82.020 Y127.020 E8.74792
G1 X80.500 Y126.210 E8.79344
G1 X80.010 Y125.920 E8.80850
G1 X79.560 Y125.590 E8.82325
G1 X78.240 Y124.500 E8.86850
G1 X77.850 Y124.140 E8.88253
G1 X77.490 Y123.750 E8.89656
G1 X76.400 Y122.430 E8.94181
G1 X76.070 Y121.980 E8.95656
G1 X75.780 Y121.490 E8.97161
G1 X74.970 Y119.970 E9.01714
G1 X74.740 Y119.480 E9.03145
G1 X74.550 Y118.970 E9.04584
G1 X74.050 Y117.330 E9.09116
G1 X73.920 Y116.780 E9.10610
G1 X73.830 Y116.220 E9.12109
G1 X73.670 Y114.510 E9.16649
G1 X73.650 Y113.990 E9.18025
G1 X73.650 Y65.990 E10.44908
G1 X73.670 Y65.470 E10.46283
G1 X73.830 Y63.770 E10.50797
G1 X73.920 Y63.210 E10.52296
G1 X74.050 Y62.660 E10.53790
G1 X74.550 Y61.020 E10.58323
G1 X74.740 Y60.510 E10.59761
G1 X74.970 Y60.020 E10.61192
G1 X75.780 Y58.500 E10.65745
G1 X76.070 Y58.010 E10.67250
G1 X76.373 Y57.596 E10.68606
G1 X76.630 Y57.760 F9000.000
G1 X77.720 Y56.440 E10.73131 F1200.000
G1 X78.060 Y56.060 E10.74479
G1 X78.440 Y55.720 E10.75827
G1 X79.760 Y54.630 E10.80352
G1 X80.180 Y54.320 E10.81732
G1 X80.640 Y54.040 E10.83156
G1 X82.160 Y53.230 E10.87709
G1 X82.620 Y53.010 E10.89056
G1 X83.100 Y52.840 E10.90403
G1 X84.740 Y52.340 E10.94935
G1 X85.250 Y52.210 E10.96326
G1 X85.770 Y52.140 E10.97713
G1 X87.390 Y51.980 E11.02016
G1 X87.910 Y51.950 E11.03393
G1 X112.000 Y51.950 E11.67073
G1 X112.500 Y51.970 E11.68395
G1 X114.200 Y52.130 E11.72909
G1 X114.730 Y52.210 E11.74326
G1 X115.250 Y52.340 E11.75743
G1 X116.890 Y52.840 E11.80275
G1 X117.370 Y53.010 E11.81621
G1 X117.830 Y53.230 E11.82969
G1 X119.350 Y54.040 E11.87522
G1 X119.810 Y54.320 E11.88945
G1 X120.230 Y54.630 E11.90325
G1 X121.550 Y55.720 E11.94850
G1 X121.930 Y56.060 E11.96198
G1 X122.270 Y56.440 E11.97546
G1 X123.360 Y57.760 E12.02071
G1 X123.670 Y58.180 E12.03451
G1 X123.950 Y58.640 E12.04875
G1 X124.760 Y60.160 E12.09427
G1 X124.980 Y60.620 E12.10775
G1 X125.150 Y61.100 E12.12121
G1 X125.650 Y62.740 E12.16654
G1 X125.780 Y63.250 E12.18045
G1 X125.850 Y63.760 E12.19406
G1 X126.020 Y65.460 E12.23922
G1 X126.050 Y65.990 E12.25325
G1 X126.050 Y113.990 E13.52208
G1 X126.020 Y114.510 E13.53585
G1 X125.850 Y116.220 E13.58128
G1 X125.780 Y116.740 E13.59515
G1 X125.650 Y117.250 E13.60906
G1 X125.150 Y118.890 E13.65438
G1 X124.980 Y119.370 E13.66784
G1 X124.760 Y119.830 E13.68132
G1 X123.950 Y121.350 E13.72685
G1 X123.670 Y121.810 E13.74109
G1 X123.360 Y122.230 E13.75488
G1 X122.270 Y123.550 E13.80014
G1 X121.930 Y123.930 E13.81361
G1 X121.550 Y124.270 E13.82709
G1 X120.230 Y125.360 E13.87235
G1 X119.810 Y125.670 E13.88614
G1 X119.350 Y125.950 E13.90038
G1 X117.830 Y126.760 E13.94591
G1 X117.370 Y126.980 E13.95939
G1 X116.890 Y127.150 E13.97285
G1 X115.250 Y127.650 E14.01817
G1 X114.740 Y127.780 E14.03208
G1 X114.230 Y127.850 E14.04569
G1 X112.530 Y128.020 E14.09085
G1 X112.000 Y128.050 E14.10488
G1 X88.000 Y128.050 E14.73930
G1 X87.480 Y128.020 E14.75307
G1 X85.770 Y127.850 E14.79849
G1 X85.250 Y127.780 E14.81236
G1 X84.740 Y127.650 E14.82628
G1 X83.100 Y127.150 E14.87160
G1 X82.620 Y126.980 E14.88506
G1 X82.160 Y126.760 E14.89854
G1 X80.640 Y125.950 E14.94407
G1 X80.180 Y125.670 E14.95830
G1 X79.760 Y125.360 E14.97210
G1 X78.440 Y124.270 E15.01735
G1 X78.060 Y123.930 E15.03083
G1 X77.720 Y123.550 E15.04431
G1 X76.630 Y122.230 E15.08956
G1 X76.320 Y121.810 E15.10336
G1 X76.040 Y121.350 E15.11760
G1 X75.230 Y119.830 E15.16312
G1 X75.010 Y119.370 E15.17660
G1 X74.840 Y118.890 E15.19006
G1 X74.340 Y117.250 E15.23539
G1 X74.210 Y116.720 E15.24981
G1 X74.130 Y116.190 E15.26398
G1 X73.970 Y114.480 E15.30938
G1 X73.950 Y113.990 E15.32234
G1 X73.950 Y65.990 E16.59118
G1 X73.970 Y65.490 E16.60440
G1 X74.130 Y63.790 E16.64954
G1 X74.210 Y63.260 E16.66371
G1 X74.340 Y62.740 E16.67788
G1 X74.840 Y61.100 E16.72320
G1 X75.010 Y60.620 E16.73666
G1 X75.230 Y60.160 E16.75014
G1 X76.040 Y58.640 E16.79567
G1 X76.320 Y58.180 E16.80990
G1 X76.603 Y57.796 E16.82251
G1 F2400.000 E12.32251
G92 E0
G1 X117.293 Y89.193 F9000.000
G1 E4.50000 F2400.000
M204 S1500
G1 X117.473 Y88.973 E4.50753 F600.000
G1 X117.693 Y88.793 E4.51505
G1 X117.944 Y88.658 E4.52258
G1 X118.217 Y88.576 E4.53010
G1 X118.500 Y88.548 E4.53763
G1 X118.783 Y88.576 E4.54515
G1 X119.056 Y88.658 E4.55268
G1 X119.307 Y88.793 E4.56020
G1 X119.527 Y88.973 E4.56773
G1 X119.707 Y89.193 E4.57525
G1 X119.842 Y89.444 E4.58278
G1 X119.924 Y89.717 E4.59030
G1 X119.952 Y90.000 E4.59783
G1 X119.924 Y90.283 E4.60535
G1 X119.842 Y90.556 E4.61288
G1 X119.707 Y90.807 E4.62040
G1 X119.527 Y91.027 E4.62793
G1 X119.307 Y91.207 E4.63545
G1 X119.056 Y91.342 E4.64298
G1 X118.783 Y91.424 E4.65050
G1 X118.500 Y91.452 E4.65803
G1 X118.217 Y91.424 E4.66555
G1 X117.944 Y91.342 E4.67308
G1 X117.693 Y91.207 E4.68060
G1 X117.473 Y91.027 E4.68813
G1 X117.293 Y90.807 E4.69565
G1 X117.158 Y90.556 E4.70318
G1 X117.076 Y90.283 E4.71070
G1 X117.048 Y90.000 E4.71823
G1 X117.076 Y89.717 E4.72575
G1 X117.158 Y89.444 E4.73328
G1 X117.271 Y89.233 E4.73962
M204 S2000
G1 X117.532 Y89.382 F9000.000
M204 S1500
G1 X117.686 Y89.186 E4.74622 F600.000
G1 X117.861 Y89.043 E4.75218
G1 X118.060 Y88.937 E4.75814
G1 X118.276 Y88.871 E4.76411
G1 X118.500 Y88.849 E4.77007
G1 X118.725 Y88.871 E4.77603
G1 X118.940 Y88.937 E4.78199
G1 X119.139 Y89.043 E4.78796
G1 X119.314 Y89.186 E4.79392
G1 X119.457 Y89.361 E4.79988
G1 X119.563 Y89.560 E4.80585
G1 X119.629 Y89.776 E4.81181
G1 X119.651 Y90.000 E4.81777
G1 X119.629 Y90.225 E4.82374
G1 X119.563 Y90.440 E4.82970
G1 X119.457 Y90.639 E4.83566
G1 X119.314 Y90.814 E4.84163
G1 X119.139 Y90.957 E4.84759
G1 X118.940 Y91.063 E4.85355
G1 X118.724 Y91.129 E4.85951
G1 X118.500 Y91.151 E4.86548
G1 X118.275 Y91.129 E4.87144
G1 X118.060 Y91.063 E4.87740
G1 X117.861 Y90.957 E4.88337
G1 X117.686 Y90.814 E4.88933
G1 X117.543 Y90.639 E4.89529
G1 X117.437 Y90.440 E4.90126
G1 X117.371 Y90.224 E4.90722
G1 X117.349 Y90.000 E4.91318
G1 X117.371 Y89.775 E4.91914
G1 X117.437 Y89.560 E4.92511
G1 X117.510 Y89.422 E4.92923
M204 S2000
G1 X117.426 Y89.156 F9000.000
G1 F2400.000 E0.42923
G92 E0
G1 X106.952 Y90.000 F9000.000
G1 E4.50000 F2400.000
M204 S1500
G1 X106.924 Y90.283 E4.50753 F600.000
G1 X106.842 Y90.556 E4.51505
G1 X106.707 Y90.807 E4.52258
G1 X106.527 Y91.027 E4.53010
G1 X106.307 Y91.207 E4.53763
G1 X106.056 Y91.342 E4.54515
G1 X105.783 Y91.424 E4.55268
G1 X105.500 Y91.452 E4.56020
G1 X105.217 Y91.424 E4.56773
G1 X104.944 Y91.342 E4.57525
G1 X104.693 Y91.207 E4.58278
G1 X104.473 Y91.027 E4.59030
G1 X104.293 Y90.807 E4.59783
G1 X104.158 Y90.556 E4.60535
G1 X104.076 Y90.283 E4.61288
G1 X104.048 Y90.000 E4.62040
G1 X104.076 Y89.717 E4.62793
G1 X104.158 Y89.444 E4.63545
G1 X104.293 Y89.193 E4.64298
G1 X104.473 Y88.973 E4.65050
G1 X104.693 Y88.793 E4.65803
G1 X104.944 Y88.658 E4.66555
G1 X105.217 Y88.576 E4.67308
G1 X105.500 Y88.548 E4.68060
G1 X105.783 Y88.576 E4.68813
G1 X106.056 Y88.658 E4.69565
G1 X106.307 Y88.793 E4.70318
G1 X106.527 Y88.973 E4.71070
G1 X106.707 Y89.193 E4.71823
G1 X106.842 Y89.444 E4.72575
G1 X106.924 Y89.717 E4.73328
G1 X106.948 Y89.955 E4.73962
M204 S2000
G1 X106.648 Y89.976 F9000.000
M204 S1500
G1 X106.629 Y90.225 E4.74622 F600.000
G1 X106.563 Y90.440 E4.75218
G1 X106.457 Y90.639 E4.75814
G1 X106.314 Y90.814 E4.76411
G1 X106.139 Y90.957 E4.77007
G1 X105.940 Y91.063 E4.77603
G1 X105.724 Y91.129 E4.78200
G1 X105.500 Y91.151 E4.78796
G1 X105.275 Y91.129 E4.79392
G1 X105.060 Y91.063 E4.79988
G1 X104.861 Y90.957 E4.80585
G1 X104.686 Y90.814 E4.81181
G1 X104.543 Y90.639 E4.81777
G1 X104.437 Y90.440 E4.82374
G1 X104.371 Y90.225 E4.82970
G1 X104.349 Y90.000 E4.83566
G1 X104.371 Y89.775 E4.84163
G1 X104.437 Y89.560 E4.84759
G1 X104.543 Y89.361 E4.85355
G1 X104.686 Y89.186 E4.85951
G1 X104.861 Y89.043 E4.86548
G1 X105.060 Y88.937 E4.87144
G1 X105.276 Y88.871 E4.87740
G1 X105.500 Y88.849 E4.88337
G1 X105.724 Y88.871 E4.88933
G1 X105.940 Y88.937 E4.89529
G1 X106.139 Y89.043 E4.90126
G1 X106.314 Y89.186 E4.90722
G1 X106.457 Y89.361 E4.91318
G1 X106.563 Y89.560 E4.91914
G1 X106.629 Y89.775 E4.92511
G1 X106.644 Y89.931 E4.92923
M204 S2000
G1 X106.862 Y90.105 F9000.000
G1 X108.646 Y90.000 F9000.000
M204 S1500
G1 X108.711 Y89.346 E4.94661 F600.000
G1 X108.902 Y88.717 E4.96399
G1 X109.212 Y88.137 E4.98137
G1 X109.629 Y87.629 E4.99875
G1 X110.137 Y87.212 E5.01612
G1 X110.717 Y86.902 E5.03350
G1 X111.346 Y86.711 E5.05088
G1 X112.000 Y86.646 E5.06826
G1 X112.654 Y86.711 E5.08564
G1 X113.283 Y86.902 E5.10302
G1 X113.863 Y87.212 E5.12039
G1 X114.371 Y87.629 E5.13777
G1 X114.788 Y88.137 E5.15515
G1 X115.098 Y88.717 E5.17253
G1 X115.289 Y89.346 E5.18991
G1 X115.354 Y90.000 E5.20729
G1 X115.289 Y90.654 E5.22467
G1 X115.098 Y91.283 E5.24204
G1 X114.788 Y91.863 E5.25942
G1 X114.371 Y92.371 E5.27680
G1 X113.863 Y92.788 E5.29418
G1 X113.283 Y93.098 E5.31156
G1 X112.654 Y93.289 E5.32894
G1 X112.000 Y93.354 E5.34631
G1 X111.346 Y93.289 E5.36369
G1 X110.717 Y93.098 E5.38107
G1 X110.137 Y92.788 E5.39845
G1 X109.629 Y92.371 E5.41583
G1 X109.212 Y91.863 E5.43321
G1 X108.902 Y91.283 E5.45058
G1 X108.711 Y90.654 E5.46796
G1 X108.651 Y90.045 E5.48415
M204 S2000
G1 X108.948 Y90.000 F9000.000
M204 S1500
G1 X109.006 Y89.405 E5.49997 F600.000
G1 X109.180 Y88.832 E5.51579
G1 X109.462 Y88.304 E5.53160
G1 X109.842 Y87.842 E5.54742
G1 X110.304 Y87.462 E5.56323
G1 X110.832 Y87.180 E5.57905
G1 X111.405 Y87.006 E5.59487
G1 X112.000 Y86.948 E5.61068
G1 X112.595 Y87.006 E5.62650
G1 X113.168 Y87.180 E5.64232
G1 X113.696 Y87.462 E5.65813
G1 X114.158 Y87.842 E5.67395
G1 X114.538 Y88.304 E5.68976
G1 X114.820 Y88.832 E5.70558
G1 X114.994 Y89.405 E5.72140
G1 X115.052 Y90.000 E5.73721
G1 X114.994 Y90.595 E5.75303
G1 X114.820 Y91.168 E5.76885
G1 X114.538 Y91.696 E5.78466
G1 X114.158 Y92.158 E5.80048
G1 X113.696 Y92.538 E5.81629
G1 X113.168 Y92.820 E5.83211
G1 X112.595 Y92.994 E5.84793
G1 X112.000 Y93.052 E5.86374
G1 X111.405 Y92.994 E5.87956
G1 X110.832 Y92.820 E5.89538
G1 X110.304 Y92.538 E5.91119
G1 X109.842 Y92.158 E5.92701
G1 X109.462 Y91.696 E5.94283
G1 X109.180 Y91.168 E5.95864
G1 X109.006 Y90.595 E5.97446
G1 X108.952 Y90.045 E5.98908
M204 S2000
G1 X109.249 Y90.000 F9000.000
M204 S1500
G1 X109.302 Y89.463 E6.00334 F600.000
G1 X109.459 Y88.947 E6.01759
G1 X109.713 Y88.472 E6.03185
G1 X110.055 Y88.055 E6.04610
G1 X110.472 Y87.713 E6.06036
G1 X110.947 Y87.459 E6.07461
G1 X111.463 Y87.302 E6.08886
G1 X112.000 Y87.249 E6.10312
G1 X112.537 Y87.302 E6.11737
G1 X113.053 Y87.459 E6.13163
G1 X113.528 Y87.713 E6.14588
G1 X113.945 Y88.055 E6.16013
G1 X114.287 Y88.472 E6.17439
G1 X114.541 Y88.947 E6.18864
G1 X114.698 Y89.463 E6.20290
G1 X114.751 Y90.000 E6.21715
G1 X114.698 Y90.537 E6.23141
G1 X114.541 Y91.053 E6.24566
G1 X114.287 Y91.528 E6.25991
G1 X113.945 Y91.945 E6.27417
G1 X113.528 Y92.287 E6.28842
G1 X113.053 Y92.541 E6.30268
G1 X112.537 Y92.698 E6.31693
G1 X112.000 Y92.751 E6.33119
G1 X111.463 Y92.698 E6.34544
G1 X110.947 Y92.541 E6.35969
G1 X110.472 Y92.287 E6.37395
G1 X110.055 Y91.945 E6.38820
G1 X109.713 Y91.528 E6.40246
G1 X109.459 Y91.053 E6.41671
G1 X109.302 Y90.537 E6.43096
G1 X109.254 Y90.045 E6.44403
M204 S2000
G1 X108.995 Y89.842 F9000.000
G1 X107.254 Y90.000 F9000.000
M204 S1500
G1 X107.220 Y89.658 E6.45312 F1200.000
G1 X107.120 Y89.329 E6.46220
G1 X106.958 Y89.026 E6.47129
G1 X106.740 Y88.760 E6.48038
G1 X106.474 Y88.542 E6.48947
G1 X106.171 Y88.380 E6.49855
G1 X105.842 Y88.280 E6.50764
G1 X105.759 Y88.272 E6.50985
G1 X105.500 Y88.246 E6.51673
G1 X105.158 Y88.280 E6.52581
G1 X104.829 Y88.380 E6.53490
G1 X104.526 Y88.542 E6.54399
G1 X104.114 Y88.880 E6.55807
G1 X104.157 Y88.440 E6.56975
G1 X104.612 Y86.940 E6.61119
G1 X105.351 Y85.557 E6.65263
G1 X106.346 Y84.346 E6.69407
G1 X107.557 Y83.351 E6.73550
G1 X108.940 Y82.612 E6.77694
G1 X110.440 Y82.157 E6.81838
G1 X112.000 Y82.004 E6.85981
G1 X113.560 Y82.157 E6.90125
G1 X115.060 Y82.612 E6.94269
G1 X116.443 Y83.351 E6.98412
G1 X117.654 Y84.346 E7.02556
G1 X118.649 Y85.557 E7.06700
G1 X119.388 Y86.940 E7.10844
G1 X119.843 Y88.440 E7.14987
G1 X119.886 Y88.880 E7.16156
G1 X119.474 Y88.542 E7.17564
G1 X119.171 Y88.380 E7.18472
G1 X118.842 Y88.280 E7.19381
G1 X118.500 Y88.246 E7.20290
G1 X118.417 Y88.255 E7.20511
G1 X118.158 Y88.280 E7.21199
G1 X117.829 Y88.380 E7.22107
G1 X117.526 Y88.542 E7.23016
G1 X117.260 Y88.760 E7.23925
G1 X117.207 Y88.825 E7.24146
G1 X117.042 Y89.026 E7.24834
G1 X116.880 Y89.329 E7.25742
G1 X116.780 Y89.658 E7.26651
G1 X116.746 Y90.000 E7.27560
G1 X116.772 Y90.259 E7.28247
G1 X116.780 Y90.342 E7.28468
G1 X116.880 Y90.671 E7.29377
G1 X117.042 Y90.974 E7.30286
G1 X117.260 Y91.240 E7.31195
G1 X117.526 Y91.458 E7.32103
G1 X117.829 Y91.620 E7.33012
G1 X118.158 Y91.720 E7.33921
G1 X118.500 Y91.754 E7.34829
G1 X118.842 Y91.720 E7.35738
G1 X119.171 Y91.620 E7.36647
G1 X119.474 Y91.458 E7.37556
G1 X119.886 Y91.120 E7.38964
G1 X119.843 Y91.560 E7.40132
G1 X119.388 Y93.060 E7.44276
G1 X118.649 Y94.443 E7.48420
G1 X117.654 Y95.654 E7.52563
G1 X116.443 Y96.649 E7.56707
G1 X115.060 Y97.388 E7.60851
G1 X113.560 Y97.843 E7.64994
