(Projekt becken-boden)
(Erstellt mit Estlcam 2.5D Version 7 Build 7,101)
(Fraesrichtung: Gegenlauf)
(Nullpunkt: Auf Teileoberseite)
(Maximale Fraestiefe: 3,00mm)
(Verwendete Werkzeuge:)
(Fraeser 2mm)

G90
M03
G00 Z5.0000

(Nr. 1 Teil 1)
G00 X-0.8660 Y-0.5000
G00 Z0.5000
G01 Z-1.0000 F300 S24000
G03 X0.0000 Y-1.0000 I0.8660 J0.5000 F2000
G01 X320.0000
G03 X321.0000 Y0.0000 I0.0000 J1.0000
G01 Y92.0720
G03 X320.0000 Y93.0720 I-1.0000 J0.0000
G01 X0.0000
G03 X-1.0000 Y92.0720 I0.0000 J-1.0000
G01 Y0.0000
G03 X-0.8660 Y-0.5000 I1.0000 J0.0000
G01 Z-2.0000 F300
G03 X0.0000 Y-1.0000 I0.8660 J0.5000 F2000
G01 X320.0000
G03 X321.0000 Y0.0000 I0.0000 J1.0000
G01 Y92.0720
G03 X320.0000 Y93.0720 I-1.0000 J0.0000
G01 X0.0000
G03 X-1.0000 Y92.0720 I0.0000 J-1.0000
G01 Y0.0000
G03 X-0.8660 Y-0.5000 I1.0000 J0.0000
G01 Z-3.0000 F300
G03 X0.0000 Y-1.0000 I0.8660 J0.5000 F2000
G01 X320.0000
G03 X321.0000 Y0.0000 I0.0000 J1.0000
G01 Y92.0720
G03 X320.0000 Y93.0720 I-1.0000 J0.0000
G01 X0.0000
G03 X-1.0000 Y92.0720 I0.0000 J-1.0000
G01 Y0.0000
G03 X-0.8660 Y-0.5000 I1.0000 J0.0000
G00 Z5.0000
G00 X0.0000 Y0.0000

M05
M30
