(Projekt becken-seite-2x)
(Erstellt mit Estlcam 2.5D Version 7 Build 7,101)
(Fraesrichtung: Gegenlauf)
(Nullpunkt: Auf Teileoberseite)
(Maximale Fraestiefe: 3,00mm)
(Verwendete Werkzeuge:)
(Fraeser 2mm)

G90
M03
G00 Z5.0000

(Nr. 1 Teil 2)
G00 X2.0000 Y0.0000
G00 Z0.5000
G01 Z-1.0000 F300 S24000
G03 X3.0000 Y-1.0000 I1.0000 J0.0000 F2000
G01 X323.0005 Y-0.9995
G03 X323.9999 Y-0.0344 I0.0000 J1.0000
G01 X324.0005 Y107.2862
G01 X326.0002 Y107.2865
G03 X327.0000 Y108.2865 I-0.0002 J1.0000
G01 Y148.7860
G03 X326.0000 Y149.7860 I-1.0000 J0.0000
G01 X0.0000
G03 X-1.0000 Y148.7860 I0.0000 J-1.0000
G01 Y108.2860
G03 X0.0000 Y107.2860 I1.0000 J0.0000
G01 X2.0000
G01 Y0.0000
G01 Z-2.0000 F300
G03 X3.0000 Y-1.0000 I1.0000 J0.0000 F2000
G01 X323.0005 Y-0.9995
G03 X323.9999 Y-0.0344 I0.0000 J1.0000
G01 X324.0005 Y107.2862
G01 X326.0002 Y107.2865
G03 X327.0000 Y108.2865 I-0.0002 J1.0000
G01 Y148.7860
G03 X326.0000 Y149.7860 I-1.0000 J0.0000
G01 X0.0000
G03 X-1.0000 Y148.7860 I0.0000 J-1.0000
G01 Y108.2860
G03 X0.0000 Y107.2860 I1.0000 J0.0000
G01 X2.0000
G01 Y0.0000
G01 Z-3.0000 F300
G03 X3.0000 Y-1.0000 I1.0000 J0.0000 F2000
G01 X323.0005 Y-0.9995
G03 X323.9999 Y-0.0344 I0.0000 J1.0000
G01 X324.0005 Y107.2862
G01 X326.0002 Y107.2865
G03 X327.0000 Y108.2865 I-0.0002 J1.0000
G01 Y148.7860
G03 X326.0000 Y149.7860 I-1.0000 J0.0000
G01 X0.0000
G03 X-1.0000 Y148.7860 I0.0000 J-1.0000
G01 Y108.2860
G03 X0.0000 Y107.2860 I1.0000 J0.0000
G01 X2.0000
G01 Y0.0000
G00 Z5.0000

(Nr. 2 Teil 1)
G00 X3.0000 Y169.0000
G00 Z0.5000
G01 Z-1.0000 F300
G01 X323.0005 Y169.0005 F2000
G03 X323.9999 Y169.9656 I0.0000 J1.0000
G01 X324.0005 Y277.2862
G01 X326.0002 Y277.2865
G03 X326.9994 Y278.2516 I-0.0002 J1.0000
G01 X327.0000 Y318.7860
G03 X326.0000 Y319.7860 I-1.0000 J0.0000
G01 X0.0000
G03 X-1.0000 Y318.7860 I0.0000 J-1.0000
G01 Y278.2860
G03 X0.0000 Y277.2860 I1.0000 J0.0000
G01 X2.0000
G01 Y170.0000
G03 X3.0000 Y169.0000 I1.0000 J0.0000
G01 Z-2.0000 F300
G01 X323.0005 Y169.0005 F2000
G03 X323.9999 Y169.9656 I0.0000 J1.0000
G01 X324.0005 Y277.2862
G01 X326.0002 Y277.2865
G03 X326.9994 Y278.2516 I-0.0002 J1.0000
G01 X327.0000 Y318.7860
G03 X326.0000 Y319.7860 I-1.0000 J0.0000
G01 X0.0000
G03 X-1.0000 Y318.7860 I0.0000 J-1.0000
G01 Y278.2860
G03 X0.0000 Y277.2860 I1.0000 J0.0000
G01 X2.0000
G01 Y170.0000
G03 X3.0000 Y169.0000 I1.0000 J0.0000
G01 Z-3.0000 F300
G01 X323.0005 Y169.0005 F2000
G03 X323.9999 Y169.9656 I0.0000 J1.0000
G01 X324.0005 Y277.2862
G01 X326.0002 Y277.2865
G03 X326.9994 Y278.2516 I-0.0002 J1.0000
G01 X327.0000 Y318.7860
G03 X326.0000 Y319.7860 I-1.0000 J0.0000
G01 X0.0000
G03 X-1.0000 Y318.7860 I0.0000 J-1.0000
G01 Y278.2860
G03 X0.0000 Y277.2860 I1.0000 J0.0000
G01 X2.0000
G01 Y170.0000
G03 X3.0000 Y169.0000 I1.0000 J0.0000
G00 Z5.0000
G00 X0.0000 Y0.0000

M05
M30
