(Projekt becken-stirn)
(Erstellt mit Estlcam 2.5D Version 7 Build 7,101)
(Fraesrichtung: Gegenlauf)
(Nullpunkt: Auf Teileoberseite)
(Maximale Fraestiefe: 3,00mm)
(Verwendete Werkzeuge:)
(Fraeser 2mm)

G90
M03
G00 Z5.0000

(Nr. 1 Bohrung 1)
G00 X31.0000 Y100.0000
G00 Z0.5000
G01 Z-1.0000 F300 S24000
G00 Z0.5000
G00 Z-0.5000
G01 Z-2.0000
G00 Z0.5000
G00 Z-1.5000
G01 Z-3.0000
G00 Z0.5000
G00 Z5.0000

(Nr. 2 Bohrung 2)
G00 X61.0000
G00 Z0.5000
G01 Z-1.0000
G00 Z0.5000
G00 Z-0.5000
G01 Z-2.0000
G00 Z0.5000
G00 Z-1.5000
G01 Z-3.0000
G00 Z0.5000
G00 Z5.0000

(Nr. 3 Teil 1)
G00 X75.3656 Y111.0000
G00 Z0.5000
G01 Z-1.0000
G01 X16.6342 F2000
G03 X15.6461 Y110.1536 I0.0000 J-1.0000
G01 X-0.9881 Y3.1536
G01 X-0.9993 Y3.0385
G01 X-1.0000 Y0.0000
G03 X-0.0349 Y-0.9994 I1.0000 J0.0000
G01 X92.0000 Y-1.0000
G03 X92.9994 Y-0.0349 I0.0000 J1.0000
G01 X93.0000 Y3.0000
G01 X92.9933 Y3.1154
G01 X76.3537 Y110.1536
G03 X75.3656 Y111.0000 I-0.9881 J-0.1536
G01 Z-2.0000 F300
G01 X16.6342 F2000
G03 X15.6461 Y110.1536 I0.0000 J-1.0000
G01 X-0.9881 Y3.1536
G01 X-0.9993 Y3.0385
G01 X-1.0000 Y0.0000
G03 X-0.0349 Y-0.9994 I1.0000 J0.0000
G01 X92.0000 Y-1.0000
G03 X92.9994 Y-0.0349 I0.0000 J1.0000
G01 X93.0000 Y3.0000
G01 X92.9933 Y3.1154
G01 X76.3537 Y110.1536
G03 X75.3656 Y111.0000 I-0.9881 J-0.1536
G01 Z-3.0000 F300
G01 X16.6342 F2000
G03 X15.6461 Y110.1536 I0.0000 J-1.0000
G01 X-0.9881 Y3.1536
G01 X-0.9993 Y3.0385
G01 X-1.0000 Y0.0000
G03 X-0.0349 Y-0.9994 I1.0000 J0.0000
G01 X92.0000 Y-1.0000
G03 X92.9994 Y-0.0349 I0.0000 J1.0000
G01 X93.0000 Y3.0000
G01 X92.9933 Y3.1154
G01 X76.3537 Y110.1536
G03 X75.3656 Y111.0000 I-0.9881 J-0.1536
G00 Z5.0000

(Nr. 4 Bohrung 3)
G00 X115.0000 Y10.0000
G00 Z0.5000
G01 Z-1.0000 F300
G00 Z0.5000
G00 Z-0.5000
G01 Z-2.0000
G00 Z0.5000
G00 Z-1.5000
G01 Z-3.0000
G00 Z0.5000
G00 Z5.0000

(Nr. 5 Bohrung 4)
G00 X145.0000
G00 Z0.5000
G01 Z-1.0000
G00 Z0.5000
G00 Z-0.5000
G01 Z-2.0000
G00 Z0.5000
G00 Z-1.5000
G01 Z-3.0000
G00 Z0.5000
G00 Z5.0000

(Nr. 6 Teil 2)
G00 X159.3658 Y-1.0000
G00 Z0.5000
G01 Z-1.0000
G03 X160.3539 Y-0.1536 I0.0000 J1.0000 F2000
G01 X176.9881 Y106.8464
G03 X177.0000 Y107.0000 I-0.9881 J0.1536
G01 Y110.0000
G03 X176.0349 Y110.9994 I-1.0000 J0.0000
G01 X84.0000 Y111.0000
G03 X83.0000 Y110.0000 I0.0000 J-1.0000
G01 Y107.0000
G01 X83.0067 Y106.8846
G01 X99.6463 Y-0.1536
G03 X100.5999 Y-0.9994 I0.9881 J0.1536
G01 X159.3658 Y-1.0000
G01 Z-2.0000 F300
G03 X160.3539 Y-0.1536 I0.0000 J1.0000 F2000
G01 X176.9881 Y106.8464
G03 X177.0000 Y107.0000 I-0.9881 J0.1536
G01 Y110.0000
G03 X176.0349 Y110.9994 I-1.0000 J0.0000
G01 X84.0000 Y111.0000
G03 X83.0000 Y110.0000 I0.0000 J-1.0000
G01 Y107.0000
G01 X83.0067 Y106.8846
G01 X99.6463 Y-0.1536
G03 X100.5999 Y-0.9994 I0.9881 J0.1536
G01 X159.3658 Y-1.0000
G01 Z-3.0000 F300
G03 X160.3539 Y-0.1536 I0.0000 J1.0000 F2000
G01 X176.9881 Y106.8464
G03 X177.0000 Y107.0000 I-0.9881 J0.1536
G01 Y110.0000
G03 X176.0349 Y110.9994 I-1.0000 J0.0000
G01 X84.0000 Y111.0000
G03 X83.0000 Y110.0000 I0.0000 J-1.0000
G01 Y107.0000
G01 X83.0067 Y106.8846
G01 X99.6463 Y-0.1536
G03 X100.5999 Y-0.9994 I0.9881 J0.1536
G01 X159.3658 Y-1.0000
G00 Z5.0000
G00 X0.0000 Y0.0000

M05
M30
