(Projekt lufteinlass-2x)
(Erstellt mit Estlcam 2.5D Version 7 Build 7,101)
(Fraesrichtung: Gegenlauf)
(Nullpunkt: Auf Teileoberseite)
(Maximale Fraestiefe: 3,00mm)
(Verwendete Werkzeuge:)
(Fraeser 2mm)

G90
M03
G00 Z5.0000

(Nr. 1 Bohrung 24)
G00 X4.2500 Y82.5835
G00 Z0.5000
G01 Z-1.0000 F300 S24000
G00 Z0.5000
G00 Z-0.5000
G01 Z-2.0000
G00 Z0.5000
G00 Z-1.5000
G01 Z-3.0000
G00 Z0.5000
G00 Z5.0000

(Nr. 2 Bohrung 21)
G00 X75.7500
G00 Z0.5000
G01 Z-1.0000
G00 Z0.5000
G00 Z-0.5000
G01 Z-2.0000
G00 Z0.5000
G00 Z-1.5000
G01 Z-3.0000
G00 Z0.5000
G00 Z5.0000

(Nr. 3 Bohrung 20)
G00 X84.2500
G00 Z0.5000
G01 Z-1.0000
G00 Z0.5000
G00 Z-0.5000
G01 Z-2.0000
G00 Z0.5000
G00 Z-1.5000
G01 Z-3.0000
G00 Z0.5000
G00 Z5.0000

(Nr. 4 Bohrung 17)
G00 X155.7500
G00 Z0.5000
G01 Z-1.0000
G00 Z0.5000
G00 Z-0.5000
G01 Z-2.0000
G00 Z0.5000
G00 Z-1.5000
G01 Z-3.0000
G00 Z0.5000
G00 Z5.0000

(Nr. 5 Bohrung 18)
G00 X164.2500
G00 Z0.5000
G01 Z-1.0000
G00 Z0.5000
G00 Z-0.5000
G01 Z-2.0000
G00 Z0.5000
G00 Z-1.5000
G01 Z-3.0000
G00 Z0.5000
G00 Z5.0000

(Nr. 6 Bohrung 14)
G00 X235.7500
G00 Z0.5000
G01 Z-1.0000
G00 Z0.5000
G00 Z-0.5000
G01 Z-2.0000
G00 Z0.5000
G00 Z-1.5000
G01 Z-3.0000
G00 Z0.5000
G00 Z5.0000

(Nr. 7 Bohrung 13)
G00 X244.2500
G00 Z0.5000
G01 Z-1.0000
G00 Z0.5000
G00 Z-0.5000
G01 Z-2.0000
G00 Z0.5000
G00 Z-1.5000
G01 Z-3.0000
G00 Z0.5000
G00 Z5.0000

(Nr. 8 Bohrung 10)
G00 X315.7500
G00 Z0.5000
G01 Z-1.0000
G00 Z0.5000
G00 Z-0.5000
G01 Z-2.0000
G00 Z0.5000
G00 Z-1.5000
G01 Z-3.0000
G00 Z0.5000
G00 Z5.0000

(Nr. 9 Bohrung 32)
G00 Y11.0835
G00 Z0.5000
G01 Z-1.0000
G00 Z0.5000
G00 Z-0.5000
G01 Z-2.0000
G00 Z0.5000
G00 Z-1.5000
G01 Z-3.0000
G00 Z0.5000
G00 Z5.0000

(Nr. 10 Bohrung 31)
G00 X244.2500
G00 Z0.5000
G01 Z-1.0000
G00 Z0.5000
G00 Z-0.5000
G01 Z-2.0000
G00 Z0.5000
G00 Z-1.5000
G01 Z-3.0000
G00 Z0.5000
G00 Z5.0000

(Nr. 11 Bohrung 30)
G00 X235.7500
G00 Z0.5000
G01 Z-1.0000
G00 Z0.5000
G00 Z-0.5000
G01 Z-2.0000
G00 Z0.5000
G00 Z-1.5000
G01 Z-3.0000
G00 Z0.5000
G00 Z5.0000

(Nr. 12 Bohrung 29)
G00 X164.2500
G00 Z0.5000
G01 Z-1.0000
G00 Z0.5000
G00 Z-0.5000
G01 Z-2.0000
G00 Z0.5000
G00 Z-1.5000
G01 Z-3.0000
G00 Z0.5000
G00 Z5.0000

(Nr. 13 Bohrung 28)
G00 X155.7500
G00 Z0.5000
G01 Z-1.0000
G00 Z0.5000
G00 Z-0.5000
G01 Z-2.0000
G00 Z0.5000
G00 Z-1.5000
G01 Z-3.0000
G00 Z0.5000
G00 Z5.0000

(Nr. 14 Bohrung 27)
G00 X84.2500
G00 Z0.5000
G01 Z-1.0000
G00 Z0.5000
G00 Z-0.5000
G01 Z-2.0000
G00 Z0.5000
G00 Z-1.5000
G01 Z-3.0000
G00 Z0.5000
G00 Z5.0000

(Nr. 15 Bohrung 26)
G00 X75.7500
G00 Z0.5000
G01 Z-1.0000
G00 Z0.5000
G00 Z-0.5000
G01 Z-2.0000
G00 Z0.5000
G00 Z-1.5000
G01 Z-3.0000
G00 Z0.5000
G00 Z5.0000

(Nr. 16 Bohrung 25)
G00 X4.2500
G00 Z0.5000
G01 Z-1.0000
G00 Z0.5000
G00 Z-0.5000
G01 Z-2.0000
G00 Z0.5000
G00 Z-1.5000
G01 Z-3.0000
G00 Z0.5000
G00 Z5.0000

(Nr. 17 Ausschnitt 5)
G00 X15.2521 Y22.0856
G00 Z0.5000
G01 Z-1.0000
G01 X12.9928 Y24.5713 F2000
G01 X10.9779 Y27.2659
G01 X9.2249 Y30.1515
G01 X7.7513 Y33.2105
G01 X6.5746 Y36.4253
G01 X5.7124 Y39.7787
G01 X5.1820 Y43.2536
G01 X5.0013 Y46.8335
G01 X5.1820 Y50.4134
G01 X5.7124 Y53.8883
G01 X6.5746 Y57.2417
G01 X7.7513 Y60.4565
G01 X9.2249 Y63.5155
G01 X10.9779 Y66.4011
G01 X12.9928 Y69.0957
G01 X15.2521 Y71.5814
G01 X17.7378 Y73.8407
G01 X20.4324 Y75.8556
G01 X23.3180 Y77.6086
G01 X26.3770 Y79.0822
G01 X29.5918 Y80.2589
G01 X32.9452 Y81.1211
G01 X36.4201 Y81.6515
G01 X40.0000 Y81.8322
G01 X43.5799 Y81.6515
G01 X47.0548 Y81.1211
G01 X50.4082 Y80.2589
G01 X53.6230 Y79.0822
G01 X56.6820 Y77.6086
G01 X59.5676 Y75.8556
G01 X62.2622 Y73.8407
G01 X64.7479 Y71.5814
G01 X67.0071 Y69.0957
G01 X69.0221 Y66.4011
G01 X70.7751 Y63.5155
G01 X72.2487 Y60.4565
G01 X73.4254 Y57.2417
G01 X74.2876 Y53.8883
G01 X74.8180 Y50.4134
G01 X74.9987 Y46.8335
G01 X74.8180 Y43.2536
G01 X74.2876 Y39.7787
G01 X73.4254 Y36.4253
G01 X72.2487 Y33.2105
G01 X70.7751 Y30.1515
G01 X69.0221 Y27.2659
G01 X67.0071 Y24.5713
G01 X64.7479 Y22.0856
G01 X62.2622 Y19.8264
G01 X59.5676 Y17.8114
G01 X56.6820 Y16.0584
G01 X53.6230 Y14.5848
G01 X50.4082 Y13.4081
G01 X47.0548 Y12.5459
G01 X43.5799 Y12.0155
G01 X40.0000 Y11.8348
G01 X36.4201 Y12.0155
G01 X32.9452 Y12.5459
G01 X29.5918 Y13.4081
G01 X26.3770 Y14.5848
G01 X23.3180 Y16.0584
G01 X20.4324 Y17.8114
G01 X17.7378 Y19.8264
G01 X15.2521 Y22.0856
G01 Z-2.0000 F300
G01 X12.9928 Y24.5713 F2000
G01 X10.9779 Y27.2659
G01 X9.2249 Y30.1515
G01 X7.7513 Y33.2105
G01 X6.5746 Y36.4253
G01 X5.7124 Y39.7787
G01 X5.1820 Y43.2536
G01 X5.0013 Y46.8335
G01 X5.1820 Y50.4134
G01 X5.7124 Y53.8883
G01 X6.5746 Y57.2417
G01 X7.7513 Y60.4565
G01 X9.2249 Y63.5155
G01 X10.9779 Y66.4011
G01 X12.9928 Y69.0957
G01 X15.2521 Y71.5814
G01 X17.7378 Y73.8407
G01 X20.4324 Y75.8556
G01 X23.3180 Y77.6086
G01 X26.3770 Y79.0822
G01 X29.5918 Y80.2589
G01 X32.9452 Y81.1211
G01 X36.4201 Y81.6515
G01 X40.0000 Y81.8322
G01 X43.5799 Y81.6515
G01 X47.0548 Y81.1211
G01 X50.4082 Y80.2589
G01 X53.6230 Y79.0822
G01 X56.6820 Y77.6086
G01 X59.5676 Y75.8556
G01 X62.2622 Y73.8407
G01 X64.7479 Y71.5814
G01 X67.0071 Y69.0957
G01 X69.0221 Y66.4011
G01 X70.7751 Y63.5155
G01 X72.2487 Y60.4565
G01 X73.4254 Y57.2417
G01 X74.2876 Y53.8883
G01 X74.8180 Y50.4134
G01 X74.9987 Y46.8335
G01 X74.8180 Y43.2536
G01 X74.2876 Y39.7787
G01 X73.4254 Y36.4253
G01 X72.2487 Y33.2105
G01 X70.7751 Y30.1515
G01 X69.0221 Y27.2659
G01 X67.0071 Y24.5713
G01 X64.7479 Y22.0856
G01 X62.2622 Y19.8264
G01 X59.5676 Y17.8114
G01 X56.6820 Y16.0584
G01 X53.6230 Y14.5848
G01 X50.4082 Y13.4081
G01 X47.0548 Y12.5459
G01 X43.5799 Y12.0155
G01 X40.0000 Y11.8348
G01 X36.4201 Y12.0155
G01 X32.9452 Y12.5459
G01 X29.5918 Y13.4081
G01 X26.3770 Y14.5848
G01 X23.3180 Y16.0584
G01 X20.4324 Y17.8114
G01 X17.7378 Y19.8264
G01 X15.2521 Y22.0856
G01 Z-3.0000 F300
G01 X12.9928 Y24.5713 F2000
G01 X10.9779 Y27.2659
G01 X9.2249 Y30.1515
G01 X7.7513 Y33.2105
G01 X6.5746 Y36.4253
G01 X5.7124 Y39.7787
G01 X5.1820 Y43.2536
G01 X5.0013 Y46.8335
G01 X5.1820 Y50.4134
G01 X5.7124 Y53.8883
G01 X6.5746 Y57.2417
G01 X7.7513 Y60.4565
G01 X9.2249 Y63.5155
G01 X10.9779 Y66.4011
G01 X12.9928 Y69.0957
G01 X15.2521 Y71.5814
G01 X17.7378 Y73.8407
G01 X20.4324 Y75.8556
G01 X23.3180 Y77.6086
G01 X26.3770 Y79.0822
G01 X29.5918 Y80.2589
G01 X32.9452 Y81.1211
G01 X36.4201 Y81.6515
G01 X40.0000 Y81.8322
G01 X43.5799 Y81.6515
G01 X47.0548 Y81.1211
G01 X50.4082 Y80.2589
G01 X53.6230 Y79.0822
G01 X56.6820 Y77.6086
G01 X59.5676 Y75.8556
G01 X62.2622 Y73.8407
G01 X64.7479 Y71.5814
G01 X67.0071 Y69.0957
G01 X69.0221 Y66.4011
G01 X70.7751 Y63.5155
G01 X72.2487 Y60.4565
G01 X73.4254 Y57.2417
G01 X74.2876 Y53.8883
G01 X74.8180 Y50.4134
G01 X74.9987 Y46.8335
G01 X74.8180 Y43.2536
G01 X74.2876 Y39.7787
G01 X73.4254 Y36.4253
G01 X72.2487 Y33.2105
G01 X70.7751 Y30.1515
G01 X69.0221 Y27.2659
G01 X67.0071 Y24.5713
G01 X64.7479 Y22.0856
G01 X62.2622 Y19.8264
G01 X59.5676 Y17.8114
G01 X56.6820 Y16.0584
G01 X53.6230 Y14.5848
G01 X50.4082 Y13.4081
G01 X47.0548 Y12.5459
G01 X43.5799 Y12.0155
G01 X40.0000 Y11.8348
G01 X36.4201 Y12.0155
G01 X32.9452 Y12.5459
G01 X29.5918 Y13.4081
G01 X26.3770 Y14.5848
G01 X23.3180 Y16.0584
G01 X20.4324 Y17.8114
G01 X17.7378 Y19.8264
G01 X15.2521 Y22.0856
G00 Z5.0000

(Nr. 18 Ausschnitt 6)
G00 X85.7124 Y39.7787
G00 Z0.5000
G01 Z-1.0000 F300
G01 X85.1820 Y43.2536 F2000
G01 X85.0013 Y46.8335
G01 X85.1820 Y50.4134
G01 X85.7124 Y53.8883
G01 X86.5746 Y57.2417
G01 X87.7513 Y60.4565
G01 X89.2249 Y63.5155
G01 X90.9779 Y66.4011
G01 X92.9928 Y69.0957
G01 X95.2521 Y71.5814
G01 X97.7378 Y73.8407
G01 X100.4324 Y75.8556
G01 X103.3180 Y77.6086
G01 X106.3770 Y79.0822
G01 X109.5918 Y80.2589
G01 X112.9452 Y81.1211
G01 X116.4201 Y81.6515
G01 X120.0000 Y81.8322
G01 X123.5799 Y81.6515
G01 X127.0548 Y81.1211
G01 X130.4082 Y80.2589
G01 X133.6230 Y79.0822
G01 X136.6820 Y77.6086
G01 X139.5676 Y75.8556
G01 X142.2622 Y73.8407
G01 X144.7479 Y71.5814
G01 X147.0071 Y69.0957
G01 X149.0221 Y66.4011
G01 X150.7751 Y63.5155
G01 X152.2487 Y60.4565
G01 X153.4254 Y57.2417
G01 X154.2876 Y53.8883
G01 X154.8179 Y50.4134
G01 X154.9987 Y46.8335
G01 X154.8179 Y43.2536
G01 X154.2876 Y39.7787
G01 X153.4254 Y36.4253
G01 X152.2487 Y33.2105
G01 X150.7751 Y30.1515
G01 X149.0221 Y27.2659
G01 X147.0071 Y24.5713
G01 X144.7479 Y22.0856
G01 X142.2622 Y19.8264
G01 X139.5676 Y17.8114
G01 X136.6820 Y16.0584
G01 X133.6230 Y14.5848
G01 X130.4082 Y13.4081
G01 X127.0548 Y12.5459
G01 X123.5799 Y12.0156
G01 X120.0000 Y11.8348
G01 X116.4201 Y12.0156
G01 X112.9452 Y12.5459
G01 X109.5918 Y13.4081
G01 X106.3770 Y14.5848
G01 X103.3180 Y16.0584
G01 X100.4324 Y17.8114
G01 X97.7378 Y19.8264
G01 X95.2521 Y22.0856
G01 X92.9928 Y24.5713
G01 X90.9779 Y27.2659
G01 X89.2249 Y30.1515
G01 X87.7513 Y33.2105
G01 X86.5746 Y36.4253
G01 X85.7124 Y39.7787
G01 Z-2.0000 F300
G01 X85.1820 Y43.2536 F2000
G01 X85.0013 Y46.8335
G01 X85.1820 Y50.4134
G01 X85.7124 Y53.8883
G01 X86.5746 Y57.2417
G01 X87.7513 Y60.4565
G01 X89.2249 Y63.5155
G01 X90.9779 Y66.4011
G01 X92.9928 Y69.0957
G01 X95.2521 Y71.5814
G01 X97.7378 Y73.8407
G01 X100.4324 Y75.8556
G01 X103.3180 Y77.6086
G01 X106.3770 Y79.0822
G01 X109.5918 Y80.2589
G01 X112.9452 Y81.1211
G01 X116.4201 Y81.6515
G01 X120.0000 Y81.8322
G01 X123.5799 Y81.6515
G01 X127.0548 Y81.1211
G01 X130.4082 Y80.2589
G01 X133.6230 Y79.0822
G01 X136.6820 Y77.6086
G01 X139.5676 Y75.8556
G01 X142.2622 Y73.8407
G01 X144.7479 Y71.5814
G01 X147.0071 Y69.0957
G01 X149.0221 Y66.4011
G01 X150.7751 Y63.5155
G01 X152.2487 Y60.4565
G01 X153.4254 Y57.2417
G01 X154.2876 Y53.8883
G01 X154.8179 Y50.4134
G01 X154.9987 Y46.8335
G01 X154.8179 Y43.2536
G01 X154.2876 Y39.7787
G01 X153.4254 Y36.4253
G01 X152.2487 Y33.2105
G01 X150.7751 Y30.1515
G01 X149.0221 Y27.2659
G01 X147.0071 Y24.5713
G01 X144.7479 Y22.0856
G01 X142.2622 Y19.8264
G01 X139.5676 Y17.8114
G01 X136.6820 Y16.0584
G01 X133.6230 Y14.5848
G01 X130.4082 Y13.4081
G01 X127.0548 Y12.5459
G01 X123.5799 Y12.0156
G01 X120.0000 Y11.8348
G01 X116.4201 Y12.0156
G01 X112.9452 Y12.5459
G01 X109.5918 Y13.4081
G01 X106.3770 Y14.5848
G01 X103.3180 Y16.0584
G01 X100.4324 Y17.8114
G01 X97.7378 Y19.8264
G01 X95.2521 Y22.0856
G01 X92.9928 Y24.5713
G01 X90.9779 Y27.2659
G01 X89.2249 Y30.1515
G01 X87.7513 Y33.2105
G01 X86.5746 Y36.4253
G01 X85.7124 Y39.7787
G01 Z-3.0000 F300
G01 X85.1820 Y43.2536 F2000
G01 X85.0013 Y46.8335
G01 X85.1820 Y50.4134
G01 X85.7124 Y53.8883
G01 X86.5746 Y57.2417
G01 X87.7513 Y60.4565
G01 X89.2249 Y63.5155
G01 X90.9779 Y66.4011
G01 X92.9928 Y69.0957
G01 X95.2521 Y71.5814
G01 X97.7378 Y73.8407
G01 X100.4324 Y75.8556
G01 X103.3180 Y77.6086
G01 X106.3770 Y79.0822
G01 X109.5918 Y80.2589
G01 X112.9452 Y81.1211
G01 X116.4201 Y81.6515
G01 X120.0000 Y81.8322
G01 X123.5799 Y81.6515
G01 X127.0548 Y81.1211
G01 X130.4082 Y80.2589
G01 X133.6230 Y79.0822
G01 X136.6820 Y77.6086
G01 X139.5676 Y75.8556
G01 X142.2622 Y73.8407
G01 X144.7479 Y71.5814
G01 X147.0071 Y69.0957
G01 X149.0221 Y66.4011
G01 X150.7751 Y63.5155
G01 X152.2487 Y60.4565
G01 X153.4254 Y57.2417
G01 X154.2876 Y53.8883
G01 X154.8179 Y50.4134
G01 X154.9987 Y46.8335
G01 X154.8179 Y43.2536
G01 X154.2876 Y39.7787
G01 X153.4254 Y36.4253
G01 X152.2487 Y33.2105
G01 X150.7751 Y30.1515
G01 X149.0221 Y27.2659
G01 X147.0071 Y24.5713
G01 X144.7479 Y22.0856
G01 X142.2622 Y19.8264
G01 X139.5676 Y17.8114
G01 X136.6820 Y16.0584
G01 X133.6230 Y14.5848
G01 X130.4082 Y13.4081
G01 X127.0548 Y12.5459
G01 X123.5799 Y12.0156
G01 X120.0000 Y11.8348
G01 X116.4201 Y12.0156
G01 X112.9452 Y12.5459
G01 X109.5918 Y13.4081
G01 X106.3770 Y14.5848
G01 X103.3180 Y16.0584
G01 X100.4324 Y17.8114
G01 X97.7378 Y19.8264
G01 X95.2521 Y22.0856
G01 X92.9928 Y24.5713
G01 X90.9779 Y27.2659
G01 X89.2249 Y30.1515
G01 X87.7513 Y33.2105
G01 X86.5746 Y36.4253
G01 X85.7124 Y39.7787
G00 Z5.0000

(Nr. 19 Ausschnitt 7)
G00 X165.1820 Y43.2536
G00 Z0.5000
G01 Z-1.0000 F300
G01 X165.0013 Y46.8335 F2000
G01 X165.1820 Y50.4134
G01 X165.7124 Y53.8883
G01 X166.5746 Y57.2417
G01 X167.7513 Y60.4565
G01 X169.2249 Y63.5155
G01 X170.9779 Y66.4011
G01 X172.9928 Y69.0957
G01 X175.2521 Y71.5814
G01 X177.7378 Y73.8407
G01 X180.4324 Y75.8556
G01 X183.3180 Y77.6086
G01 X186.3770 Y79.0822
G01 X189.5918 Y80.2589
G01 X192.9452 Y81.1211
G01 X196.4201 Y81.6515
G01 X200.0000 Y81.8322
G01 X203.5799 Y81.6515
G01 X207.0548 Y81.1211
G01 X210.4082 Y80.2589
G01 X213.6230 Y79.0822
G01 X216.6820 Y77.6086
G01 X219.5676 Y75.8556
G01 X222.2622 Y73.8407
G01 X224.7479 Y71.5814
G01 X227.0071 Y69.0957
G01 X229.0221 Y66.4011
G01 X230.7751 Y63.5155
G01 X232.2487 Y60.4565
G01 X233.4254 Y57.2417
G01 X234.2876 Y53.8883
G01 X234.8179 Y50.4134
G01 X234.9987 Y46.8335
G01 X234.8179 Y43.2536
G01 X234.2876 Y39.7787
G01 X233.4254 Y36.4253
G01 X232.2487 Y33.2105
G01 X230.7751 Y30.1515
G01 X229.0221 Y27.2659
G01 X227.0071 Y24.5713
G01 X224.7479 Y22.0856
G01 X222.2622 Y19.8264
G01 X219.5676 Y17.8114
G01 X216.6820 Y16.0584
G01 X213.6230 Y14.5848
G01 X210.4082 Y13.4081
G01 X207.0548 Y12.5459
G01 X203.5799 Y12.0156
G01 X200.0000 Y11.8348
G01 X196.4201 Y12.0156
G01 X192.9452 Y12.5459
G01 X189.5918 Y13.4081
G01 X186.3770 Y14.5848
G01 X183.3180 Y16.0584
G01 X180.4324 Y17.8114
G01 X177.7378 Y19.8264
G01 X175.2521 Y22.0856
G01 X172.9928 Y24.5713
G01 X170.9779 Y27.2659
G01 X169.2249 Y30.1515
G01 X167.7513 Y33.2105
G01 X166.5746 Y36.4253
G01 X165.7124 Y39.7787
G01 X165.1820 Y43.2536
G01 Z-2.0000 F300
G01 X165.0013 Y46.8335 F2000
G01 X165.1820 Y50.4134
G01 X165.7124 Y53.8883
G01 X166.5746 Y57.2417
G01 X167.7513 Y60.4565
G01 X169.2249 Y63.5155
G01 X170.9779 Y66.4011
G01 X172.9928 Y69.0957
G01 X175.2521 Y71.5814
G01 X177.7378 Y73.8407
G01 X180.4324 Y75.8556
G01 X183.3180 Y77.6086
G01 X186.3770 Y79.0822
G01 X189.5918 Y80.2589
G01 X192.9452 Y81.1211
G01 X196.4201 Y81.6515
G01 X200.0000 Y81.8322
G01 X203.5799 Y81.6515
G01 X207.0548 Y81.1211
G01 X210.4082 Y80.2589
G01 X213.6230 Y79.0822
G01 X216.6820 Y77.6086
G01 X219.5676 Y75.8556
G01 X222.2622 Y73.8407
G01 X224.7479 Y71.5814
G01 X227.0071 Y69.0957
G01 X229.0221 Y66.4011
G01 X230.7751 Y63.5155
G01 X232.2487 Y60.4565
G01 X233.4254 Y57.2417
G01 X234.2876 Y53.8883
G01 X234.8179 Y50.4134
G01 X234.9987 Y46.8335
G01 X234.8179 Y43.2536
G01 X234.2876 Y39.7787
G01 X233.4254 Y36.4253
G01 X232.2487 Y33.2105
G01 X230.7751 Y30.1515
G01 X229.0221 Y27.2659
G01 X227.0071 Y24.5713
G01 X224.7479 Y22.0856
G01 X222.2622 Y19.8264
G01 X219.5676 Y17.8114
G01 X216.6820 Y16.0584
G01 X213.6230 Y14.5848
G01 X210.4082 Y13.4081
G01 X207.0548 Y12.5459
G01 X203.5799 Y12.0156
G01 X200.0000 Y11.8348
G01 X196.4201 Y12.0156
G01 X192.9452 Y12.5459
G01 X189.5918 Y13.4081
G01 X186.3770 Y14.5848
G01 X183.3180 Y16.0584
G01 X180.4324 Y17.8114
G01 X177.7378 Y19.8264
G01 X175.2521 Y22.0856
G01 X172.9928 Y24.5713
G01 X170.9779 Y27.2659
G01 X169.2249 Y30.1515
G01 X167.7513 Y33.2105
G01 X166.5746 Y36.4253
G01 X165.7124 Y39.7787
G01 X165.1820 Y43.2536
G01 Z-3.0000 F300
G01 X165.0013 Y46.8335 F2000
G01 X165.1820 Y50.4134
G01 X165.7124 Y53.8883
G01 X166.5746 Y57.2417
G01 X167.7513 Y60.4565
G01 X169.2249 Y63.5155
G01 X170.9779 Y66.4011
G01 X172.9928 Y69.0957
G01 X175.2521 Y71.5814
G01 X177.7378 Y73.8407
G01 X180.4324 Y75.8556
G01 X183.3180 Y77.6086
G01 X186.3770 Y79.0822
G01 X189.5918 Y80.2589
G01 X192.9452 Y81.1211
G01 X196.4201 Y81.6515
G01 X200.0000 Y81.8322
G01 X203.5799 Y81.6515
G01 X207.0548 Y81.1211
G01 X210.4082 Y80.2589
G01 X213.6230 Y79.0822
G01 X216.6820 Y77.6086
G01 X219.5676 Y75.8556
G01 X222.2622 Y73.8407
G01 X224.7479 Y71.5814
G01 X227.0071 Y69.0957
G01 X229.0221 Y66.4011
G01 X230.7751 Y63.5155
G01 X232.2487 Y60.4565
G01 X233.4254 Y57.2417
G01 X234.2876 Y53.8883
G01 X234.8179 Y50.4134
G01 X234.9987 Y46.8335
G01 X234.8179 Y43.2536
G01 X234.2876 Y39.7787
G01 X233.4254 Y36.4253
G01 X232.2487 Y33.2105
G01 X230.7751 Y30.1515
G01 X229.0221 Y27.2659
G01 X227.0071 Y24.5713
G01 X224.7479 Y22.0856
G01 X222.2622 Y19.8264
G01 X219.5676 Y17.8114
G01 X216.6820 Y16.0584
G01 X213.6230 Y14.5848
G01 X210.4082 Y13.4081
G01 X207.0548 Y12.5459
G01 X203.5799 Y12.0156
G01 X200.0000 Y11.8348
G01 X196.4201 Y12.0156
G01 X192.9452 Y12.5459
G01 X189.5918 Y13.4081
G01 X186.3770 Y14.5848
G01 X183.3180 Y16.0584
G01 X180.4324 Y17.8114
G01 X177.7378 Y19.8264
G01 X175.2521 Y22.0856
G01 X172.9928 Y24.5713
G01 X170.9779 Y27.2659
G01 X169.2249 Y30.1515
G01 X167.7513 Y33.2105
G01 X166.5746 Y36.4253
G01 X165.7124 Y39.7787
G01 X165.1820 Y43.2536
G00 Z5.0000

(Nr. 20 Ausschnitt 8)
G00 X245.0013 Y46.8335
G00 Z0.5000
G01 Z-1.0000 F300
G01 X245.1820 Y50.4134 F2000
G01 X245.7124 Y53.8883
G01 X246.5746 Y57.2417
G01 X247.7513 Y60.4565
G01 X249.2249 Y63.5155
G01 X250.9779 Y66.4011
G01 X252.9928 Y69.0957
G01 X255.2521 Y71.5814
G01 X257.7378 Y73.8407
G01 X260.4324 Y75.8556
G01 X263.3180 Y77.6086
G01 X266.3770 Y79.0822
G01 X269.5918 Y80.2589
G01 X272.9452 Y81.1211
G01 X276.4201 Y81.6515
G01 X280.0000 Y81.8322
G01 X283.5799 Y81.6515
G01 X287.0548 Y81.1211
G01 X290.4082 Y80.2589
G01 X293.6230 Y79.0822
G01 X296.6820 Y77.6086
G01 X299.5676 Y75.8556
G01 X302.2622 Y73.8407
G01 X304.7479 Y71.5814
G01 X307.0072 Y69.0957
G01 X309.0221 Y66.4011
G01 X310.7751 Y63.5155
G01 X312.2487 Y60.4565
G01 X313.4254 Y57.2417
G01 X314.2876 Y53.8883
G01 X314.8179 Y50.4134
G01 X314.9987 Y46.8335
G01 X314.8179 Y43.2536
G01 X314.2876 Y39.7787
G01 X313.4254 Y36.4253
G01 X312.2487 Y33.2105
G01 X310.7751 Y30.1515
G01 X309.0221 Y27.2659
G01 X307.0072 Y24.5713
G01 X304.7479 Y22.0856
G01 X302.2622 Y19.8264
G01 X299.5676 Y17.8114
G01 X296.6820 Y16.0584
G01 X293.6230 Y14.5848
G01 X290.4082 Y13.4081
G01 X287.0548 Y12.5459
G01 X283.5799 Y12.0156
G01 X280.0000 Y11.8348
G01 X276.4201 Y12.0156
G01 X272.9452 Y12.5459
G01 X269.5918 Y13.4081
G01 X266.3770 Y14.5848
G01 X263.3180 Y16.0584
G01 X260.4324 Y17.8114
G01 X257.7378 Y19.8264
G01 X255.2521 Y22.0856
G01 X252.9928 Y24.5713
G01 X250.9779 Y27.2659
G01 X249.2249 Y30.1515
G01 X247.7513 Y33.2105
G01 X246.5746 Y36.4253
G01 X245.7124 Y39.7787
G01 X245.1820 Y43.2536
G01 X245.0013 Y46.8335
G01 Z-2.0000 F300
G01 X245.1820 Y50.4134 F2000
G01 X245.7124 Y53.8883
G01 X246.5746 Y57.2417
G01 X247.7513 Y60.4565
G01 X249.2249 Y63.5155
G01 X250.9779 Y66.4011
G01 X252.9928 Y69.0957
G01 X255.2521 Y71.5814
G01 X257.7378 Y73.8407
G01 X260.4324 Y75.8556
G01 X263.3180 Y77.6086
G01 X266.3770 Y79.0822
G01 X269.5918 Y80.2589
G01 X272.9452 Y81.1211
G01 X276.4201 Y81.6515
G01 X280.0000 Y81.8322
G01 X283.5799 Y81.6515
G01 X287.0548 Y81.1211
G01 X290.4082 Y80.2589
G01 X293.6230 Y79.0822
G01 X296.6820 Y77.6086
G01 X299.5676 Y75.8556
G01 X302.2622 Y73.8407
G01 X304.7479 Y71.5814
G01 X307.0072 Y69.0957
G01 X309.0221 Y66.4011
G01 X310.7751 Y63.5155
G01 X312.2487 Y60.4565
G01 X313.4254 Y57.2417
G01 X314.2876 Y53.8883
G01 X314.8179 Y50.4134
G01 X314.9987 Y46.8335
G01 X314.8179 Y43.2536
G01 X314.2876 Y39.7787
G01 X313.4254 Y36.4253
G01 X312.2487 Y33.2105
G01 X310.7751 Y30.1515
G01 X309.0221 Y27.2659
G01 X307.0072 Y24.5713
G01 X304.7479 Y22.0856
G01 X302.2622 Y19.8264
G01 X299.5676 Y17.8114
G01 X296.6820 Y16.0584
G01 X293.6230 Y14.5848
G01 X290.4082 Y13.4081
G01 X287.0548 Y12.5459
G01 X283.5799 Y12.0156
G01 X280.0000 Y11.8348
G01 X276.4201 Y12.0156
G01 X272.9452 Y12.5459
G01 X269.5918 Y13.4081
G01 X266.3770 Y14.5848
G01 X263.3180 Y16.0584
G01 X260.4324 Y17.8114
G01 X257.7378 Y19.8264
G01 X255.2521 Y22.0856
G01 X252.9928 Y24.5713
G01 X250.9779 Y27.2659
G01 X249.2249 Y30.1515
G01 X247.7513 Y33.2105
G01 X246.5746 Y36.4253
G01 X245.7124 Y39.7787
G01 X245.1820 Y43.2536
G01 X245.0013 Y46.8335
G01 Z-3.0000 F300
G01 X245.1820 Y50.4134 F2000
G01 X245.7124 Y53.8883
G01 X246.5746 Y57.2417
G01 X247.7513 Y60.4565
G01 X249.2249 Y63.5155
G01 X250.9779 Y66.4011
G01 X252.9928 Y69.0957
G01 X255.2521 Y71.5814
G01 X257.7378 Y73.8407
G01 X260.4324 Y75.8556
G01 X263.3180 Y77.6086
G01 X266.3770 Y79.0822
G01 X269.5918 Y80.2589
G01 X272.9452 Y81.1211
G01 X276.4201 Y81.6515
G01 X280.0000 Y81.8322
G01 X283.5799 Y81.6515
G01 X287.0548 Y81.1211
G01 X290.4082 Y80.2589
G01 X293.6230 Y79.0822
G01 X296.6820 Y77.6086
G01 X299.5676 Y75.8556
G01 X302.2622 Y73.8407
G01 X304.7479 Y71.5814
G01 X307.0072 Y69.0957
G01 X309.0221 Y66.4011
G01 X310.7751 Y63.5155
G01 X312.2487 Y60.4565
G01 X313.4254 Y57.2417
G01 X314.2876 Y53.8883
G01 X314.8179 Y50.4134
G01 X314.9987 Y46.8335
G01 X314.8179 Y43.2536
G01 X314.2876 Y39.7787
G01 X313.4254 Y36.4253
G01 X312.2487 Y33.2105
G01 X310.7751 Y30.1515
G01 X309.0221 Y27.2659
G01 X307.0072 Y24.5713
G01 X304.7479 Y22.0856
G01 X302.2622 Y19.8264
G01 X299.5676 Y17.8114
G01 X296.6820 Y16.0584
G01 X293.6230 Y14.5848
G01 X290.4082 Y13.4081
G01 X287.0548 Y12.5459
G01 X283.5799 Y12.0156
G01 X280.0000 Y11.8348
G01 X276.4201 Y12.0156
G01 X272.9452 Y12.5459
G01 X269.5918 Y13.4081
G01 X266.3770 Y14.5848
G01 X263.3180 Y16.0584
G01 X260.4324 Y17.8114
G01 X257.7378 Y19.8264
G01 X255.2521 Y22.0856
G01 X252.9928 Y24.5713
G01 X250.9779 Y27.2659
G01 X249.2249 Y30.1515
G01 X247.7513 Y33.2105
G01 X246.5746 Y36.4253
G01 X245.7124 Y39.7787
G01 X245.1820 Y43.2536
G01 X245.0013 Y46.8335
G00 Z5.0000

(Nr. 21 Teil 3)
G00 X320.0000 Y-1.0000
G00 Z0.5000
G01 Z-1.0000 F300
G03 X321.0000 Y0.0000 I0.0000 J1.0000 F2000
G01 Y93.6670
G03 X320.0000 Y94.6670 I-1.0000 J0.0000
G01 X0.0000
G03 X-1.0000 Y93.6670 I0.0000 J-1.0000
G01 Y0.0000
G03 X0.0000 Y-1.0000 I1.0000 J0.0000
G01 X320.0000
G01 Z-2.0000 F300
G03 X321.0000 Y0.0000 I0.0000 J1.0000 F2000
G01 Y93.6670
G03 X320.0000 Y94.6670 I-1.0000 J0.0000
G01 X0.0000
G03 X-1.0000 Y93.6670 I0.0000 J-1.0000
G01 Y0.0000
G03 X0.0000 Y-1.0000 I1.0000 J0.0000
G01 X320.0000
G01 Z-3.0000 F300
G03 X321.0000 Y0.0000 I0.0000 J1.0000 F2000
G01 Y93.6670
G03 X320.0000 Y94.6670 I-1.0000 J0.0000
G01 X0.0000
G03 X-1.0000 Y93.6670 I0.0000 J-1.0000
G01 Y0.0000
G03 X0.0000 Y-1.0000 I1.0000 J0.0000
G01 X320.0000
G00 Z5.0000

(Nr. 22 Bohrung 23)
G00 X4.2500 Y121.0835
G00 Z0.5000
G01 Z-1.0000 F300
G00 Z0.5000
G00 Z-0.5000
G01 Z-2.0000
G00 Z0.5000
G00 Z-1.5000
G01 Z-3.0000
G00 Z0.5000
G00 Z5.0000

(Nr. 23 Bohrung 22)
G00 X75.7500
G00 Z0.5000
G01 Z-1.0000
G00 Z0.5000
G00 Z-0.5000
G01 Z-2.0000
G00 Z0.5000
G00 Z-1.5000
G01 Z-3.0000
G00 Z0.5000
G00 Z5.0000

(Nr. 24 Bohrung 19)
G00 X84.2500
G00 Z0.5000
G01 Z-1.0000
G00 Z0.5000
G00 Z-0.5000
G01 Z-2.0000
G00 Z0.5000
G00 Z-1.5000
G01 Z-3.0000
G00 Z0.5000
G00 Z5.0000

(Nr. 25 Bohrung 16)
G00 X155.7500
G00 Z0.5000
G01 Z-1.0000
G00 Z0.5000
G00 Z-0.5000
G01 Z-2.0000
G00 Z0.5000
G00 Z-1.5000
G01 Z-3.0000
G00 Z0.5000
G00 Z5.0000

(Nr. 26 Bohrung 15)
G00 X164.2500
G00 Z0.5000
G01 Z-1.0000
G00 Z0.5000
G00 Z-0.5000
G01 Z-2.0000
G00 Z0.5000
G00 Z-1.5000
G01 Z-3.0000
G00 Z0.5000
G00 Z5.0000

(Nr. 27 Bohrung 12)
G00 X235.7500
G00 Z0.5000
G01 Z-1.0000
G00 Z0.5000
G00 Z-0.5000
G01 Z-2.0000
G00 Z0.5000
G00 Z-1.5000
G01 Z-3.0000
G00 Z0.5000
G00 Z5.0000

(Nr. 28 Bohrung 11)
G00 X244.2500
G00 Z0.5000
G01 Z-1.0000
G00 Z0.5000
G00 Z-0.5000
G01 Z-2.0000
G00 Z0.5000
G00 Z-1.5000
G01 Z-3.0000
G00 Z0.5000
G00 Z5.0000

(Nr. 29 Bohrung 9)
G00 X315.7500
G00 Z0.5000
G01 Z-1.0000
G00 Z0.5000
G00 Z-0.5000
G01 Z-2.0000
G00 Z0.5000
G00 Z-1.5000
G01 Z-3.0000
G00 Z0.5000
G00 Z5.0000

(Nr. 30 Bohrung 8)
G00 Y192.5835
G00 Z0.5000
G01 Z-1.0000
G00 Z0.5000
G00 Z-0.5000
G01 Z-2.0000
G00 Z0.5000
G00 Z-1.5000
G01 Z-3.0000
G00 Z0.5000
G00 Z5.0000

(Nr. 31 Bohrung 7)
G00 X244.2500
G00 Z0.5000
G01 Z-1.0000
G00 Z0.5000
G00 Z-0.5000
G01 Z-2.0000
G00 Z0.5000
G00 Z-1.5000
G01 Z-3.0000
G00 Z0.5000
G00 Z5.0000

(Nr. 32 Bohrung 6)
G00 X235.7500
G00 Z0.5000
G01 Z-1.0000
G00 Z0.5000
G00 Z-0.5000
G01 Z-2.0000
G00 Z0.5000
G00 Z-1.5000
G01 Z-3.0000
G00 Z0.5000
G00 Z5.0000

(Nr. 33 Bohrung 5)
G00 X164.2500
G00 Z0.5000
G01 Z-1.0000
G00 Z0.5000
G00 Z-0.5000
G01 Z-2.0000
G00 Z0.5000
G00 Z-1.5000
G01 Z-3.0000
G00 Z0.5000
G00 Z5.0000

(Nr. 34 Bohrung 4)
G00 X155.7500
G00 Z0.5000
G01 Z-1.0000
G00 Z0.5000
G00 Z-0.5000
G01 Z-2.0000
G00 Z0.5000
G00 Z-1.5000
G01 Z-3.0000
G00 Z0.5000
G00 Z5.0000

(Nr. 35 Bohrung 3)
G00 X84.2500
G00 Z0.5000
G01 Z-1.0000
G00 Z0.5000
G00 Z-0.5000
G01 Z-2.0000
G00 Z0.5000
G00 Z-1.5000
G01 Z-3.0000
G00 Z0.5000
G00 Z5.0000

(Nr. 36 Bohrung 2)
G00 X75.7500
G00 Z0.5000
G01 Z-1.0000
G00 Z0.5000
G00 Z-0.5000
G01 Z-2.0000
G00 Z0.5000
G00 Z-1.5000
G01 Z-3.0000
G00 Z0.5000
G00 Z5.0000

(Nr. 37 Bohrung 1)
G00 X4.2500
G00 Z0.5000
G01 Z-1.0000
G00 Z0.5000
G00 Z-0.5000
G01 Z-2.0000
G00 Z0.5000
G00 Z-1.5000
G01 Z-3.0000
G00 Z0.5000
G00 Z5.0000

(Nr. 38 Ausschnitt 1)
G00 X15.2521 Y181.5814
G00 Z0.5000
G01 Z-1.0000
G01 X17.7378 Y183.8407 F2000
G01 X20.4324 Y185.8556
G01 X23.3180 Y187.6086
G01 X26.3770 Y189.0822
G01 X29.5918 Y190.2589
G01 X32.9452 Y191.1211
G01 X36.4201 Y191.6515
G01 X40.0000 Y191.8322
G01 X43.5799 Y191.6515
G01 X47.0548 Y191.1211
G01 X50.4082 Y190.2589
G01 X53.6231 Y189.0822
G01 X56.6820 Y187.6086
G01 X59.5676 Y185.8556
G01 X62.2622 Y183.8407
G01 X64.7479 Y181.5814
G01 X67.0072 Y179.0957
G01 X69.0221 Y176.4011
G01 X70.7752 Y173.5155
G01 X72.2487 Y170.4565
G01 X73.4254 Y167.2417
G01 X74.2876 Y163.8883
G01 X74.8180 Y160.4134
G01 X74.9987 Y156.8335
G01 X74.8180 Y153.2536
G01 X74.2876 Y149.7787
G01 X73.4254 Y146.4253
G01 X72.2487 Y143.2105
G01 X70.7752 Y140.1515
G01 X69.0221 Y137.2659
G01 X67.0072 Y134.5713
G01 X64.7479 Y132.0856
G01 X62.2622 Y129.8264
G01 X59.5676 Y127.8114
G01 X56.6820 Y126.0584
G01 X53.6231 Y124.5848
G01 X50.4082 Y123.4081
G01 X47.0548 Y122.5459
G01 X43.5799 Y122.0155
G01 X40.0000 Y121.8348
G01 X36.4201 Y122.0155
G01 X32.9452 Y122.5459
G01 X29.5918 Y123.4081
G01 X26.3770 Y124.5848
G01 X23.3180 Y126.0584
G01 X20.4324 Y127.8114
G01 X17.7378 Y129.8264
G01 X15.2521 Y132.0856
G01 X12.9929 Y134.5713
G01 X10.9779 Y137.2659
G01 X9.2249 Y140.1515
G01 X7.7513 Y143.2105
G01 X6.5746 Y146.4253
G01 X5.7124 Y149.7787
G01 X5.1820 Y153.2536
G01 X5.0013 Y156.8335
G01 X5.1820 Y160.4134
G01 X5.7124 Y163.8883
G01 X6.5746 Y167.2417
G01 X7.7513 Y170.4565
G01 X9.2249 Y173.5155
G01 X10.9779 Y176.4011
G01 X12.9929 Y179.0957
G01 X15.2521 Y181.5814
G01 Z-2.0000 F300
G01 X17.7378 Y183.8407 F2000
G01 X20.4324 Y185.8556
G01 X23.3180 Y187.6086
G01 X26.3770 Y189.0822
G01 X29.5918 Y190.2589
G01 X32.9452 Y191.1211
G01 X36.4201 Y191.6515
G01 X40.0000 Y191.8322
G01 X43.5799 Y191.6515
G01 X47.0548 Y191.1211
G01 X50.4082 Y190.2589
G01 X53.6231 Y189.0822
G01 X56.6820 Y187.6086
G01 X59.5676 Y185.8556
G01 X62.2622 Y183.8407
G01 X64.7479 Y181.5814
G01 X67.0072 Y179.0957
G01 X69.0221 Y176.4011
G01 X70.7752 Y173.5155
G01 X72.2487 Y170.4565
G01 X73.4254 Y167.2417
G01 X74.2876 Y163.8883
G01 X74.8180 Y160.4134
G01 X74.9987 Y156.8335
G01 X74.8180 Y153.2536
G01 X74.2876 Y149.7787
G01 X73.4254 Y146.4253
G01 X72.2487 Y143.2105
G01 X70.7752 Y140.1515
G01 X69.0221 Y137.2659
G01 X67.0072 Y134.5713
G01 X64.7479 Y132.0856
G01 X62.2622 Y129.8264
G01 X59.5676 Y127.8114
G01 X56.6820 Y126.0584
G01 X53.6231 Y124.5848
G01 X50.4082 Y123.4081
G01 X47.0548 Y122.5459
G01 X43.5799 Y122.0155
G01 X40.0000 Y121.8348
G01 X36.4201 Y122.0155
G01 X32.9452 Y122.5459
G01 X29.5918 Y123.4081
G01 X26.3770 Y124.5848
G01 X23.3180 Y126.0584
G01 X20.4324 Y127.8114
G01 X17.7378 Y129.8264
G01 X15.2521 Y132.0856
G01 X12.9929 Y134.5713
G01 X10.9779 Y137.2659
G01 X9.2249 Y140.1515
G01 X7.7513 Y143.2105
G01 X6.5746 Y146.4253
G01 X5.7124 Y149.7787
G01 X5.1820 Y153.2536
G01 X5.0013 Y156.8335
G01 X5.1820 Y160.4134
G01 X5.7124 Y163.8883
G01 X6.5746 Y167.2417
G01 X7.7513 Y170.4565
G01 X9.2249 Y173.5155
G01 X10.9779 Y176.4011
G01 X12.9929 Y179.0957
G01 X15.2521 Y181.5814
G01 Z-3.0000 F300
G01 X17.7378 Y183.8407 F2000
G01 X20.4324 Y185.8556
G01 X23.3180 Y187.6086
G01 X26.3770 Y189.0822
G01 X29.5918 Y190.2589
G01 X32.9452 Y191.1211
G01 X36.4201 Y191.6515
G01 X40.0000 Y191.8322
G01 X43.5799 Y191.6515
G01 X47.0548 Y191.1211
G01 X50.4082 Y190.2589
G01 X53.6231 Y189.0822
G01 X56.6820 Y187.6086
G01 X59.5676 Y185.8556
G01 X62.2622 Y183.8407
G01 X64.7479 Y181.5814
G01 X67.0072 Y179.0957
G01 X69.0221 Y176.4011
G01 X70.7752 Y173.5155
G01 X72.2487 Y170.4565
G01 X73.4254 Y167.2417
G01 X74.2876 Y163.8883
G01 X74.8180 Y160.4134
G01 X74.9987 Y156.8335
G01 X74.8180 Y153.2536
G01 X74.2876 Y149.7787
G01 X73.4254 Y146.4253
G01 X72.2487 Y143.2105
G01 X70.7752 Y140.1515
G01 X69.0221 Y137.2659
G01 X67.0072 Y134.5713
G01 X64.7479 Y132.0856
G01 X62.2622 Y129.8264
G01 X59.5676 Y127.8114
G01 X56.6820 Y126.0584
G01 X53.6231 Y124.5848
G01 X50.4082 Y123.4081
G01 X47.0548 Y122.5459
G01 X43.5799 Y122.0155
G01 X40.0000 Y121.8348
G01 X36.4201 Y122.0155
G01 X32.9452 Y122.5459
G01 X29.5918 Y123.4081
G01 X26.3770 Y124.5848
G01 X23.3180 Y126.0584
G01 X20.4324 Y127.8114
G01 X17.7378 Y129.8264
G01 X15.2521 Y132.0856
G01 X12.9929 Y134.5713
G01 X10.9779 Y137.2659
G01 X9.2249 Y140.1515
G01 X7.7513 Y143.2105
G01 X6.5746 Y146.4253
G01 X5.7124 Y149.7787
G01 X5.1820 Y153.2536
G01 X5.0013 Y156.8335
G01 X5.1820 Y160.4134
G01 X5.7124 Y163.8883
G01 X6.5746 Y167.2417
G01 X7.7513 Y170.4565
G01 X9.2249 Y173.5155
G01 X10.9779 Y176.4011
G01 X12.9929 Y179.0957
G01 X15.2521 Y181.5814
G00 Z5.0000

(Nr. 39 Ausschnitt 2)
G00 X85.7124 Y163.8883
G00 Z0.5000
G01 Z-1.0000 F300
G01 X86.5746 Y167.2417 F2000
G01 X87.7513 Y170.4565
G01 X89.2249 Y173.5155
G01 X90.9779 Y176.4011
G01 X92.9929 Y179.0957
G01 X95.2521 Y181.5814
G01 X97.7378 Y183.8407
G01 X100.4324 Y185.8556
G01 X103.3180 Y187.6086
G01 X106.3770 Y189.0822
G01 X109.5918 Y190.2589
G01 X112.9452 Y191.1211
G01 X116.4201 Y191.6515
G01 X120.0000 Y191.8322
G01 X123.5799 Y191.6515
G01 X127.0548 Y191.1211
G01 X130.4082 Y190.2589
G01 X133.6230 Y189.0822
G01 X136.6820 Y187.6086
G01 X139.5676 Y185.8556
G01 X142.2622 Y183.8407
G01 X144.7479 Y181.5814
G01 X147.0072 Y179.0957
G01 X149.0221 Y176.4011
G01 X150.7751 Y173.5155
G01 X152.2487 Y170.4565
G01 X153.4254 Y167.2417
G01 X154.2876 Y163.8883
G01 X154.8179 Y160.4134
G01 X154.9987 Y156.8335
G01 X154.8179 Y153.2536
G01 X154.2876 Y149.7787
G01 X153.4254 Y146.4253
G01 X152.2487 Y143.2105
G01 X150.7751 Y140.1515
G01 X149.0221 Y137.2659
G01 X147.0072 Y134.5713
G01 X144.7479 Y132.0856
G01 X142.2622 Y129.8264
G01 X139.5676 Y127.8114
G01 X136.6820 Y126.0584
G01 X133.6230 Y124.5848
G01 X130.4082 Y123.4081
G01 X127.0548 Y122.5459
G01 X123.5799 Y122.0155
G01 X120.0000 Y121.8348
G01 X116.4201 Y122.0155
G01 X112.9452 Y122.5459
G01 X109.5918 Y123.4081
G01 X106.3770 Y124.5848
G01 X103.3180 Y126.0584
G01 X100.4324 Y127.8114
G01 X97.7378 Y129.8264
G01 X95.2521 Y132.0856
G01 X92.9929 Y134.5713
G01 X90.9779 Y137.2659
G01 X89.2249 Y140.1515
G01 X87.7513 Y143.2105
G01 X86.5746 Y146.4253
G01 X85.7124 Y149.7787
G01 X85.1820 Y153.2536
G01 X85.0013 Y156.8335
G01 X85.1820 Y160.4134
G01 X85.7124 Y163.8883
G01 Z-2.0000 F300
G01 X86.5746 Y167.2417 F2000
G01 X87.7513 Y170.4565
G01 X89.2249 Y173.5155
G01 X90.9779 Y176.4011
G01 X92.9929 Y179.0957
G01 X95.2521 Y181.5814
G01 X97.7378 Y183.8407
G01 X100.4324 Y185.8556
G01 X103.3180 Y187.6086
G01 X106.3770 Y189.0822
G01 X109.5918 Y190.2589
G01 X112.9452 Y191.1211
G01 X116.4201 Y191.6515
G01 X120.0000 Y191.8322
G01 X123.5799 Y191.6515
G01 X127.0548 Y191.1211
G01 X130.4082 Y190.2589
G01 X133.6230 Y189.0822
G01 X136.6820 Y187.6086
G01 X139.5676 Y185.8556
G01 X142.2622 Y183.8407
G01 X144.7479 Y181.5814
G01 X147.0072 Y179.0957
G01 X149.0221 Y176.4011
G01 X150.7751 Y173.5155
G01 X152.2487 Y170.4565
G01 X153.4254 Y167.2417
G01 X154.2876 Y163.8883
G01 X154.8179 Y160.4134
G01 X154.9987 Y156.8335
G01 X154.8179 Y153.2536
G01 X154.2876 Y149.7787
G01 X153.4254 Y146.4253
G01 X152.2487 Y143.2105
G01 X150.7751 Y140.1515
G01 X149.0221 Y137.2659
G01 X147.0072 Y134.5713
G01 X144.7479 Y132.0856
G01 X142.2622 Y129.8264
G01 X139.5676 Y127.8114
G01 X136.6820 Y126.0584
G01 X133.6230 Y124.5848
G01 X130.4082 Y123.4081
G01 X127.0548 Y122.5459
G01 X123.5799 Y122.0155
G01 X120.0000 Y121.8348
G01 X116.4201 Y122.0155
G01 X112.9452 Y122.5459
G01 X109.5918 Y123.4081
G01 X106.3770 Y124.5848
G01 X103.3180 Y126.0584
G01 X100.4324 Y127.8114
G01 X97.7378 Y129.8264
G01 X95.2521 Y132.0856
G01 X92.9929 Y134.5713
G01 X90.9779 Y137.2659
G01 X89.2249 Y140.1515
G01 X87.7513 Y143.2105
G01 X86.5746 Y146.4253
G01 X85.7124 Y149.7787
G01 X85.1820 Y153.2536
G01 X85.0013 Y156.8335
G01 X85.1820 Y160.4134
G01 X85.7124 Y163.8883
G01 Z-3.0000 F300
G01 X86.5746 Y167.2417 F2000
G01 X87.7513 Y170.4565
G01 X89.2249 Y173.5155
G01 X90.9779 Y176.4011
G01 X92.9929 Y179.0957
G01 X95.2521 Y181.5814
G01 X97.7378 Y183.8407
G01 X100.4324 Y185.8556
G01 X103.3180 Y187.6086
G01 X106.3770 Y189.0822
G01 X109.5918 Y190.2589
G01 X112.9452 Y191.1211
G01 X116.4201 Y191.6515
G01 X120.0000 Y191.8322
G01 X123.5799 Y191.6515
G01 X127.0548 Y191.1211
G01 X130.4082 Y190.2589
G01 X133.6230 Y189.0822
G01 X136.6820 Y187.6086
G01 X139.5676 Y185.8556
G01 X142.2622 Y183.8407
G01 X144.7479 Y181.5814
G01 X147.0072 Y179.0957
G01 X149.0221 Y176.4011
G01 X150.7751 Y173.5155
G01 X152.2487 Y170.4565
G01 X153.4254 Y167.2417
G01 X154.2876 Y163.8883
G01 X154.8179 Y160.4134
G01 X154.9987 Y156.8335
G01 X154.8179 Y153.2536
G01 X154.2876 Y149.7787
G01 X153.4254 Y146.4253
G01 X152.2487 Y143.2105
G01 X150.7751 Y140.1515
G01 X149.0221 Y137.2659
G01 X147.0072 Y134.5713
G01 X144.7479 Y132.0856
G01 X142.2622 Y129.8264
G01 X139.5676 Y127.8114
G01 X136.6820 Y126.0584
G01 X133.6230 Y124.5848
G01 X130.4082 Y123.4081
G01 X127.0548 Y122.5459
G01 X123.5799 Y122.0155
G01 X120.0000 Y121.8348
G01 X116.4201 Y122.0155
G01 X112.9452 Y122.5459
G01 X109.5918 Y123.4081
G01 X106.3770 Y124.5848
G01 X103.3180 Y126.0584
G01 X100.4324 Y127.8114
G01 X97.7378 Y129.8264
G01 X95.2521 Y132.0856
G01 X92.9929 Y134.5713
G01 X90.9779 Y137.2659
G01 X89.2249 Y140.1515
G01 X87.7513 Y143.2105
G01 X86.5746 Y146.4253
G01 X85.7124 Y149.7787
G01 X85.1820 Y153.2536
G01 X85.0013 Y156.8335
G01 X85.1820 Y160.4134
G01 X85.7124 Y163.8883
G00 Z5.0000

(Nr. 40 Ausschnitt 3)
G00 X165.1821 Y160.4134
G00 Z0.5000
G01 Z-1.0000 F300
G01 X165.7124 Y163.8883 F2000
G01 X166.5746 Y167.2417
G01 X167.7513 Y170.4565
G01 X169.2249 Y173.5155
G01 X170.9779 Y176.4011
G01 X172.9929 Y179.0957
G01 X175.2521 Y181.5814
G01 X177.7378 Y183.8407
G01 X180.4324 Y185.8556
G01 X183.3180 Y187.6086
G01 X186.3770 Y189.0822
G01 X189.5918 Y190.2589
G01 X192.9452 Y191.1211
G01 X196.4201 Y191.6515
G01 X200.0000 Y191.8322
G01 X203.5799 Y191.6515
G01 X207.0548 Y191.1211
G01 X210.4082 Y190.2589
G01 X213.6230 Y189.0822
G01 X216.6820 Y187.6086
G01 X219.5676 Y185.8556
G01 X222.2622 Y183.8407
G01 X224.7479 Y181.5814
G01 X227.0072 Y179.0957
G01 X229.0221 Y176.4011
G01 X230.7751 Y173.5155
G01 X232.2487 Y170.4565
G01 X233.4254 Y167.2417
G01 X234.2876 Y163.8883
G01 X234.8180 Y160.4134
G01 X234.9987 Y156.8335
G01 X234.8180 Y153.2536
G01 X234.2876 Y149.7787
G01 X233.4254 Y146.4253
G01 X232.2487 Y143.2105
G01 X230.7751 Y140.1515
G01 X229.0221 Y137.2659
G01 X227.0072 Y134.5713
G01 X224.7479 Y132.0856
G01 X222.2622 Y129.8264
G01 X219.5676 Y127.8114
G01 X216.6820 Y126.0584
G01 X213.6230 Y124.5848
G01 X210.4082 Y123.4081
G01 X207.0548 Y122.5459
G01 X203.5799 Y122.0155
G01 X200.0000 Y121.8348
G01 X196.4201 Y122.0155
G01 X192.9452 Y122.5459
G01 X189.5918 Y123.4081
G01 X186.3770 Y124.5848
G01 X183.3180 Y126.0584
G01 X180.4324 Y127.8114
G01 X177.7378 Y129.8264
G01 X175.2521 Y132.0856
G01 X172.9929 Y134.5713
G01 X170.9779 Y137.2659
G01 X169.2249 Y140.1515
G01 X167.7513 Y143.2105
G01 X166.5746 Y146.4253
G01 X165.7124 Y149.7787
G01 X165.1821 Y153.2536
G01 X165.0013 Y156.8335
G01 X165.1821 Y160.4134
G01 Z-2.0000 F300
G01 X165.7124 Y163.8883 F2000
G01 X166.5746 Y167.2417
G01 X167.7513 Y170.4565
G01 X169.2249 Y173.5155
G01 X170.9779 Y176.4011
G01 X172.9929 Y179.0957
G01 X175.2521 Y181.5814
G01 X177.7378 Y183.8407
G01 X180.4324 Y185.8556
G01 X183.3180 Y187.6086
G01 X186.3770 Y189.0822
G01 X189.5918 Y190.2589
G01 X192.9452 Y191.1211
G01 X196.4201 Y191.6515
G01 X200.0000 Y191.8322
G01 X203.5799 Y191.6515
G01 X207.0548 Y191.1211
G01 X210.4082 Y190.2589
G01 X213.6230 Y189.0822
G01 X216.6820 Y187.6086
G01 X219.5676 Y185.8556
G01 X222.2622 Y183.8407
G01 X224.7479 Y181.5814
G01 X227.0072 Y179.0957
G01 X229.0221 Y176.4011
G01 X230.7751 Y173.5155
G01 X232.2487 Y170.4565
G01 X233.4254 Y167.2417
G01 X234.2876 Y163.8883
G01 X234.8180 Y160.4134
G01 X234.9987 Y156.8335
G01 X234.8180 Y153.2536
G01 X234.2876 Y149.7787
G01 X233.4254 Y146.4253
G01 X232.2487 Y143.2105
G01 X230.7751 Y140.1515
G01 X229.0221 Y137.2659
G01 X227.0072 Y134.5713
G01 X224.7479 Y132.0856
G01 X222.2622 Y129.8264
G01 X219.5676 Y127.8114
G01 X216.6820 Y126.0584
G01 X213.6230 Y124.5848
G01 X210.4082 Y123.4081
G01 X207.0548 Y122.5459
G01 X203.5799 Y122.0155
G01 X200.0000 Y121.8348
G01 X196.4201 Y122.0155
G01 X192.9452 Y122.5459
G01 X189.5918 Y123.4081
G01 X186.3770 Y124.5848
G01 X183.3180 Y126.0584
G01 X180.4324 Y127.8114
G01 X177.7378 Y129.8264
G01 X175.2521 Y132.0856
G01 X172.9929 Y134.5713
G01 X170.9779 Y137.2659
G01 X169.2249 Y140.1515
G01 X167.7513 Y143.2105
G01 X166.5746 Y146.4253
G01 X165.7124 Y149.7787
G01 X165.1821 Y153.2536
G01 X165.0013 Y156.8335
G01 X165.1821 Y160.4134
G01 Z-3.0000 F300
G01 X165.7124 Y163.8883 F2000
G01 X166.5746 Y167.2417
G01 X167.7513 Y170.4565
G01 X169.2249 Y173.5155
G01 X170.9779 Y176.4011
G01 X172.9929 Y179.0957
G01 X175.2521 Y181.5814
G01 X177.7378 Y183.8407
G01 X180.4324 Y185.8556
G01 X183.3180 Y187.6086
G01 X186.3770 Y189.0822
G01 X189.5918 Y190.2589
G01 X192.9452 Y191.1211
G01 X196.4201 Y191.6515
G01 X200.0000 Y191.8322
G01 X203.5799 Y191.6515
G01 X207.0548 Y191.1211
G01 X210.4082 Y190.2589
G01 X213.6230 Y189.0822
G01 X216.6820 Y187.6086
G01 X219.5676 Y185.8556
G01 X222.2622 Y183.8407
G01 X224.7479 Y181.5814
G01 X227.0072 Y179.0957
G01 X229.0221 Y176.4011
G01 X230.7751 Y173.5155
G01 X232.2487 Y170.4565
G01 X233.4254 Y167.2417
G01 X234.2876 Y163.8883
G01 X234.8180 Y160.4134
G01 X234.9987 Y156.8335
G01 X234.8180 Y153.2536
G01 X234.2876 Y149.7787
G01 X233.4254 Y146.4253
G01 X232.2487 Y143.2105
G01 X230.7751 Y140.1515
G01 X229.0221 Y137.2659
G01 X227.0072 Y134.5713
G01 X224.7479 Y132.0856
G01 X222.2622 Y129.8264
G01 X219.5676 Y127.8114
G01 X216.6820 Y126.0584
G01 X213.6230 Y124.5848
G01 X210.4082 Y123.4081
G01 X207.0548 Y122.5459
G01 X203.5799 Y122.0155
G01 X200.0000 Y121.8348
G01 X196.4201 Y122.0155
G01 X192.9452 Y122.5459
G01 X189.5918 Y123.4081
G01 X186.3770 Y124.5848
G01 X183.3180 Y126.0584
G01 X180.4324 Y127.8114
G01 X177.7378 Y129.8264
G01 X175.2521 Y132.0856
G01 X172.9929 Y134.5713
G01 X170.9779 Y137.2659
G01 X169.2249 Y140.1515
G01 X167.7513 Y143.2105
G01 X166.5746 Y146.4253
G01 X165.7124 Y149.7787
G01 X165.1821 Y153.2536
G01 X165.0013 Y156.8335
G01 X165.1821 Y160.4134
G00 Z5.0000

(Nr. 41 Ausschnitt 4)
G00 X245.0013 Y156.8335
G00 Z0.5000
G01 Z-1.0000 F300
G01 X245.1821 Y160.4134 F2000
G01 X245.7124 Y163.8883
G01 X246.5746 Y167.2417
G01 X247.7513 Y170.4565
G01 X249.2249 Y173.5155
G01 X250.9779 Y176.4011
G01 X252.9928 Y179.0957
G01 X255.2521 Y181.5814
G01 X257.7378 Y183.8407
G01 X260.4324 Y185.8556
G01 X263.3180 Y187.6086
G01 X266.3770 Y189.0822
G01 X269.5918 Y190.2589
G01 X272.9452 Y191.1211
G01 X276.4201 Y191.6515
G01 X280.0000 Y191.8322
G01 X283.5799 Y191.6515
G01 X287.0548 Y191.1211
G01 X290.4082 Y190.2589
G01 X293.6230 Y189.0822
G01 X296.6820 Y187.6086
G01 X299.5676 Y185.8556
G01 X302.2622 Y183.8407
G01 X304.7479 Y181.5814
G01 X307.0071 Y179.0957
G01 X309.0221 Y176.4011
G01 X310.7751 Y173.5155
G01 X312.2487 Y170.4565
G01 X313.4254 Y167.2417
G01 X314.2876 Y163.8883
G01 X314.8180 Y160.4134
G01 X314.9987 Y156.8335
G01 X314.8180 Y153.2536
G01 X314.2876 Y149.7787
G01 X313.4254 Y146.4253
G01 X312.2487 Y143.2105
G01 X310.7751 Y140.1515
G01 X309.0221 Y137.2659
G01 X307.0071 Y134.5713
G01 X304.7479 Y132.0856
G01 X302.2622 Y129.8264
G01 X299.5676 Y127.8114
G01 X296.6820 Y126.0584
G01 X293.6230 Y124.5848
G01 X290.4082 Y123.4081
G01 X287.0548 Y122.5459
G01 X283.5799 Y122.0155
G01 X280.0000 Y121.8348
G01 X276.4201 Y122.0155
G01 X272.9452 Y122.5459
G01 X269.5918 Y123.4081
G01 X266.3770 Y124.5848
G01 X263.3180 Y126.0584
G01 X260.4324 Y127.8114
G01 X257.7378 Y129.8264
G01 X255.2521 Y132.0856
G01 X252.9928 Y134.5713
G01 X250.9779 Y137.2659
G01 X249.2249 Y140.1515
G01 X247.7513 Y143.2105
G01 X246.5746 Y146.4253
G01 X245.7124 Y149.7787
G01 X245.1821 Y153.2536
G01 X245.0013 Y156.8335
G01 Z-2.0000 F300
G01 X245.1821 Y160.4134 F2000
G01 X245.7124 Y163.8883
G01 X246.5746 Y167.2417
G01 X247.7513 Y170.4565
G01 X249.2249 Y173.5155
G01 X250.9779 Y176.4011
G01 X252.9928 Y179.0957
G01 X255.2521 Y181.5814
G01 X257.7378 Y183.8407
G01 X260.4324 Y185.8556
G01 X263.3180 Y187.6086
G01 X266.3770 Y189.0822
G01 X269.5918 Y190.2589
G01 X272.9452 Y191.1211
G01 X276.4201 Y191.6515
G01 X280.0000 Y191.8322
G01 X283.5799 Y191.6515
G01 X287.0548 Y191.1211
G01 X290.4082 Y190.2589
G01 X293.6230 Y189.0822
G01 X296.6820 Y187.6086
G01 X299.5676 Y185.8556
G01 X302.2622 Y183.8407
G01 X304.7479 Y181.5814
G01 X307.0071 Y179.0957
G01 X309.0221 Y176.4011
G01 X310.7751 Y173.5155
G01 X312.2487 Y170.4565
G01 X313.4254 Y167.2417
G01 X314.2876 Y163.8883
G01 X314.8180 Y160.4134
G01 X314.9987 Y156.8335
G01 X314.8180 Y153.2536
G01 X314.2876 Y149.7787
G01 X313.4254 Y146.4253
G01 X312.2487 Y143.2105
G01 X310.7751 Y140.1515
G01 X309.0221 Y137.2659
G01 X307.0071 Y134.5713
G01 X304.7479 Y132.0856
G01 X302.2622 Y129.8264
G01 X299.5676 Y127.8114
G01 X296.6820 Y126.0584
G01 X293.6230 Y124.5848
G01 X290.4082 Y123.4081
G01 X287.0548 Y122.5459
G01 X283.5799 Y122.0155
G01 X280.0000 Y121.8348
G01 X276.4201 Y122.0155
G01 X272.9452 Y122.5459
G01 X269.5918 Y123.4081
G01 X266.3770 Y124.5848
G01 X263.3180 Y126.0584
G01 X260.4324 Y127.8114
G01 X257.7378 Y129.8264
G01 X255.2521 Y132.0856
G01 X252.9928 Y134.5713
G01 X250.9779 Y137.2659
G01 X249.2249 Y140.1515
G01 X247.7513 Y143.2105
G01 X246.5746 Y146.4253
G01 X245.7124 Y149.7787
G01 X245.1821 Y153.2536
G01 X245.0013 Y156.8335
G01 Z-3.0000 F300
G01 X245.1821 Y160.4134 F2000
G01 X245.7124 Y163.8883
G01 X246.5746 Y167.2417
G01 X247.7513 Y170.4565
G01 X249.2249 Y173.5155
G01 X250.9779 Y176.4011
G01 X252.9928 Y179.0957
G01 X255.2521 Y181.5814
G01 X257.7378 Y183.8407
G01 X260.4324 Y185.8556
G01 X263.3180 Y187.6086
G01 X266.3770 Y189.0822
G01 X269.5918 Y190.2589
G01 X272.9452 Y191.1211
G01 X276.4201 Y191.6515
G01 X280.0000 Y191.8322
G01 X283.5799 Y191.6515
G01 X287.0548 Y191.1211
G01 X290.4082 Y190.2589
G01 X293.6230 Y189.0822
G01 X296.6820 Y187.6086
G01 X299.5676 Y185.8556
G01 X302.2622 Y183.8407
G01 X304.7479 Y181.5814
G01 X307.0071 Y179.0957
G01 X309.0221 Y176.4011
G01 X310.7751 Y173.5155
G01 X312.2487 Y170.4565
G01 X313.4254 Y167.2417
G01 X314.2876 Y163.8883
G01 X314.8180 Y160.4134
G01 X314.9987 Y156.8335
G01 X314.8180 Y153.2536
G01 X314.2876 Y149.7787
G01 X313.4254 Y146.4253
G01 X312.2487 Y143.2105
G01 X310.7751 Y140.1515
G01 X309.0221 Y137.2659
G01 X307.0071 Y134.5713
G01 X304.7479 Y132.0856
G01 X302.2622 Y129.8264
G01 X299.5676 Y127.8114
G01 X296.6820 Y126.0584
G01 X293.6230 Y124.5848
G01 X290.4082 Y123.4081
G01 X287.0548 Y122.5459
G01 X283.5799 Y122.0155
G01 X280.0000 Y121.8348
G01 X276.4201 Y122.0155
G01 X272.9452 Y122.5459
G01 X269.5918 Y123.4081
G01 X266.3770 Y124.5848
G01 X263.3180 Y126.0584
G01 X260.4324 Y127.8114
G01 X257.7378 Y129.8264
G01 X255.2521 Y132.0856
G01 X252.9928 Y134.5713
G01 X250.9779 Y137.2659
G01 X249.2249 Y140.1515
G01 X247.7513 Y143.2105
G01 X246.5746 Y146.4253
G01 X245.7124 Y149.7787
G01 X245.1821 Y153.2536
G01 X245.0013 Y156.8335
G00 Z5.0000

(Nr. 42 Teil 1)
G00 X320.0000 Y109.0000
G00 Z0.5000
G01 Z-1.0000 F300
G03 X321.0000 Y110.0000 I0.0000 J1.0000 F2000
G01 Y203.6670
G03 X320.0000 Y204.6670 I-1.0000 J0.0000
G01 X0.0000
G03 X-1.0000 Y203.6670 I0.0000 J-1.0000
G01 Y110.0000
G03 X0.0000 Y109.0000 I1.0000 J0.0000
G01 X320.0000
G01 Z-2.0000 F300
G03 X321.0000 Y110.0000 I0.0000 J1.0000 F2000
G01 Y203.6670
G03 X320.0000 Y204.6670 I-1.0000 J0.0000
G01 X0.0000
G03 X-1.0000 Y203.6670 I0.0000 J-1.0000
G01 Y110.0000
G03 X0.0000 Y109.0000 I1.0000 J0.0000
G01 X320.0000
G01 Z-3.0000 F300
G03 X321.0000 Y110.0000 I0.0000 J1.0000 F2000
G01 Y203.6670
G03 X320.0000 Y204.6670 I-1.0000 J0.0000
G01 X0.0000
G03 X-1.0000 Y203.6670 I0.0000 J-1.0000
G01 Y110.0000
G03 X0.0000 Y109.0000 I1.0000 J0.0000
G01 X320.0000
G00 Z5.0000
G00 X0.0000 Y0.0000

M05
M30
