(Projekt m-seite-schriftzug)
(Erstellt mit Estlcam 2.5D Version 7 Build 7,101)
(Fraesrichtung: Gegenlauf)
(Nullpunkt: Auf Teileoberseite)
(Maximale Fraestiefe: 3,00mm)
(Verwendete Werkzeuge:)
(Fraeser 2mm)

G90
M03
G00 Z5.0000

(Nr. 1 Ausschnitt 2)
G00 X67.5000 Y96.2000
G00 Z0.5000
G01 Z-1.0000 F300 S24000
G01 Y113.8000 F2000
G01 X69.0000
G01 Y96.2000
G01 X70.5000
G01 Y113.8000
G01 X72.0000
G01 Y96.2000
G01 X73.5000
G01 Y113.8000
G01 X75.0000
G01 Y96.2000
G01 X76.5000
G01 Y113.8000
G00 Z5.0000
G00 X67.0000 Y96.0000
G00 Z0.5000
G01 Z-1.0000 F300
G01 Y114.0000 F2000
G01 X77.0000
G01 Y96.0000
G01 X67.0000
G00 Z5.0000

(Nr. 2 Ausschnitt 3)
G00 X175.5000 Y108.2000
G00 Z0.5000
G01 Z-1.0000 F300
G01 Y113.8000 F2000
G01 X177.0000
G01 Y108.2000
G01 X178.5000
G01 Y113.8000
G01 X180.0000
G01 Y108.2000
G01 X181.5000
G01 Y113.8000
G01 X183.0000
G01 Y108.2000
G01 X184.5000
G01 Y113.8000
G00 Z5.0000
G00 X175.0000 Y108.0000
G00 Z0.5000
G01 Z-1.0000 F300
G01 Y114.0000 F2000
G01 X185.0000
G01 Y108.0000
G01 X175.0000
G00 Z5.0000

(Nr. 3 Ausschnitt 4)
G00 X243.5000 Y104.2000
G00 Z0.5000
G01 Z-1.0000 F300
G01 Y113.8000 F2000
G01 X245.0000
G01 Y104.2000
G01 X246.5000
G01 Y113.8000
G01 X248.0000
G01 Y104.2000
G01 X249.5000
G01 Y113.8000
G01 X251.0000
G01 Y104.2000
G01 X252.5000
G01 Y113.8000
G00 Z5.0000
G00 X243.0000 Y104.0000
G00 Z0.5000
G01 Z-1.0000 F300
G01 Y114.0000 F2000
G01 X253.0000
G01 Y104.0000
G01 X243.0000
G00 Z5.0000

(Nr. 4 Ausschnitt 1)
G00 X244.0000 Y97.8000
G00 Y84.2000
G00 Z0.5000
G01 Z-1.0000 F300
G01 Y97.8000 F2000
G01 X245.5000
G01 Y84.2000
G01 X247.0000
G01 Y97.8000
G01 X248.5000
G01 Y84.2000
G01 X248.8000
G01 Y87.0000
G01 X248.8007 Y87.0419
G01 X248.8029 Y87.0837
G01 X248.8066 Y87.1254
G01 X248.8117 Y87.1670
G01 X248.8182 Y87.2084
G01 X248.8262 Y87.2495
G01 X248.8356 Y87.2903
G01 X248.8465 Y87.3308
G01 X248.8587 Y87.3708
G01 X248.8724 Y87.4104
G01 X248.8874 Y87.4495
G01 X248.9037 Y87.4881
G01 X248.9214 Y87.5261
G01 X248.9404 Y87.5634
G01 X248.9608 Y87.6000
G01 X248.9823 Y87.6359
G01 X249.0051 Y87.6710
G01 X249.0292 Y87.7054
G01 X249.0544 Y87.7388
G01 X249.0807 Y87.7714
G01 X249.1082 Y87.8030
G01 X249.1368 Y87.8336
G01 X249.1664 Y87.8632
G01 X249.1970 Y87.8918
G01 X249.2286 Y87.9193
G01 X249.2612 Y87.9456
G01 X249.2946 Y87.9708
G01 X249.3289 Y87.9949
G01 X249.3641 Y88.0177
G01 X249.4000 Y88.0392
G01 X249.4366 Y88.0596
G01 X249.4739 Y88.0786
G01 X249.5119 Y88.0963
G01 X249.5505 Y88.1126
G01 X249.5896 Y88.1276
G01 X249.6292 Y88.1413
G01 X249.6692 Y88.1535
G01 X249.7097 Y88.1644
G01 X249.7505 Y88.1738
G01 X249.7916 Y88.1818
G01 X249.8330 Y88.1883
G01 X249.8746 Y88.1934
G01 X249.9163 Y88.1971
G01 X249.9581 Y88.1993
G01 X250.0000 Y88.2000
G01 Y97.8000
G01 X251.5000
G01 Y88.2000
G01 X253.0000
G01 Y90.3014
G01 X253.0299 Y90.2612
G01 X253.0563 Y90.2287
G01 X253.0838 Y90.1971
G01 X253.1123 Y90.1664
G01 X253.1420 Y90.1368
G01 X253.1726 Y90.1082
G01 X253.2042 Y90.0808
G01 X253.2367 Y90.0544
G01 X253.2702 Y90.0292
G01 X253.3045 Y90.0052
G01 X253.3396 Y89.9824
G01 X253.3755 Y89.9608
G01 X253.4122 Y89.9405
G01 X253.4495 Y89.9215
G01 X253.4875 Y89.9038
G01 X253.5260 Y89.8874
G01 X253.5651 Y89.8724
G01 X253.6047 Y89.8587
G01 X253.6448 Y89.8465
G01 X253.6852 Y89.8357
G01 X253.7260 Y89.8262
G01 X253.7672 Y89.8182
G01 X253.8085 Y89.8117
G01 X253.8501 Y89.8066
G01 X253.8918 Y89.8029
G01 X253.9337 Y89.8007
G01 X253.9755 Y89.8000
G01 X254.5000
G01 Y88.0907
G01 X254.5260 Y88.0786
G01 X254.5634 Y88.0596
G01 X254.6000 Y88.0392
G01 X254.6359 Y88.0177
G01 X254.6710 Y87.9949
G01 X254.7053 Y87.9708
G01 X254.7388 Y87.9456
G01 X254.7713 Y87.9193
G01 X254.8029 Y87.8918
G01 X254.8336 Y87.8632
G01 X254.8632 Y87.8336
G01 X254.8918 Y87.8030
G01 X254.9192 Y87.7714
G01 X254.9456 Y87.7388
G01 X254.9708 Y87.7054
G01 X254.9948 Y87.6710
G01 X255.0176 Y87.6359
G01 X255.0392 Y87.6000
G01 X255.0595 Y87.5634
G01 X255.0785 Y87.5261
G01 X255.0962 Y87.4881
G01 X255.1126 Y87.4495
G01 X255.1276 Y87.4104
G01 X255.1413 Y87.3708
G01 X255.1535 Y87.3308
G01 X255.1643 Y87.2903
G01 X255.1738 Y87.2495
G01 X255.1817 Y87.2084
G01 X255.1883 Y87.1670
G01 X255.1934 Y87.1254
G01 X255.1971 Y87.0837
G01 X255.1992 Y87.0419
G01 X255.2000 Y87.0000
G01 Y84.2000
G01 X256.0000
G01 Y89.8000
G01 X257.5000
G01 Y84.2000
G01 X259.0000
G01 Y89.8000
G01 X260.5000
G01 Y84.2000
G01 X262.0000
G01 Y89.8004
G00 Z5.0000
G00 X263.5000 Y84.2000
G00 Z0.5000
G01 Z-1.0000 F300
G01 Y117.8000 F2000
G01 X262.0000
G01 Y116.1996
G01 X261.9755 Y116.2000
G01 X260.5000
G01 Y121.8000
G01 X259.0000
G01 Y119.6246
G01 X258.9932 Y119.6359
G01 X258.9704 Y119.6710
G01 X258.9464 Y119.7054
G01 X258.9211 Y119.7388
G01 X258.8948 Y119.7714
G01 X258.8673 Y119.8030
G01 X258.8387 Y119.8336
G01 X258.8091 Y119.8632
G01 X258.7785 Y119.8918
G01 X258.7469 Y119.9193
G01 X258.7143 Y119.9456
G01 X258.6809 Y119.9708
G01 X258.6465 Y119.9949
G01 X258.6114 Y120.0177
G01 X258.5755 Y120.0392
G01 X258.5389 Y120.0595
G01 X258.5016 Y120.0786
G01 X258.4636 Y120.0963
G01 X258.4250 Y120.1126
G01 X258.3860 Y120.1276
G01 X258.3463 Y120.1413
G01 X258.3063 Y120.1535
G01 X258.2658 Y120.1644
G01 X258.2250 Y120.1738
G01 X258.1839 Y120.1818
G01 X258.1425 Y120.1883
G01 X258.1010 Y120.1934
G01 X258.0592 Y120.1971
G01 X258.0174 Y120.1993
G01 X257.9755 Y120.2000
G01 X257.5000
G01 Y121.8000
G01 X256.0000
G01 Y120.2000
G01 X254.5000
G01 Y121.8000
G01 X253.0000
G01 Y120.2000
G01 X251.5000
G01 Y121.8000
G01 X250.0000
G01 Y120.2000
G01 X248.5000
G01 Y121.8000
G01 X247.0000
G01 Y120.2000
G01 X245.5000
G01 Y121.8000
G01 X244.0000
G01 Y120.2000
G01 X242.5000
G01 Y121.8000
G01 X241.0000
G01 Y120.2000
G01 X239.5000
G01 Y121.8000
G01 X238.0000
G01 Y120.2000
G01 X237.9755
G01 X237.9337 Y120.1993
G01 X237.8918 Y120.1971
G01 X237.8501 Y120.1934
G01 X237.8085 Y120.1883
G01 X237.7672 Y120.1818
G01 X237.7260 Y120.1738
G01 X237.6852 Y120.1644
G01 X237.6448 Y120.1535
G01 X237.6047 Y120.1413
G01 X237.5651 Y120.1276
G01 X237.5260 Y120.1126
G01 X237.4875 Y120.0963
G01 X237.4495 Y120.0786
G01 X237.4122 Y120.0595
G01 X237.3755 Y120.0392
G01 X237.3396 Y120.0177
G01 X237.3045 Y119.9949
G01 X237.2702 Y119.9708
G01 X237.2367 Y119.9456
G01 X237.2042 Y119.9193
G01 X237.1726 Y119.8918
G01 X237.1420 Y119.8632
G01 X237.1123 Y119.8336
G01 X237.0838 Y119.8030
G01 X237.0563 Y119.7714
G01 X237.0299 Y119.7388
G01 X237.0047 Y119.7054
G01 X236.9807 Y119.6710
G01 X236.9579 Y119.6359
G01 X236.9363 Y119.6000
G01 X236.9160 Y119.5634
G01 X236.8970 Y119.5261
G01 X236.8793 Y119.4881
G01 X236.8629 Y119.4495
G01 X236.8479 Y119.4104
G01 X236.8343 Y119.3708
G01 X236.8220 Y119.3308
G01 X236.8112 Y119.2903
G01 X236.8018 Y119.2495
G01 X236.7938 Y119.2084
G01 X236.7872 Y119.1670
G01 X236.7821 Y119.1254
G01 X236.7785 Y119.0837
G01 X236.7763 Y119.0419
G01 X236.7755 Y119.0000
G01 Y116.2000
G01 X236.5000
G01 Y121.8000
G01 X235.2000
G01 Y119.0000
G01 X235.1992 Y118.9581
G01 X235.1971 Y118.9163
G01 X235.1934 Y118.8746
G01 X235.1883 Y118.8330
G01 X235.1817 Y118.7916
G01 X235.1738 Y118.7505
G01 X235.1643 Y118.7097
G01 X235.1535 Y118.6692
G01 X235.1413 Y118.6292
G01 X235.1276 Y118.5896
G01 X235.1126 Y118.5505
G01 X235.0962 Y118.5119
G01 X235.0785 Y118.4740
G01 X235.0595 Y118.4366
G01 X235.0392 Y118.4000
G01 X235.0176 Y118.3641
G01 X235.0000 Y118.3369
G01 Y116.2000
G01 X233.9755
G01 X233.9337 Y116.1993
G01 X233.8918 Y116.1971
G01 X233.8501 Y116.1934
G01 X233.8085 Y116.1883
G01 X233.7672 Y116.1818
G01 X233.7260 Y116.1738
G01 X233.6852 Y116.1644
G01 X233.6448 Y116.1535
G01 X233.6047 Y116.1413
G01 X233.5651 Y116.1276
G01 X233.5260 Y116.1126
G01 X233.5000 Y116.1016
G01 Y117.8000
G01 X232.0000
G01 Y84.2000
G01 X230.5000
G01 Y97.9093
G01 X230.4881 Y97.9038
G01 X230.4495 Y97.8874
G01 X230.4104 Y97.8724
G01 X230.3708 Y97.8587
G01 X230.3307 Y97.8465
G01 X230.2903 Y97.8357
G01 X230.2495 Y97.8262
G01 X230.2084 Y97.8182
G01 X230.1670 Y97.8117
G01 X230.1254 Y97.8066
G01 X230.0837 Y97.8029
G01 X230.0419 Y97.8007
G01 X230.0000 Y97.8000
G01 X229.0000
G01 Y84.2000
G01 X227.5000
G01 Y97.8000
G01 X226.0000
G01 Y96.1996
G01 X225.9755 Y96.2000
G01 X224.5000
G01 Y97.8000
G01 X223.0000
G01 Y96.2000
G01 X221.5000
G01 Y97.8000
G01 X220.0000
G01 Y96.2000
G01 X218.5000
G01 Y97.8000
G01 X218.0000
G01 X217.9581 Y97.8007
G01 X217.9163 Y97.8029
G01 X217.8746 Y97.8066
G01 X217.8330 Y97.8117
G01 X217.7916 Y97.8182
G01 X217.7505 Y97.8262
G01 X217.7097 Y97.8357
G01 X217.6692 Y97.8465
G01 X217.6292 Y97.8587
G01 X217.5896 Y97.8724
G01 X217.5505 Y97.8874
G01 X217.5119 Y97.9038
G01 X217.4739 Y97.9215
G01 X217.4366 Y97.9405
G01 X217.4000 Y97.9608
G01 X217.3641 Y97.9824
G01 X217.3289 Y98.0052
G01 X217.2946 Y98.0292
G01 X217.2612 Y98.0544
G01 X217.2286 Y98.0808
G01 X217.1970 Y98.1082
G01 X217.1664 Y98.1368
G01 X217.1368 Y98.1664
G01 X217.1082 Y98.1971
G01 X217.0807 Y98.2287
G01 X217.0544 Y98.2612
G01 X217.0292 Y98.2947
G01 X217.0000 Y98.3369
G01 Y96.2000
G01 X215.5000
G01 Y117.8000
G01 X214.0000
G01 Y96.2000
G01 X212.5000
G01 Y121.8000
G01 X211.0000
G01 Y119.6246
G01 X210.9932 Y119.6359
G01 X210.9704 Y119.6710
G01 X210.9464 Y119.7054
G01 X210.9212 Y119.7388
G01 X210.8948 Y119.7714
G01 X210.8673 Y119.8030
G01 X210.8387 Y119.8336
G01 X210.8091 Y119.8632
G01 X210.7785 Y119.8918
G01 X210.7469 Y119.9193
G01 X210.7143 Y119.9456
G01 X210.6809 Y119.9708
G01 X210.6466 Y119.9949
G01 X210.6115 Y120.0177
G01 X210.5755 Y120.0392
G01 X210.5389 Y120.0595
G01 X210.5016 Y120.0786
G01 X210.4636 Y120.0963
G01 X210.4251 Y120.1126
G01 X210.3860 Y120.1276
G01 X210.3464 Y120.1413
G01 X210.3063 Y120.1535
G01 X210.2658 Y120.1644
G01 X210.2250 Y120.1738
G01 X210.1839 Y120.1818
G01 X210.1425 Y120.1883
G01 X210.1010 Y120.1934
G01 X210.0592 Y120.1971
G01 X210.0174 Y120.1993
G01 X209.9755 Y120.2000
G01 X209.5000
G01 Y121.8000
G01 X208.0000
G01 Y120.2000
G01 X206.5000
G01 Y121.8000
G01 X205.0000
G01 Y120.2000
G01 X203.5000
G01 Y121.8000
G01 X202.0000
G01 Y120.2000
G00 Z5.0000
G00 X200.5000 Y121.8000
G00 Z0.5000
G01 Z-1.0000 F300
G01 Y84.2000 F2000
G01 X199.0000
G01 Y118.3369
G01 X198.9708 Y118.2947
G01 X198.9456 Y118.2612
G01 X198.9192 Y118.2287
G01 X198.8918 Y118.1971
G01 X198.8632 Y118.1664
G01 X198.8336 Y118.1368
G01 X198.8029 Y118.1082
G01 X198.7713 Y118.0808
G01 X198.7388 Y118.0544
G01 X198.7053 Y118.0292
G01 X198.6710 Y118.0052
G01 X198.6359 Y117.9824
G01 X198.6000 Y117.9608
G01 X198.5634 Y117.9405
G01 X198.5260 Y117.9215
G01 X198.4881 Y117.9038
G01 X198.4495 Y117.8874
G01 X198.4104 Y117.8724
G01 X198.3708 Y117.8587
G01 X198.3307 Y117.8465
G01 X198.2903 Y117.8357
G01 X198.2495 Y117.8262
G01 X198.2084 Y117.8182
G01 X198.1670 Y117.8117
G01 X198.1254 Y117.8066
G01 X198.0837 Y117.8029
G01 X198.0419 Y117.8007
G01 X198.0000 Y117.8000
G01 X197.5000
G01 Y84.2000
G01 X196.0000
G01 Y117.8000
G01 X194.5000
G01 Y116.0793
G01 X194.4636 Y116.0963
G01 X194.4251 Y116.1126
G01 X194.3860 Y116.1276
G01 X194.3464 Y116.1413
G01 X194.3063 Y116.1535
G01 X194.2658 Y116.1644
G01 X194.2250 Y116.1738
G01 X194.1839 Y116.1818
G01 X194.1425 Y116.1883
G01 X194.1010 Y116.1934
G01 X194.0592 Y116.1971
G01 X194.0174 Y116.1993
G01 X193.9755 Y116.2000
G01 X193.0000
G01 Y118.3369
G01 X192.9823 Y118.3641
G01 X192.9608 Y118.4000
G01 X192.9404 Y118.4366
G01 X192.9214 Y118.4740
G01 X192.9037 Y118.5119
G01 X192.8874 Y118.5505
G01 X192.8724 Y118.5896
G01 X192.8587 Y118.6292
G01 X192.8465 Y118.6692
G01 X192.8356 Y118.7097
G01 X192.8262 Y118.7505
G01 X192.8182 Y118.7916
G01 X192.8117 Y118.8330
G01 X192.8066 Y118.8746
G01 X192.8029 Y118.9163
G01 X192.8007 Y118.9581
G01 X192.8000 Y119.0000
G01 Y121.8000
G01 X191.5000
G01 Y116.2000
G01 X191.1755
G01 Y119.0000
G01 X191.1748 Y119.0419
G01 X191.1726 Y119.0837
G01 X191.1690 Y119.1254
G01 X191.1639 Y119.1670
G01 X191.1573 Y119.2084
G01 X191.1493 Y119.2495
G01 X191.1399 Y119.2903
G01 X191.1291 Y119.3308
G01 X191.1168 Y119.3708
G01 X191.1032 Y119.4104
G01 X191.0882 Y119.4495
G01 X191.0718 Y119.4881
G01 X191.0541 Y119.5261
G01 X191.0351 Y119.5634
G01 X191.0148 Y119.6000
G01 X190.9932 Y119.6359
G01 X190.9704 Y119.6710
G01 X190.9464 Y119.7054
G01 X190.9212 Y119.7388
G01 X190.8948 Y119.7714
G01 X190.8673 Y119.8030
G01 X190.8387 Y119.8336
G01 X190.8091 Y119.8632
G01 X190.7785 Y119.8918
G01 X190.7469 Y119.9193
G01 X190.7143 Y119.9456
G01 X190.6809 Y119.9708
G01 X190.6466 Y119.9949
G01 X190.6115 Y120.0177
G01 X190.5755 Y120.0392
G01 X190.5389 Y120.0595
G01 X190.5016 Y120.0786
G01 X190.4636 Y120.0963
G01 X190.4251 Y120.1126
G01 X190.3860 Y120.1276
G01 X190.3464 Y120.1413
G01 X190.3063 Y120.1535
G01 X190.2658 Y120.1644
G01 X190.2250 Y120.1738
G01 X190.1839 Y120.1818
G01 X190.1425 Y120.1883
G01 X190.1010 Y120.1934
G01 X190.0592 Y120.1971
G01 X190.0174 Y120.1993
G01 X190.0000 Y120.1996
G01 Y121.8000
G01 X188.5000
G01 Y120.2000
G01 X187.0000
G01 Y121.8000
G01 X185.5000
G01 Y120.2000
G01 X184.0000
G01 Y121.8000
G01 X182.5000
G01 Y120.2000
G01 X181.0000
G01 Y121.8000
G01 X179.5000
G01 Y120.2000
G01 X178.0000
G01 Y121.8000
G01 X176.5000
G01 Y120.2000
G01 X175.0000
G01 Y121.8000
G01 X173.5000
G01 Y120.2000
G01 X172.0000
G01 Y121.8000
G01 X170.5000
G01 Y120.2000
G01 X169.0000
G01 Y121.8000
G01 X167.5000
G01 Y120.2000
G01 X166.0000
G01 Y121.8000
G01 X164.5000
G01 Y84.2000
G01 X163.0000
G01 Y121.8000
G01 X161.5000
G01 Y84.2000
G01 X160.0000
G01 Y121.8000
G01 X158.5000
G01 Y120.0907
G01 X158.4881 Y120.0963
G01 X158.4495 Y120.1126
G01 X158.4104 Y120.1276
G01 X158.3708 Y120.1413
G01 X158.3307 Y120.1535
G01 X158.2903 Y120.1644
G01 X158.2495 Y120.1738
G01 X158.2084 Y120.1818
G01 X158.1670 Y120.1883
G01 X158.1254 Y120.1934
G01 X158.0837 Y120.1971
G01 X158.0419 Y120.1993
G01 X158.0000 Y120.2000
G01 X157.0000
G01 Y121.8000
G01 X155.5000
G01 Y120.2000
G01 X154.0000
G01 Y121.8000
G01 X152.5000
G01 Y120.2000
G01 X151.0000
G01 Y121.8000
G01 X149.5000
G01 Y120.2000
G01 X148.0000
G01 Y121.8000
G01 X146.5000
G01 Y120.2000
G01 X145.0000
G01 Y121.8000
G01 X143.5000
G01 Y120.2000
G01 X142.0000
G01 Y121.8000
G01 X140.5000
G01 Y120.2000
G01 X139.0000
G01 Y121.8000
G01 X137.5000
G01 Y120.2000
G01 X136.0000
G01 Y121.8000
G01 X134.5000
G01 Y120.2000
G01 X133.0000
G01 Y121.8000
G01 X131.5000
G01 Y120.2000
G01 X130.0000
G01 Y121.8000
G01 X128.5000
G01 Y88.2000
G01 X130.0000
G01 Y89.8000
G01 X131.5000
G01 Y84.2000
G01 X133.0000
G01 Y89.8000
G01 X134.5000
G01 Y84.2000
G01 X136.0000
G01 Y89.8000
G01 X137.5000
G01 Y84.2000
G01 X139.0000
G01 Y89.8000
G01 X140.5000
G01 Y84.2000
G01 X142.0000
G01 Y89.8000
G01 X143.5000
G01 Y84.2000
G01 X145.0000
G01 Y89.8000
G01 X146.5000
G01 Y84.2000
G01 X148.0000
G01 Y89.8000
G01 X149.5000
G01 Y84.2000
G01 X151.0000
G01 Y89.8000
G01 X152.5000
G01 Y84.2000
G01 X154.0000
G01 Y89.8000
G01 X155.5000
G01 Y84.2000
G01 X157.0000
G01 Y89.8000
G01 X158.0000
G01 X158.0419 Y89.8007
G01 X158.0837 Y89.8029
G01 X158.1254 Y89.8066
G01 X158.1670 Y89.8117
G01 X158.2084 Y89.8182
G01 X158.2495 Y89.8262
G01 X158.2903 Y89.8357
G01 X158.3307 Y89.8465
G01 X158.3708 Y89.8587
G01 X158.4104 Y89.8724
G01 X158.4495 Y89.8874
G01 X158.4881 Y89.9038
G01 X158.5000 Y89.9093
G01 Y84.2000
G01 X166.0000
G01 Y89.8000
G01 X167.5000
G01 Y84.2000
G01 X169.0000
G01 Y89.8000
G01 X170.5000
G01 Y84.2000
G01 X172.0000
G01 Y89.8000
G01 X173.5000
G01 Y84.2000
G01 X175.0000
G01 Y90.3754
G00 Z5.0000
G00 X176.5000 Y101.8000
G00 Z0.5000
G01 Z-1.0000 F300
G01 Y84.2000 F2000
G01 X178.0000
G01 Y101.8000
G01 X179.5000
G01 Y84.2000
G01 X180.8000
G01 Y87.0000
G01 X180.8007 Y87.0419
G01 X180.8029 Y87.0837
G01 X180.8066 Y87.1254
G01 X180.8117 Y87.1670
G01 X180.8182 Y87.2084
G01 X180.8262 Y87.2495
G01 X180.8356 Y87.2903
G01 X180.8465 Y87.3308
G01 X180.8587 Y87.3708
G01 X180.8724 Y87.4104
G01 X180.8874 Y87.4495
G01 X180.9037 Y87.4881
G01 X180.9214 Y87.5261
G01 X180.9404 Y87.5634
G01 X180.9608 Y87.6000
G01 X180.9823 Y87.6359
G01 X181.0000 Y87.6631
G01 Y101.8000
G01 X182.5000
G01 Y88.2000
G01 X184.0000
G01 Y101.8000
G00 Z5.0000
G00 X191.5000 Y104.2000
G00 Z0.5000
G01 Z-1.0000 F300
G01 Y105.8000 F2000
G01 X193.0000
G01 Y104.2000
G01 X193.9755
G01 X194.0174 Y104.1993
G01 X194.0592 Y104.1971
G01 X194.1010 Y104.1934
G01 X194.1425 Y104.1883
G01 X194.1839 Y104.1818
G01 X194.2250 Y104.1738
G01 X194.2658 Y104.1644
G01 X194.3063 Y104.1535
G01 X194.3464 Y104.1413
G01 X194.3860 Y104.1276
G01 X194.4251 Y104.1126
G01 X194.4636 Y104.0963
G01 X194.5000 Y104.0793
G01 Y105.9207
G00 Z5.0000
G00 Y89.9207
G00 Z0.5000
G01 Z-1.0000 F300
G01 Y84.2000 F2000
G01 X193.0000
G01 Y89.8000
G01 X191.5000
G01 Y84.2000
G01 X190.0000
G01 Y89.8000
G01 X188.5000
G01 Y84.2000
G01 X187.2000
G01 Y87.0000
G01 X187.1992 Y87.0419
G01 X187.1971 Y87.0837
G01 X187.1934 Y87.1254
G01 X187.1883 Y87.1670
G01 X187.1817 Y87.2084
G01 X187.1738 Y87.2495
G01 X187.1643 Y87.2903
G01 X187.1535 Y87.3308
G01 X187.1413 Y87.3708
G01 X187.1276 Y87.4104
G01 X187.1126 Y87.4495
G01 X187.0962 Y87.4881
G01 X187.0785 Y87.5261
G01 X187.0595 Y87.5634
G01 X187.0392 Y87.6000
G01 X187.0176 Y87.6359
G01 X187.0000 Y87.6631
G01 Y89.8000
G01 X185.9755
G01 X185.9337 Y89.8007
G01 X185.8918 Y89.8029
G01 X185.8501 Y89.8066
G01 X185.8085 Y89.8117
G01 X185.7672 Y89.8182
G01 X185.7260 Y89.8262
G01 X185.6852 Y89.8357
G01 X185.6448 Y89.8465
G01 X185.6047 Y89.8587
G01 X185.5651 Y89.8724
G01 X185.5260 Y89.8874
G01 X185.5000 Y89.8984
G01 Y88.2000
G00 Z5.0000
G00 X202.0000 Y84.2000
G00 Z0.5000
G01 Z-1.0000 F300
G01 Y89.8000 F2000
G01 X203.5000
G01 Y84.2000
G01 X205.0000
G01 Y89.8000
G01 X206.5000
G01 Y84.2000
G01 X208.0000
G01 Y89.8000
G01 X209.5000
G01 Y84.2000
G01 X211.0000
G01 Y89.8000
G01 X212.5000
G01 Y84.2000
G01 X214.0000
G01 Y89.8000
G01 X215.5000
G01 Y84.2000
G01 X217.0000
G01 Y89.8000
G01 X218.5000
G01 Y84.2000
G01 X220.0000
G01 Y89.8000
G01 X221.5000
G01 Y84.2000
G01 X223.0000
G01 Y89.8000
G01 X224.5000
G01 Y84.2000
G01 X226.0000
G01 Y89.8004
G00 Z5.0000
G00 X233.5000 Y89.8984
G00 Z0.5000
G01 Z-1.0000 F300
G01 Y84.2000 F2000
G01 X235.0000
G01 Y89.8000
G01 X236.5000
G01 Y84.2000
G01 X238.0000
G01 Y89.8000
G01 X239.5000
G01 Y84.2000
G01 X241.0000
G01 Y89.8000
G01 X241.9755
G01 X242.0174 Y89.8007
G01 X242.0592 Y89.8029
G01 X242.1010 Y89.8066
G01 X242.1425 Y89.8117
G01 X242.1839 Y89.8182
G01 X242.2250 Y89.8262
G01 X242.2659 Y89.8357
G01 X242.3063 Y89.8465
G01 X242.3464 Y89.8587
G01 X242.3860 Y89.8724
G01 X242.4251 Y89.8874
G01 X242.4636 Y89.9038
G01 X242.5000 Y89.9207
G01 Y84.2000
G00 Z5.0000
G00 X265.0000
G00 Z0.5000
G01 Z-1.0000 F300
G01 Y117.8000 F2000
G01 X266.0000
G01 X266.0419 Y117.8007
G01 X266.0837 Y117.8029
G01 X266.1254 Y117.8066
G01 X266.1670 Y117.8117
G01 X266.2084 Y117.8182
G01 X266.2495 Y117.8262
G01 X266.2903 Y117.8357
G01 X266.3308 Y117.8465
G01 X266.3708 Y117.8587
G01 X266.4104 Y117.8724
G01 X266.4495 Y117.8874
G01 X266.4881 Y117.9038
G01 X266.5000 Y117.9093
G01 Y84.2000
G01 X268.0000
G01 Y121.8000
G01 X269.5000
G01 Y120.0907
G01 X269.5119 Y120.0963
G01 X269.5505 Y120.1126
G01 X269.5896 Y120.1276
G01 X269.6292 Y120.1413
G01 X269.6692 Y120.1535
G01 X269.7097 Y120.1644
G01 X269.7505 Y120.1738
G01 X269.7916 Y120.1818
G01 X269.8330 Y120.1883
G01 X269.8746 Y120.1934
G01 X269.9163 Y120.1971
G01 X269.9581 Y120.1993
G01 X270.0000 Y120.2000
G01 X271.0000
G01 Y121.8000
G01 X272.5000
G01 Y120.2000
G01 X274.0000
G01 Y121.8000
G01 X275.5000
G01 Y120.2000
G01 X277.0000
G01 Y121.8000
G01 X278.5000
G01 Y120.0907
G00 Z5.0000
G00 X280.0000 Y108.2000
G00 Z0.5000
G01 Z-1.0000 F300
G01 Y121.8000 F2000
G01 X281.5000
G01 Y108.2000
G01 X283.0000
G01 Y121.8000
G01 X284.5000
G01 Y108.2000
G00 Z5.0000
G00 X287.5000 Y101.8000
G00 Z0.5000
G01 Z-1.0000 F300
G01 Y84.2000 F2000
G01 X286.0000
G01 Y89.8000
G01 X284.5000
G01 Y84.2000
G01 X283.0000
G01 Y89.8000
G01 X281.5000
G01 Y84.2000
G01 X280.0000
G01 Y89.8000
G01 X278.5000
G01 Y88.0907
G01 X278.4881 Y88.0963
G01 X278.4495 Y88.1126
G01 X278.4104 Y88.1276
G01 X278.3708 Y88.1413
G01 X278.3308 Y88.1535
G01 X278.2903 Y88.1644
G01 X278.2495 Y88.1738
G01 X278.2084 Y88.1818
G01 X278.1670 Y88.1883
G01 X278.1254 Y88.1934
G01 X278.0837 Y88.1971
G01 X278.0419 Y88.1993
G01 X278.0000 Y88.2000
G01 X277.0000
G01 Y90.3369
G00 Z5.0000
G00 X275.5000 Y101.8000
G00 Z0.5000
G01 Z-1.0000 F300
G01 Y88.2000 F2000
G00 Z5.0000
G00 X274.0000 Y100.2000
G00 Z0.5000
G01 Z-1.0000 F300
G01 Y101.8000 F2000
G01 X273.9581 Y101.8007
G01 X273.9163 Y101.8029
G01 X273.8746 Y101.8066
G01 X273.8330 Y101.8117
G01 X273.7916 Y101.8182
G01 X273.7505 Y101.8262
G01 X273.7097 Y101.8357
G01 X273.6693 Y101.8465
G01 X273.6292 Y101.8587
G01 X273.5896 Y101.8724
G01 X273.5505 Y101.8874
G01 X273.5119 Y101.9038
G01 X273.4740 Y101.9215
G01 X273.4366 Y101.9405
G01 X273.4000 Y101.9608
G01 X273.3641 Y101.9824
G01 X273.3290 Y102.0052
G01 X273.2946 Y102.0292
G01 X273.2612 Y102.0544
G01 X273.2287 Y102.0808
G01 X273.1971 Y102.1082
G01 X273.1664 Y102.1368
G01 X273.1368 Y102.1664
G01 X273.1082 Y102.1971
G01 X273.0807 Y102.2287
G01 X273.0544 Y102.2612
G01 X273.0292 Y102.2947
G01 X273.0052 Y102.3290
G01 X272.9823 Y102.3641
G01 X272.9608 Y102.4000
G01 X272.9405 Y102.4366
G01 X272.9214 Y102.4740
G01 X272.9037 Y102.5119
G01 X272.8874 Y102.5505
G01 X272.8724 Y102.5896
G01 X272.8587 Y102.6292
G01 X272.8465 Y102.6692
G01 X272.8356 Y102.7097
G01 X272.8262 Y102.7505
G01 X272.8182 Y102.7916
G01 X272.8117 Y102.8330
G01 X272.8066 Y102.8746
G01 X272.8029 Y102.9163
G01 X272.8007 Y102.9581
G01 X272.8000 Y103.0000
G01 Y105.8000
G01 X272.5000
G01 Y100.2000
G01 X271.0000
G01 Y105.8000
G01 X270.0000
G01 X269.9581 Y105.8007
G01 X269.9163 Y105.8029
G01 X269.8746 Y105.8066
G01 X269.8330 Y105.8117
G01 X269.7916 Y105.8182
G01 X269.7505 Y105.8262
G01 X269.7097 Y105.8357
G01 X269.6693 Y105.8465
G01 X269.6292 Y105.8587
G01 X269.5896 Y105.8724
G01 X269.5505 Y105.8874
G01 X269.5119 Y105.9038
G01 X269.5000 Y105.9093
G01 Y100.0907
G00 Z5.0000
G00 X289.0000 Y84.2000
G00 Z0.5000
G01 Z-1.0000 F300
G01 Y101.8000 F2000
G01 X290.0000
G01 X290.0419 Y101.8007
G01 X290.0837 Y101.8029
G01 X290.1254 Y101.8066
G01 X290.1670 Y101.8117
G01 X290.2084 Y101.8182
G01 X290.2495 Y101.8262
G01 X290.2903 Y101.8357
G01 X290.3308 Y101.8465
G01 X290.3708 Y101.8587
G01 X290.4104 Y101.8724
G01 X290.4495 Y101.8874
G01 X290.4881 Y101.9038
G01 X290.5000 Y101.9093
G01 Y84.2000
G01 X292.0000
G01 Y105.8000
G01 X293.5000
G01 Y96.0907
G01 X293.5119 Y96.0963
G01 X293.5505 Y96.1126
G01 X293.5896 Y96.1276
G01 X293.6292 Y96.1413
G01 X293.6692 Y96.1535
G01 X293.7097 Y96.1644
G01 X293.7505 Y96.1738
G01 X293.7916 Y96.1818
G01 X293.8330 Y96.1883
G01 X293.8746 Y96.1934
G01 X293.9163 Y96.1971
G01 X293.9581 Y96.1993
G01 X294.0000 Y96.2000
G01 X295.0000
G01 Y106.3369
G00 Z5.0000
G00 X298.0000 Y100.2000
G00 Z0.5000
G01 Z-1.0000 F300
G01 Y117.8000 F2000
G01 X299.5000
G01 Y100.2000
G01 X298.0000
G01 X297.9581 Y100.1993
G01 X297.9163 Y100.1971
G01 X297.8746 Y100.1934
G01 X297.8330 Y100.1883
G01 X297.7916 Y100.1818
G01 X297.7505 Y100.1738
G01 X297.7097 Y100.1644
G01 X297.6692 Y100.1535
G01 X297.6292 Y100.1413
G01 X297.5896 Y100.1276
G01 X297.5505 Y100.1126
G01 X297.5119 Y100.0963
G01 X297.4740 Y100.0786
G01 X297.4366 Y100.0595
G01 X297.4000 Y100.0392
G01 X297.3641 Y100.0177
G01 X297.3290 Y99.9949
G01 X297.2946 Y99.9708
G01 X297.2612 Y99.9456
G01 X297.2287 Y99.9193
G01 X297.1971 Y99.8918
G01 X297.1664 Y99.8632
G01 X297.1368 Y99.8336
G01 X297.1082 Y99.8030
G01 X297.0807 Y99.7714
G01 X297.0544 Y99.7388
G01 X297.0292 Y99.7054
G01 X297.0052 Y99.6710
G01 X296.9823 Y99.6359
G01 X296.9608 Y99.6000
G01 X296.9405 Y99.5634
G01 X296.9214 Y99.5261
G01 X296.9037 Y99.4881
G01 X296.8874 Y99.4495
G01 X296.8724 Y99.4104
G01 X296.8587 Y99.3708
G01 X296.8465 Y99.3308
G01 X296.8356 Y99.2903
G01 X296.8262 Y99.2495
G01 X296.8182 Y99.2084
G01 X296.8117 Y99.1670
G01 X296.8066 Y99.1254
G01 X296.8029 Y99.0837
G01 X296.8007 Y99.0419
G01 X296.8000 Y99.0000
G01 Y96.2000
G01 X296.5000
G01 Y121.8000
G01 X295.0000
G01 Y119.6631
G01 X294.9708 Y119.7054
G01 X294.9456 Y119.7388
G01 X294.9193 Y119.7714
G01 X294.8918 Y119.8030
G01 X294.8632 Y119.8336
G01 X294.8336 Y119.8632
G01 X294.8029 Y119.8918
G01 X294.7713 Y119.9193
G01 X294.7388 Y119.9456
G01 X294.7054 Y119.9708
G01 X294.6710 Y119.9949
G01 X294.6359 Y120.0177
G01 X294.6000 Y120.0392
G01 X294.5634 Y120.0595
G01 X294.5260 Y120.0786
G01 X294.4881 Y120.0963
G01 X294.4495 Y120.1126
G01 X294.4104 Y120.1276
G01 X294.3708 Y120.1413
G01 X294.3307 Y120.1535
G01 X294.2903 Y120.1644
G01 X294.2495 Y120.1738
G01 X294.2084 Y120.1818
G01 X294.1670 Y120.1883
G01 X294.1254 Y120.1934
G01 X294.0837 Y120.1971
G01 X294.0419 Y120.1993
G01 X294.0000 Y120.2000
G01 X293.5000
G01 Y121.8000
G01 X292.0000
G01 Y120.2000
G01 X290.5000
G01 Y121.8000
G01 X289.0000
G01 Y120.2000
G01 X287.5000
G01 Y121.8000
G01 X286.0000
G01 Y120.2000
G00 Z5.0000
G00 X158.5000 Y113.9093
G00 Z0.5000
G01 Z-1.0000 F300
G01 Y96.0907 F2000
G01 X158.4881 Y96.0963
G01 X158.4495 Y96.1126
G01 X158.4104 Y96.1276
G01 X158.3708 Y96.1413
G01 X158.3307 Y96.1535
G01 X158.2903 Y96.1644
G01 X158.2495 Y96.1738
G01 X158.2084 Y96.1818
G01 X158.1670 Y96.1883
G01 X158.1254 Y96.1934
G01 X158.0837 Y96.1971
G01 X158.0419 Y96.1993
G01 X158.0000 Y96.2000
G01 X157.0000
G01 Y113.8000
G01 X155.5000
G01 Y96.2000
G01 X154.0000
G01 Y101.8000
G01 X152.5000
G01 Y96.2000
G01 X151.0000
G01 Y101.8000
G01 X149.5000
G01 Y96.2000
G01 X148.0000
G01 Y101.8000
G01 X146.5000
G01 Y96.2000
G01 X145.0000
G01 Y101.8000
G01 X143.5000
G01 Y96.2000
G01 X142.0000
G01 Y101.8000
G01 X140.5000
G01 Y96.2000
G00 Z5.0000
G00 Y108.2000
G00 Z0.5000
G01 Z-1.0000 F300
G01 Y113.8000 F2000
G01 X142.0000
G01 Y108.2000
G01 X143.5000
G01 Y113.8000
G01 X145.0000
G01 Y108.2000
G01 X146.5000
G01 Y113.8000
G01 X148.0000
G01 Y108.2000
G01 X149.5000
G01 Y113.8000
G01 X151.0000
G01 Y108.2000
G01 X152.5000
G01 Y113.8000
G01 X154.0000
G01 Y108.2000
G00 Z5.0000
G00 X127.0000 Y121.8000
G00 Z0.5000
G01 Z-1.0000 F300
G01 Y91.6631 F2000
G01 X126.9708 Y91.7054
G01 X126.9456 Y91.7388
G01 X126.9192 Y91.7714
G01 X126.8918 Y91.8030
G01 X126.8632 Y91.8336
G01 X126.8336 Y91.8632
G01 X126.8029 Y91.8918
G01 X126.7713 Y91.9193
G01 X126.7388 Y91.9456
G01 X126.7053 Y91.9708
G01 X126.6710 Y91.9949
G01 X126.6359 Y92.0177
G01 X126.6000 Y92.0392
G01 X126.5633 Y92.0596
G01 X126.5260 Y92.0786
G01 X126.4881 Y92.0963
G01 X126.4495 Y92.1126
G01 X126.4104 Y92.1276
G01 X126.3708 Y92.1413
G01 X126.3307 Y92.1535
G01 X126.2903 Y92.1644
G01 X126.2495 Y92.1738
G01 X126.2084 Y92.1818
G01 X126.1670 Y92.1883
G01 X126.1254 Y92.1934
G01 X126.0837 Y92.1971
G01 X126.0419 Y92.1993
G01 X126.0000 Y92.2000
G01 X125.5000
G01 Y121.8000
G01 X124.0000
G01 Y92.2000
G01 X122.5000
G01 Y101.9207
G01 X122.4636 Y101.9038
G01 X122.4251 Y101.8874
G01 X122.3860 Y101.8724
G01 X122.3464 Y101.8587
G01 X122.3063 Y101.8465
G01 X122.2658 Y101.8357
G01 X122.2250 Y101.8262
G01 X122.1839 Y101.8182
G01 X122.1425 Y101.8117
G01 X122.1010 Y101.8066
G01 X122.0592 Y101.8029
G01 X122.0174 Y101.8007
G01 X121.9755 Y101.8000
G01 X121.0000
G01 Y91.6631
G01 X120.9823 Y91.6359
G01 X120.9608 Y91.6000
G01 X120.9404 Y91.5634
G01 X120.9214 Y91.5261
G01 X120.9037 Y91.4881
G01 X120.8874 Y91.4495
G01 X120.8724 Y91.4104
G01 X120.8587 Y91.3708
G01 X120.8465 Y91.3308
G01 X120.8356 Y91.2903
G01 X120.8262 Y91.2495
G01 X120.8182 Y91.2084
G01 X120.8117 Y91.1670
G01 X120.8066 Y91.1254
G01 X120.8029 Y91.0837
G01 X120.8007 Y91.0419
G01 X120.8000 Y91.0000
G01 Y88.2000
G01 X119.5000
G01 Y101.8000
G01 X119.1755
G01 Y99.0000
G01 X119.1748 Y98.9581
G01 X119.1726 Y98.9163
G01 X119.1690 Y98.8746
G01 X119.1639 Y98.8330
G01 X119.1573 Y98.7916
G01 X119.1493 Y98.7505
G01 X119.1399 Y98.7097
G01 X119.1291 Y98.6692
G01 X119.1168 Y98.6292
G01 X119.1032 Y98.5896
G01 X119.0882 Y98.5505
G01 X119.0718 Y98.5119
G01 X119.0541 Y98.4740
G01 X119.0351 Y98.4367
G01 X119.0148 Y98.4000
G01 X118.9932 Y98.3641
G01 X118.9704 Y98.3290
G01 X118.9464 Y98.2947
G01 X118.9212 Y98.2612
G01 X118.8948 Y98.2287
G01 X118.8673 Y98.1971
G01 X118.8387 Y98.1664
G01 X118.8091 Y98.1368
G01 X118.7785 Y98.1082
G01 X118.7469 Y98.0808
G01 X118.7143 Y98.0544
G01 X118.6809 Y98.0292
G01 X118.6466 Y98.0052
G01 X118.6114 Y97.9824
G01 X118.5755 Y97.9608
G01 X118.5389 Y97.9405
G01 X118.5016 Y97.9215
G01 X118.4636 Y97.9038
G01 X118.4251 Y97.8874
G01 X118.3860 Y97.8724
G01 X118.3464 Y97.8587
G01 X118.3063 Y97.8465
G01 X118.2658 Y97.8357
G01 X118.2250 Y97.8262
G01 X118.1839 Y97.8182
G01 X118.1425 Y97.8117
G01 X118.1010 Y97.8066
G01 X118.0592 Y97.8029
G01 X118.0174 Y97.8007
G01 X118.0000 Y97.8004
G01 Y88.2000
G01 X117.9581 Y88.1993
G01 X117.9163 Y88.1971
G01 X117.8745 Y88.1934
G01 X117.8330 Y88.1883
G01 X117.7916 Y88.1818
G01 X117.7505 Y88.1738
G01 X117.7097 Y88.1644
G01 X117.6692 Y88.1535
G01 X117.6292 Y88.1413
G01 X117.5896 Y88.1276
G01 X117.5505 Y88.1126
G01 X117.5119 Y88.0963
G01 X117.4739 Y88.0786
G01 X117.4366 Y88.0596
G01 X117.4000 Y88.0392
G01 X117.3641 Y88.0177
G01 X117.3290 Y87.9949
G01 X117.2946 Y87.9708
G01 X117.2612 Y87.9456
G01 X117.2286 Y87.9193
G01 X117.1970 Y87.8918
G01 X117.1664 Y87.8632
G01 X117.1368 Y87.8336
G01 X117.1082 Y87.8030
G01 X117.0807 Y87.7714
G01 X117.0544 Y87.7388
G01 X117.0292 Y87.7054
G01 X117.0051 Y87.6710
G01 X116.9823 Y87.6359
G01 X116.9608 Y87.6000
G01 X116.9404 Y87.5634
G01 X116.9214 Y87.5261
G01 X116.9037 Y87.4881
G01 X116.8874 Y87.4495
G01 X116.8724 Y87.4104
G01 X116.8587 Y87.3708
G01 X116.8465 Y87.3308
G01 X116.8356 Y87.2903
G01 X116.8262 Y87.2495
G01 X116.8182 Y87.2084
G01 X116.8117 Y87.1670
G01 X116.8066 Y87.1254
G01 X116.8029 Y87.0837
G01 X116.8007 Y87.0419
G01 X116.8000 Y87.0000
G01 Y84.2000
G01 X116.5000
G01 Y97.8000
G01 X115.1755
G01 Y95.0000
G01 X115.1748 Y94.9581
G01 X115.1726 Y94.9163
G01 X115.1690 Y94.8746
G01 X115.1639 Y94.8330
G01 X115.1573 Y94.7916
G01 X115.1493 Y94.7505
G01 X115.1399 Y94.7097
G01 X115.1291 Y94.6692
G01 X115.1168 Y94.6292
G01 X115.1032 Y94.5896
G01 X115.0882 Y94.5505
G01 X115.0718 Y94.5119
G01 X115.0541 Y94.4740
G01 X115.0351 Y94.4367
G01 X115.0148 Y94.4000
G01 X115.0000 Y94.3754
G01 Y84.2000
G01 X113.5000
G01 Y93.8000
G01 X112.0000
G01 Y84.2000
G01 X110.5000
G01 Y89.9207
G01 X110.4636 Y89.9038
G01 X110.4251 Y89.8874
G01 X110.3860 Y89.8724
G01 X110.3464 Y89.8587
G01 X110.3063 Y89.8465
G01 X110.2658 Y89.8357
G01 X110.2250 Y89.8262
G01 X110.1839 Y89.8182
G01 X110.1425 Y89.8117
G01 X110.1010 Y89.8066
G01 X110.0592 Y89.8029
G01 X110.0174 Y89.8007
G01 X109.9755 Y89.8000
G01 X109.0000
G01 Y84.2000
G01 X107.5000
G01 Y89.8000
G01 X106.0000
G01 Y88.2000
G01 X104.5000
G01 Y93.8000
G01 X103.0000
G01 Y91.6631
G01 X102.9708 Y91.7054
G01 X102.9456 Y91.7388
G01 X102.9192 Y91.7714
G01 X102.8918 Y91.8030
G01 X102.8632 Y91.8336
G01 X102.8336 Y91.8632
G01 X102.8029 Y91.8918
G01 X102.7713 Y91.9193
G01 X102.7388 Y91.9456
G01 X102.7053 Y91.9708
G01 X102.6710 Y91.9949
G01 X102.6359 Y92.0177
G01 X102.6000 Y92.0392
G01 X102.5633 Y92.0596
G01 X102.5260 Y92.0786
G01 X102.4881 Y92.0963
G01 X102.4495 Y92.1126
G01 X102.4104 Y92.1276
G01 X102.3708 Y92.1413
G01 X102.3307 Y92.1535
G01 X102.2903 Y92.1644
G01 X102.2495 Y92.1738
G01 X102.2084 Y92.1818
G01 X102.1670 Y92.1883
G01 X102.1254 Y92.1934
G01 X102.0837 Y92.1971
G01 X102.0419 Y92.1993
G01 X102.0000 Y92.2000
G01 X101.5000
G01 Y93.8984
G01 X101.4875 Y93.9038
G01 X101.4495 Y93.9215
G01 X101.4122 Y93.9405
G01 X101.3755 Y93.9608
G01 X101.3396 Y93.9824
G01 X101.3045 Y94.0052
G01 X101.2702 Y94.0292
G01 X101.2367 Y94.0544
G01 X101.2042 Y94.0808
G01 X101.1726 Y94.1082
G01 X101.1420 Y94.1368
G01 X101.1123 Y94.1664
G01 X101.0838 Y94.1971
G01 X101.0563 Y94.2287
G01 X101.0299 Y94.2612
G01 X101.0047 Y94.2947
G01 X100.9807 Y94.3290
G01 X100.9579 Y94.3641
G01 X100.9363 Y94.4000
G01 X100.9160 Y94.4366
G01 X100.8970 Y94.4740
G01 X100.8793 Y94.5119
G01 X100.8629 Y94.5505
G01 X100.8479 Y94.5896
G01 X100.8343 Y94.6292
G01 X100.8220 Y94.6692
G01 X100.8112 Y94.7097
G01 X100.8018 Y94.7505
G01 X100.7938 Y94.7916
G01 X100.7872 Y94.8330
G01 X100.7821 Y94.8746
G01 X100.7785 Y94.9163
G01 X100.7763 Y94.9581
G01 X100.7755 Y95.0000
G01 Y97.8000
G01 X100.0000
G01 Y92.2000
G01 X99.2000
G01 Y95.0000
G01 X99.1993 Y95.0419
G01 X99.1971 Y95.0837
G01 X99.1934 Y95.1254
G01 X99.1883 Y95.1670
G01 X99.1818 Y95.2084
G01 X99.1738 Y95.2495
G01 X99.1643 Y95.2903
G01 X99.1535 Y95.3308
G01 X99.1413 Y95.3708
G01 X99.1276 Y95.4104
G01 X99.1126 Y95.4495
G01 X99.0962 Y95.4881
G01 X99.0785 Y95.5261
G01 X99.0595 Y95.5634
G01 X99.0392 Y95.6000
G01 X99.0176 Y95.6359
G01 X98.9948 Y95.6710
G01 X98.9708 Y95.7054
G01 X98.9456 Y95.7388
G01 X98.9192 Y95.7714
G01 X98.8918 Y95.8030
G01 X98.8632 Y95.8336
G01 X98.8336 Y95.8632
G01 X98.8029 Y95.8918
G01 X98.7713 Y95.9193
G01 X98.7388 Y95.9456
G01 X98.7053 Y95.9708
G01 X98.6710 Y95.9949
G01 X98.6359 Y96.0177
G01 X98.6000 Y96.0392
G01 X98.5634 Y96.0596
G01 X98.5260 Y96.0786
G01 X98.5000 Y96.0907
G01 Y97.8000
G01 X97.9755
G01 X97.9337 Y97.8007
G01 X97.8918 Y97.8029
G01 X97.8501 Y97.8066
G01 X97.8085 Y97.8117
G01 X97.7672 Y97.8182
G01 X97.7260 Y97.8262
G01 X97.6852 Y97.8357
G01 X97.6448 Y97.8465
G01 X97.6047 Y97.8587
G01 X97.5651 Y97.8724
G01 X97.5260 Y97.8874
G01 X97.4875 Y97.9038
G01 X97.4495 Y97.9215
G01 X97.4122 Y97.9405
G01 X97.3755 Y97.9608
G01 X97.3396 Y97.9824
G01 X97.3045 Y98.0052
G01 X97.2702 Y98.0292
G01 X97.2368 Y98.0544
G01 X97.2042 Y98.0808
G01 X97.1726 Y98.1082
G01 X97.1420 Y98.1368
G01 X97.1123 Y98.1664
G01 X97.0838 Y98.1971
G01 X97.0563 Y98.2287
G01 X97.0299 Y98.2612
G01 X97.0000 Y98.3014
G01 Y96.2000
G01 X95.5000
G01 Y101.8000
G01 X94.0000
G01 Y96.2000
G00 Z5.0000
G00 X86.5000 Y84.2000
G00 Z0.5000
G01 Z-1.0000 F300
G01 Y93.9093 F2000
G01 X86.4881 Y93.9038
G01 X86.4495 Y93.8874
G01 X86.4104 Y93.8724
G01 X86.3708 Y93.8587
G01 X86.3308 Y93.8465
G01 X86.2903 Y93.8357
G01 X86.2495 Y93.8262
G01 X86.2084 Y93.8182
G01 X86.1670 Y93.8117
G01 X86.1254 Y93.8066
G01 X86.0837 Y93.8029
G01 X86.0419 Y93.8007
G01 X86.0000 Y93.8000
G01 X85.0000
G01 Y84.2000
G01 X83.5000
G01 Y93.8000
G01 X83.2000
G01 Y91.0000
G01 X83.1993 Y90.9581
G01 X83.1971 Y90.9163
G01 X83.1934 Y90.8746
G01 X83.1883 Y90.8330
G01 X83.1818 Y90.7916
G01 X83.1738 Y90.7505
G01 X83.1643 Y90.7097
G01 X83.1535 Y90.6692
G01 X83.1413 Y90.6292
G01 X83.1276 Y90.5896
G01 X83.1126 Y90.5505
G01 X83.0962 Y90.5119
G01 X83.0785 Y90.4740
G01 X83.0595 Y90.4367
G01 X83.0392 Y90.4000
G01 X83.0176 Y90.3641
G01 X82.9948 Y90.3290
G01 X82.9708 Y90.2947
G01 X82.9456 Y90.2612
G01 X82.9192 Y90.2287
G01 X82.8918 Y90.1971
G01 X82.8632 Y90.1664
G01 X82.8336 Y90.1368
G01 X82.8029 Y90.1082
G01 X82.7713 Y90.0808
G01 X82.7388 Y90.0544
G01 X82.7053 Y90.0292
G01 X82.6710 Y90.0052
G01 X82.6359 Y89.9824
G01 X82.6000 Y89.9608
G01 X82.5634 Y89.9405
G01 X82.5260 Y89.9215
G01 X82.4881 Y89.9038
G01 X82.4495 Y89.8874
G01 X82.4104 Y89.8724
G01 X82.3708 Y89.8587
G01 X82.3308 Y89.8465
G01 X82.2903 Y89.8357
G01 X82.2495 Y89.8262
G01 X82.2084 Y89.8182
G01 X82.1670 Y89.8117
G01 X82.1254 Y89.8066
G01 X82.0837 Y89.8029
G01 X82.0419 Y89.8007
G01 X82.0000 Y89.8000
G01 Y84.2000
G01 X80.5000
G01 Y89.8000
G01 X79.0000
G01 Y84.2000
G01 X77.5000
G01 Y89.8000
G01 X76.0000
G01 Y84.2000
G01 X74.5000
G01 Y89.8000
G01 X73.0000
G01 Y84.2000
G01 X71.5000
G01 Y89.8000
G01 X70.0000
G01 Y84.2000
G01 X68.5000
G01 Y89.8000
G01 X67.0000
G01 Y84.2000
G01 X65.5000
G01 Y89.8000
G01 X64.0000
G01 Y84.2000
G01 X63.2000
G01 Y87.0000
G01 X63.1993 Y87.0419
G01 X63.1971 Y87.0837
G01 X63.1934 Y87.1254
G01 X63.1883 Y87.1670
G01 X63.1818 Y87.2084
G01 X63.1738 Y87.2495
G01 X63.1643 Y87.2903
G01 X63.1535 Y87.3308
G01 X63.1413 Y87.3708
G01 X63.1276 Y87.4104
G01 X63.1126 Y87.4495
G01 X63.0962 Y87.4881
G01 X63.0785 Y87.5261
G01 X63.0595 Y87.5634
G01 X63.0392 Y87.6000
G01 X63.0176 Y87.6359
G01 X62.9948 Y87.6710
G01 X62.9708 Y87.7054
G01 X62.9456 Y87.7388
G01 X62.9192 Y87.7714
G01 X62.8918 Y87.8030
G01 X62.8632 Y87.8336
G01 X62.8336 Y87.8632
G01 X62.8029 Y87.8918
G01 X62.7713 Y87.9193
G01 X62.7388 Y87.9456
G01 X62.7053 Y87.9708
G01 X62.6710 Y87.9949
G01 X62.6359 Y88.0177
G01 X62.6000 Y88.0392
G01 X62.5634 Y88.0596
G01 X62.5260 Y88.0786
G01 X62.5000 Y88.0907
G01 Y89.8000
G01 X62.0000
G01 X61.9581 Y89.8007
G01 X61.9163 Y89.8029
G01 X61.8746 Y89.8066
G01 X61.8330 Y89.8117
G01 X61.7916 Y89.8182
G01 X61.7505 Y89.8262
G01 X61.7097 Y89.8357
G01 X61.6692 Y89.8465
G01 X61.6292 Y89.8587
G01 X61.5896 Y89.8724
G01 X61.5505 Y89.8874
G01 X61.5119 Y89.9038
G01 X61.4739 Y89.9215
G01 X61.4366 Y89.9405
G01 X61.4000 Y89.9608
G01 X61.3641 Y89.9824
G01 X61.3290 Y90.0052
G01 X61.2946 Y90.0292
G01 X61.2612 Y90.0544
G01 X61.2286 Y90.0808
G01 X61.1970 Y90.1082
G01 X61.1664 Y90.1368
G01 X61.1368 Y90.1664
G01 X61.1082 Y90.1971
G01 X61.0807 Y90.2287
G01 X61.0544 Y90.2612
G01 X61.0292 Y90.2947
G01 X61.0000 Y90.3369
G01 Y88.2000
G01 X59.5000
G01 Y93.8000
G01 X58.0000
G01 Y88.2000
G01 X57.9581 Y88.1993
G01 X57.9163 Y88.1971
G01 X57.8746 Y88.1934
G01 X57.8330 Y88.1883
G01 X57.7916 Y88.1818
G01 X57.7505 Y88.1738
G01 X57.7097 Y88.1644
G01 X57.6692 Y88.1535
G01 X57.6292 Y88.1413
G01 X57.5896 Y88.1276
G01 X57.5505 Y88.1126
G01 X57.5119 Y88.0963
G01 X57.4739 Y88.0786
G01 X57.4366 Y88.0596
G01 X57.4000 Y88.0392
G01 X57.3641 Y88.0177
G01 X57.3290 Y87.9949
G01 X57.2946 Y87.9708
G01 X57.2612 Y87.9456
G01 X57.2286 Y87.9193
G01 X57.1970 Y87.8918
G01 X57.1664 Y87.8632
G01 X57.1368 Y87.8336
G01 X57.1082 Y87.8030
G01 X57.0807 Y87.7714
G01 X57.0544 Y87.7388
G01 X57.0292 Y87.7054
G01 X57.0051 Y87.6710
G01 X56.9823 Y87.6359
G01 X56.9608 Y87.6000
G01 X56.9405 Y87.5634
G01 X56.9214 Y87.5261
G01 X56.9037 Y87.4881
G01 X56.8874 Y87.4495
G01 X56.8724 Y87.4104
G01 X56.8587 Y87.3708
G01 X56.8465 Y87.3308
G01 X56.8356 Y87.2903
G01 X56.8262 Y87.2495
G01 X56.8182 Y87.2084
G01 X56.8117 Y87.1670
G01 X56.8066 Y87.1254
G01 X56.8029 Y87.0837
G01 X56.8007 Y87.0419
G01 X56.8000 Y87.0000
G01 Y84.2000
G01 X56.5000
G01 Y117.8000
G01 X55.0000
G01 Y84.2000
G01 X53.5000
G01 Y117.9093
G01 X53.4739 Y117.9215
G01 X53.4366 Y117.9405
G01 X53.4000 Y117.9608
G01 X53.3641 Y117.9824
G01 X53.3290 Y118.0052
G01 X53.2946 Y118.0292
G01 X53.2612 Y118.0544
G01 X53.2286 Y118.0808
G01 X53.1970 Y118.1082
G01 X53.1664 Y118.1368
G01 X53.1368 Y118.1664
G01 X53.1082 Y118.1971
G01 X53.0807 Y118.2287
G01 X53.0544 Y118.2612
G01 X53.0292 Y118.2947
G01 X53.0051 Y118.3290
G01 X52.9823 Y118.3641
G01 X52.9608 Y118.4000
G01 X52.9405 Y118.4366
G01 X52.9214 Y118.4740
G01 X52.9037 Y118.5119
G01 X52.8874 Y118.5505
G01 X52.8724 Y118.5896
G01 X52.8587 Y118.6292
G01 X52.8465 Y118.6692
G01 X52.8356 Y118.7097
G01 X52.8262 Y118.7505
G01 X52.8182 Y118.7916
G01 X52.8117 Y118.8330
G01 X52.8066 Y118.8746
G01 X52.8029 Y118.9163
G01 X52.8007 Y118.9581
G01 X52.8000 Y119.0000
G01 Y121.8000
G01 X50.5000
G01 Y120.0907
G01 X50.4881 Y120.0963
G01 X50.4495 Y120.1126
G01 X50.4104 Y120.1276
G01 X50.3708 Y120.1413
G01 X50.3308 Y120.1535
G01 X50.2903 Y120.1644
G01 X50.2495 Y120.1738
G01 X50.2084 Y120.1818
G01 X50.1670 Y120.1883
G01 X50.1254 Y120.1934
G01 X50.0837 Y120.1971
G01 X50.0419 Y120.1993
G01 X50.0000 Y120.2000
G01 X49.0000
G01 Y121.8000
G01 X47.5000
G01 Y120.2000
G01 X46.0000
G01 Y121.8000
G01 X44.5000
G01 Y120.2000
G01 X43.0000
G01 Y121.8000
G01 X41.5000
G01 Y120.0907
G00 Z5.0000
G00 X40.0000 Y108.2000
G00 Z0.5000
G01 Z-1.0000 F300
G01 Y121.8000 F2000
G01 X39.2000
G01 Y119.0000
G01 X39.1993 Y118.9581
G01 X39.1971 Y118.9163
G01 X39.1934 Y118.8746
G01 X39.1883 Y118.8330
G01 X39.1818 Y118.7916
G01 X39.1738 Y118.7505
G01 X39.1643 Y118.7097
G01 X39.1535 Y118.6692
G01 X39.1413 Y118.6292
G01 X39.1276 Y118.5896
G01 X39.1126 Y118.5505
G01 X39.0962 Y118.5119
G01 X39.0785 Y118.4740
G01 X39.0595 Y118.4366
G01 X39.0392 Y118.4000
G01 X39.0176 Y118.3641
G01 X38.9948 Y118.3290
G01 X38.9708 Y118.2947
G01 X38.9456 Y118.2612
G01 X38.9192 Y118.2287
G01 X38.8918 Y118.1971
G01 X38.8632 Y118.1664
G01 X38.8336 Y118.1368
G01 X38.8029 Y118.1082
G01 X38.7713 Y118.0808
G01 X38.7388 Y118.0544
G01 X38.7053 Y118.0292
G01 X38.6710 Y118.0052
G01 X38.6359 Y117.9824
G01 X38.6000 Y117.9608
G01 X38.5634 Y117.9405
G01 X38.5260 Y117.9215
G01 X38.5000 Y117.9093
G01 Y108.2000
G01 X37.0000
G01 Y117.8000
G01 X35.5000
G01 Y108.2000
G01 X34.0000
G01 Y117.8000
G01 X33.9581 Y117.8007
G01 X33.9163 Y117.8029
G01 X33.8746 Y117.8066
G01 X33.8330 Y117.8117
G01 X33.7916 Y117.8182
G01 X33.7505 Y117.8262
G01 X33.7097 Y117.8357
G01 X33.6692 Y117.8465
G01 X33.6292 Y117.8587
G01 X33.5896 Y117.8724
G01 X33.5505 Y117.8874
G01 X33.5119 Y117.9038
G01 X33.4739 Y117.9215
G01 X33.4366 Y117.9405
G01 X33.4000 Y117.9608
G01 X33.3641 Y117.9824
G01 X33.3290 Y118.0052
G01 X33.2946 Y118.0292
G01 X33.2612 Y118.0544
G01 X33.2286 Y118.0808
G01 X33.1970 Y118.1082
G01 X33.1664 Y118.1368
G01 X33.1368 Y118.1664
G01 X33.1082 Y118.1971
G01 X33.0807 Y118.2287
G01 X33.0544 Y118.2612
G01 X33.0292 Y118.2947
G01 X33.0051 Y118.3290
G01 X32.9823 Y118.3641
G01 X32.9608 Y118.4000
G01 X32.9405 Y118.4366
G01 X32.9214 Y118.4740
G01 X32.9037 Y118.5119
G01 X32.8874 Y118.5505
G01 X32.8724 Y118.5896
G01 X32.8587 Y118.6292
G01 X32.8465 Y118.6692
G01 X32.8356 Y118.7097
G01 X32.8262 Y118.7505
G01 X32.8182 Y118.7916
G01 X32.8117 Y118.8330
G01 X32.8066 Y118.8746
G01 X32.8029 Y118.9163
G01 X32.8007 Y118.9581
G01 X32.8000 Y119.0000
G01 Y121.8000
G01 X31.0000
G01 Y119.6631
G01 X30.9708 Y119.7054
G01 X30.9456 Y119.7388
G01 X30.9192 Y119.7714
G01 X30.8918 Y119.8030
G01 X30.8632 Y119.8336
G01 X30.8336 Y119.8632
G01 X30.8029 Y119.8918
G01 X30.7713 Y119.9193
G01 X30.7388 Y119.9456
G01 X30.7053 Y119.9708
G01 X30.6710 Y119.9949
G01 X30.6359 Y120.0177
G01 X30.6000 Y120.0392
G01 X30.5634 Y120.0595
G01 X30.5260 Y120.0786
G01 X30.4881 Y120.0963
G01 X30.4495 Y120.1126
G01 X30.4104 Y120.1276
G01 X30.3708 Y120.1413
G01 X30.3308 Y120.1535
G01 X30.2903 Y120.1644
G01 X30.2495 Y120.1738
G01 X30.2084 Y120.1818
G01 X30.1670 Y120.1883
G01 X30.1254 Y120.1934
G01 X30.0837 Y120.1971
G01 X30.0419 Y120.1993
G01 X30.0000 Y120.2000
G01 X29.5000
G01 Y121.8000
G01 X28.0000
G01 Y120.2000
G01 X26.5000
G01 Y121.8000
G01 X25.0000
G01 Y120.2000
G01 X23.5000
G01 Y121.8000
G01 X22.0000
G01 Y120.2000
G00 Z5.0000
G00 X20.5000 Y121.8000
G00 Z0.5000
G01 Z-1.0000 F300
G01 Y88.2000 F2000
G01 X22.0000
G01 Y89.8000
G01 X23.5000
G01 Y84.2000
G01 X25.0000
G01 Y89.8000
G01 X26.5000
G01 Y84.2000
G01 X28.0000
G01 Y89.8000
G01 X29.5000
G01 Y84.2000
G01 X31.0000
G01 Y90.3369
G00 Z5.0000
G00 X32.5000 Y101.8000
G00 Z0.5000
G01 Z-1.0000 F300
G01 Y84.2000 F2000
G01 X34.0000
G01 Y101.8000
G01 X35.5000
G01 Y84.2000
G01 X36.8000
G01 Y87.0000
G01 X36.8007 Y87.0419
G01 X36.8029 Y87.0837
G01 X36.8066 Y87.1254
G01 X36.8117 Y87.1670
G01 X36.8182 Y87.2084
G01 X36.8262 Y87.2495
G01 X36.8356 Y87.2903
G01 X36.8465 Y87.3308
G01 X36.8587 Y87.3708
G01 X36.8724 Y87.4104
G01 X36.8874 Y87.4495
G01 X36.9037 Y87.4881
G01 X36.9214 Y87.5261
G01 X36.9405 Y87.5634
G01 X36.9608 Y87.6000
G01 X36.9823 Y87.6359
G01 X37.0000 Y87.6631
G01 Y101.8000
G01 X38.5000
G01 Y88.2000
G01 X40.0000
G01 Y101.8000
G00 Z5.0000
G00 X32.5000 Y108.2000
G00 Z0.5000
G01 Z-1.0000 F300
G01 Y121.8000 F2000
G00 Z5.0000
G00 X52.0000
G00 Z0.5000
G01 Z-1.0000 F300
G01 Y84.2000 F2000
G01 X50.5000
G01 Y89.9093
G01 X50.4881 Y89.9038
G01 X50.4495 Y89.8874
G01 X50.4104 Y89.8724
G01 X50.3708 Y89.8587
G01 X50.3308 Y89.8465
G01 X50.2903 Y89.8357
G01 X50.2495 Y89.8262
G01 X50.2084 Y89.8182
G01 X50.1670 Y89.8117
G01 X50.1254 Y89.8066
G01 X50.0837 Y89.8029
G01 X50.0419 Y89.8007
G01 X50.0000 Y89.8000
G01 X49.0000
G01 Y84.2000
G01 X47.5000
G01 Y89.8000
G01 X46.0000
G01 Y84.2000
G01 X44.5000
G01 Y89.8000
G01 X43.0000
G01 Y87.6631
G01 X42.9708 Y87.7054
G01 X42.9456 Y87.7388
G01 X42.9192 Y87.7714
G01 X42.8918 Y87.8030
G01 X42.8632 Y87.8336
G01 X42.8336 Y87.8632
G01 X42.8029 Y87.8918
G01 X42.7713 Y87.9193
G01 X42.7388 Y87.9456
G01 X42.7053 Y87.9708
G01 X42.6710 Y87.9949
G01 X42.6359 Y88.0177
G01 X42.6000 Y88.0392
G01 X42.5634 Y88.0596
G01 X42.5260 Y88.0786
G01 X42.4881 Y88.0963
G01 X42.4495 Y88.1126
G01 X42.4104 Y88.1276
G01 X42.3708 Y88.1413
G01 X42.3308 Y88.1535
G01 X42.2903 Y88.1644
G01 X42.2495 Y88.1738
G01 X42.2084 Y88.1818
G01 X42.1670 Y88.1883
G01 X42.1254 Y88.1934
G01 X42.0837 Y88.1971
G01 X42.0419 Y88.1993
G01 X42.0000 Y88.2000
G01 X41.5000
G01 Y89.9093
G00 Z5.0000
G00 X58.0000 Y116.2000
G00 Z0.5000
G01 Z-1.0000 F300
G01 Y117.8000 F2000
G01 X58.0419 Y117.8007
G01 X58.0837 Y117.8029
G01 X58.1254 Y117.8066
G01 X58.1670 Y117.8117
G01 X58.2084 Y117.8182
G01 X58.2495 Y117.8262
G01 X58.2903 Y117.8357
G01 X58.3308 Y117.8465
G01 X58.3708 Y117.8587
G01 X58.4104 Y117.8724
G01 X58.4495 Y117.8874
G01 X58.4881 Y117.9038
G01 X58.5260 Y117.9215
G01 X58.5634 Y117.9405
G01 X58.6000 Y117.9608
G01 X58.6359 Y117.9824
G01 X58.6710 Y118.0052
G01 X58.7053 Y118.0292
G01 X58.7388 Y118.0544
G01 X58.7713 Y118.0808
G01 X58.8029 Y118.1082
G01 X58.8336 Y118.1368
G01 X58.8632 Y118.1664
G01 X58.8918 Y118.1971
G01 X58.9192 Y118.2287
G01 X58.9456 Y118.2612
G01 X58.9708 Y118.2947
G01 X58.9948 Y118.3290
G01 X59.0176 Y118.3641
G01 X59.0392 Y118.4000
G01 X59.0595 Y118.4366
G01 X59.0785 Y118.4740
G01 X59.0962 Y118.5119
G01 X59.1126 Y118.5505
G01 X59.1276 Y118.5896
G01 X59.1413 Y118.6292
G01 X59.1535 Y118.6692
G01 X59.1643 Y118.7097
G01 X59.1738 Y118.7505
G01 X59.1818 Y118.7916
G01 X59.1883 Y118.8330
G01 X59.1934 Y118.8746
G01 X59.1971 Y118.9163
G01 X59.1993 Y118.9581
G01 X59.2000 Y119.0000
G01 Y121.8000
G01 X59.5000
G01 Y116.2000
G01 X60.8000
G01 Y119.0000
G01 X60.8007 Y119.0419
G01 X60.8029 Y119.0837
G01 X60.8066 Y119.1254
G01 X60.8117 Y119.1670
G01 X60.8182 Y119.2084
G01 X60.8262 Y119.2495
G01 X60.8356 Y119.2903
G01 X60.8465 Y119.3308
G01 X60.8587 Y119.3708
G01 X60.8724 Y119.4104
G01 X60.8874 Y119.4495
G01 X60.9037 Y119.4881
G01 X60.9214 Y119.5261
G01 X60.9405 Y119.5634
G01 X60.9608 Y119.6000
G01 X60.9823 Y119.6359
G01 X61.0000 Y119.6631
G01 Y121.8000
G01 X62.5000
G01 Y120.2000
G01 X64.0000
G01 Y121.8000
G01 X65.5000
G01 Y120.2000
G01 X67.0000
G01 Y121.8000
G01 X68.5000
G01 Y120.2000
G01 X70.0000
G01 Y121.8000
G01 X71.5000
G01 Y120.2000
G01 X73.0000
G01 Y121.8000
G01 X74.5000
G01 Y120.2000
G01 X76.0000
G01 Y121.8000
G01 X77.5000
G01 Y120.2000
G01 X79.0000
G01 Y121.8000
G01 X80.5000
G01 Y120.2000
G01 X82.0000
G01 Y121.8000
G01 X83.5000
G01 Y116.2000
G01 X85.0000
G01 Y118.3369
G01 X85.0292 Y118.2947
G01 X85.0544 Y118.2612
G01 X85.0807 Y118.2287
G01 X85.1082 Y118.1971
G01 X85.1368 Y118.1664
G01 X85.1664 Y118.1368
G01 X85.1970 Y118.1082
G01 X85.2286 Y118.0808
G01 X85.2612 Y118.0544
G01 X85.2946 Y118.0292
G01 X85.3290 Y118.0052
G01 X85.3641 Y117.9824
G01 X85.4000 Y117.9608
G01 X85.4366 Y117.9405
G01 X85.4739 Y117.9215
G01 X85.5119 Y117.9038
G01 X85.5505 Y117.8874
G01 X85.5896 Y117.8724
G01 X85.6292 Y117.8587
G01 X85.6692 Y117.8465
G01 X85.7097 Y117.8357
G01 X85.7505 Y117.8262
G01 X85.7916 Y117.8182
G01 X85.8330 Y117.8117
G01 X85.8746 Y117.8066
G01 X85.9163 Y117.8029
G01 X85.9581 Y117.8007
G01 X86.0000 Y117.8000
G01 X86.5000
G01 Y116.0907
G00 Z5.0000
G00 X88.0000 Y117.8000
G00 Z0.5000
G01 Z-1.0000 F300
G01 Y84.2000 F2000
G01 X88.8000
G01 Y87.0000
G01 X88.8007 Y87.0419
G01 X88.8029 Y87.0837
G01 X88.8066 Y87.1254
G01 X88.8117 Y87.1670
G01 X88.8182 Y87.2084
G01 X88.8262 Y87.2495
G01 X88.8356 Y87.2903
G01 X88.8465 Y87.3308
G01 X88.8587 Y87.3708
G01 X88.8724 Y87.4104
G01 X88.8874 Y87.4495
G01 X88.9037 Y87.4881
G01 X88.9214 Y87.5261
G01 X88.9404 Y87.5634
G01 X88.9608 Y87.6000
G01 X88.9823 Y87.6359
G01 X89.0051 Y87.6710
G01 X89.0292 Y87.7054
G01 X89.0544 Y87.7388
G01 X89.0807 Y87.7714
G01 X89.1082 Y87.8030
G01 X89.1368 Y87.8336
G01 X89.1664 Y87.8632
G01 X89.1970 Y87.8918
G01 X89.2286 Y87.9193
G01 X89.2612 Y87.9456
G01 X89.2946 Y87.9708
G01 X89.3290 Y87.9949
G01 X89.3641 Y88.0177
G01 X89.4000 Y88.0392
G01 X89.4366 Y88.0596
G01 X89.4739 Y88.0786
G01 X89.5000 Y88.0907
G01 Y117.8000
G01 X90.0000
G01 X90.0419 Y117.8007
G01 X90.0837 Y117.8029
G01 X90.1254 Y117.8066
G01 X90.1670 Y117.8117
G01 X90.2084 Y117.8182
G01 X90.2495 Y117.8262
G01 X90.2903 Y117.8357
G01 X90.3308 Y117.8465
G01 X90.3708 Y117.8587
G01 X90.4104 Y117.8724
G01 X90.4495 Y117.8874
G01 X90.4881 Y117.9038
G01 X90.5260 Y117.9215
G01 X90.5634 Y117.9405
G01 X90.6000 Y117.9608
G01 X90.6359 Y117.9824
G01 X90.6710 Y118.0052
G01 X90.7053 Y118.0292
G01 X90.7388 Y118.0544
G01 X90.7713 Y118.0808
G01 X90.8029 Y118.1082
G01 X90.8336 Y118.1368
G01 X90.8632 Y118.1664
G01 X90.8918 Y118.1971
G01 X90.9192 Y118.2287
G01 X90.9456 Y118.2612
G01 X90.9708 Y118.2947
G01 X91.0000 Y118.3369
G01 Y88.2000
G01 X92.5000
G01 Y121.8000
G01 X94.0000
G01 Y120.2000
G01 X95.5000
G01 Y121.8000
G01 X97.0000
G01 Y120.2000
G01 X98.5000
G01 Y121.8000
G01 X100.0000
G01 Y120.2000
G01 X101.5000
G01 Y121.8000
G01 X103.0000
G01 Y119.6246
G00 Z5.0000
G00 X104.5000 Y104.2000
G00 Z0.5000
G01 Z-1.0000 F300
G01 Y121.8000 F2000
G01 X104.8000
G01 Y119.0000
G01 X104.8007 Y118.9581
G01 X104.8029 Y118.9163
G01 X104.8066 Y118.8746
G01 X104.8117 Y118.8330
G01 X104.8182 Y118.7916
G01 X104.8262 Y118.7505
G01 X104.8356 Y118.7097
G01 X104.8465 Y118.6692
G01 X104.8587 Y118.6292
G01 X104.8724 Y118.5896
G01 X104.8874 Y118.5505
G01 X104.9037 Y118.5119
G01 X104.9214 Y118.4740
G01 X104.9404 Y118.4366
G01 X104.9608 Y118.4000
G01 X104.9823 Y118.3641
G01 X105.0051 Y118.3290
G01 X105.0292 Y118.2947
G01 X105.0544 Y118.2612
G01 X105.0807 Y118.2287
G01 X105.1082 Y118.1971
G01 X105.1368 Y118.1664
G01 X105.1664 Y118.1368
G01 X105.1970 Y118.1082
G01 X105.2286 Y118.0808
G01 X105.2612 Y118.0544
G01 X105.2946 Y118.0292
G01 X105.3290 Y118.0052
G01 X105.3641 Y117.9824
G01 X105.4000 Y117.9608
G01 X105.4366 Y117.9405
G01 X105.4739 Y117.9215
G01 X105.5119 Y117.9038
G01 X105.5505 Y117.8874
G01 X105.5896 Y117.8724
G01 X105.6292 Y117.8587
G01 X105.6692 Y117.8465
G01 X105.7097 Y117.8357
G01 X105.7505 Y117.8262
G01 X105.7916 Y117.8182
G01 X105.8330 Y117.8117
G01 X105.8745 Y117.8066
G01 X105.9163 Y117.8029
G01 X105.9581 Y117.8007
G01 X106.0000 Y117.8000
G01 Y104.1996
G01 X106.0174 Y104.1993
G01 X106.0592 Y104.1971
G01 X106.1010 Y104.1934
G01 X106.1425 Y104.1883
G01 X106.1839 Y104.1818
G01 X106.2250 Y104.1738
G01 X106.2658 Y104.1644
G01 X106.3063 Y104.1535
G01 X106.3464 Y104.1413
G01 X106.3860 Y104.1276
G01 X106.4251 Y104.1126
G01 X106.4636 Y104.0963
G01 X106.5016 Y104.0786
G01 X106.5389 Y104.0595
G01 X106.5755 Y104.0392
G01 X106.6114 Y104.0177
G01 X106.6466 Y103.9949
G01 X106.6809 Y103.9708
G01 X106.7143 Y103.9456
G01 X106.7469 Y103.9193
G01 X106.7785 Y103.8918
G01 X106.8091 Y103.8632
G01 X106.8387 Y103.8336
G01 X106.8673 Y103.8030
G01 X106.8948 Y103.7714
G01 X106.9212 Y103.7388
G01 X106.9464 Y103.7054
G01 X106.9704 Y103.6710
G01 X106.9932 Y103.6359
G01 X107.0148 Y103.6000
G01 X107.0351 Y103.5634
G01 X107.0541 Y103.5261
G01 X107.0718 Y103.4881
G01 X107.0882 Y103.4495
G01 X107.1032 Y103.4104
G01 X107.1168 Y103.3708
G01 X107.1291 Y103.3308
G01 X107.1399 Y103.2903
G01 X107.1493 Y103.2495
G01 X107.1573 Y103.2084
G01 X107.1639 Y103.1670
G01 X107.1690 Y103.1254
G01 X107.1726 Y103.0837
G01 X107.1748 Y103.0419
G01 X107.1755 Y103.0000
G01 Y100.2000
G01 X108.7755
G01 Y103.0000
G01 X108.7763 Y103.0419
G01 X108.7785 Y103.0837
G01 X108.7821 Y103.1254
G01 X108.7872 Y103.1670
G01 X108.7938 Y103.2084
G01 X108.8018 Y103.2495
G01 X108.8112 Y103.2903
G01 X108.8220 Y103.3308
G01 X108.8343 Y103.3708
G01 X108.8479 Y103.4104
G01 X108.8629 Y103.4495
G01 X108.8793 Y103.4881
G01 X108.8970 Y103.5261
G01 X108.9160 Y103.5634
G01 X108.9363 Y103.6000
G01 X108.9579 Y103.6359
G01 X108.9807 Y103.6710
G01 X109.0000 Y103.6986
G01 Y117.8000
G01 X107.5000
G01 Y100.2000
G01 X108.7755
G01 Y103.0000
G01 X108.7763 Y103.0419
G01 X108.7785 Y103.0837
G01 X108.7821 Y103.1254
G01 X108.7872 Y103.1670
G01 X108.7938 Y103.2084
G01 X108.8018 Y103.2495
G01 X108.8112 Y103.2903
G01 X108.8220 Y103.3308
G01 X108.8343 Y103.3708
G01 X108.8479 Y103.4104
G01 X108.8629 Y103.4495
G01 X108.8793 Y103.4881
G01 X108.8970 Y103.5261
G01 X108.9160 Y103.5634
G01 X108.9363 Y103.6000
G01 X108.9579 Y103.6359
G01 X108.9807 Y103.6710
G01 X109.0047 Y103.7054
G01 X109.0299 Y103.7388
G01 X109.0563 Y103.7714
G01 X109.0838 Y103.8030
G01 X109.1123 Y103.8336
G01 X109.1420 Y103.8632
G01 X109.1726 Y103.8918
G01 X109.2042 Y103.9193
G01 X109.2367 Y103.9456
G01 X109.2702 Y103.9708
G01 X109.3045 Y103.9949
G01 X109.3396 Y104.0177
G01 X109.3755 Y104.0392
G01 X109.4122 Y104.0595
G01 X109.4495 Y104.0786
G01 X109.4875 Y104.0963
G01 X109.5260 Y104.1126
G01 X109.5651 Y104.1276
G01 X109.6047 Y104.1413
G01 X109.6448 Y104.1535
G01 X109.6852 Y104.1644
G01 X109.7260 Y104.1738
G01 X109.7672 Y104.1818
G01 X109.8085 Y104.1883
G01 X109.8501 Y104.1934
G01 X109.8918 Y104.1971
G01 X109.9337 Y104.1993
G01 X109.9755 Y104.2000
G01 X110.5000
G01 Y117.9093
G01 X110.5260 Y117.9215
G01 X110.5633 Y117.9405
G01 X110.6000 Y117.9608
G01 X110.6359 Y117.9824
G01 X110.6710 Y118.0052
G01 X110.7053 Y118.0292
G01 X110.7388 Y118.0544
G01 X110.7713 Y118.0808
G01 X110.8029 Y118.1082
G01 X110.8336 Y118.1368
G01 X110.8632 Y118.1664
G01 X110.8918 Y118.1971
G01 X110.9192 Y118.2287
G01 X110.9456 Y118.2612
G01 X110.9708 Y118.2947
G01 X110.9948 Y118.3290
G01 X111.0176 Y118.3641
G01 X111.0392 Y118.4000
G01 X111.0595 Y118.4366
G01 X111.0785 Y118.4740
G01 X111.0962 Y118.5119
G01 X111.1126 Y118.5505
G01 X111.1276 Y118.5896
G01 X111.1413 Y118.6292
G01 X111.1535 Y118.6692
G01 X111.1643 Y118.7097
G01 X111.1738 Y118.7505
G01 X111.1818 Y118.7916
G01 X111.1883 Y118.8330
G01 X111.1934 Y118.8746
G01 X111.1971 Y118.9163
G01 X111.1993 Y118.9581
G01 X111.2000 Y119.0000
G01 Y121.8000
G01 X113.5000
G01 Y120.1016
G01 X113.5260 Y120.1126
G01 X113.5651 Y120.1276
G01 X113.6047 Y120.1413
G01 X113.6448 Y120.1535
G01 X113.6852 Y120.1644
G01 X113.7260 Y120.1738
G01 X113.7672 Y120.1818
G01 X113.8085 Y120.1883
G01 X113.8501 Y120.1934
G01 X113.8918 Y120.1971
G01 X113.9337 Y120.1993
G01 X113.9755 Y120.2000
G01 X115.0000
G01 Y121.8000
G01 X116.5000
G01 Y120.2000
G01 X118.0000
G01 Y121.8000
G01 X119.5000
G01 Y120.2000
G01 X121.0000
G01 Y121.8000
G01 X122.5000
G01 Y120.0793
G00 Z5.0000
G00 X112.0000 Y104.2000
G00 Z0.5000
G01 Z-1.0000 F300
G01 Y121.8000 F2000
G00 Z5.0000
G00 X231.0000 Y99.0000
G00 Z0.5000
G01 Z-1.0000 F300
G01 Y118.0000 F2000
G01 X234.0000
G03 X235.0000 Y119.0000 I0.0000 J1.0000
G01 Y122.0000
G01 X261.0000
G01 Y119.0000
G03 X262.0000 Y118.0000 I1.0000 J0.0000
G01 X266.0000
G03 X267.0000 Y119.0000 I0.0000 J1.0000
G01 Y122.0000
G01 X297.0000
G01 Y119.0000
G03 X298.0000 Y118.0000 I1.0000 J0.0000
G01 X301.0000
G01 Y100.0000
G01 X298.0000
G03 X297.0000 Y99.0000 I0.0000 J-1.0000
G01 Y96.0000
G01 X294.0000
G03 X293.0000 Y95.0000 I0.0000 J-1.0000
G01 Y84.0000
G01 X279.0000
G01 Y87.0000
G03 X278.0000 Y88.0000 I-1.0000 J0.0000
G01 X275.0000
G01 Y99.0000
G03 X274.0000 Y100.0000 I-1.0000 J0.0000
G01 X270.0000
G03 X269.0000 Y99.0000 I0.0000 J-1.0000
G01 Y84.0000
G01 X255.0000
G01 Y87.0000
G03 X254.0000 Y88.0000 I-1.0000 J0.0000
G01 X250.0000
G03 X249.0000 Y87.0000 I0.0000 J-1.0000
G01 Y84.0000
G01 X187.0000
G01 Y87.0000
G03 X186.0000 Y88.0000 I-1.0000 J0.0000
G01 X182.0000
G03 X181.0000 Y87.0000 I0.0000 J-1.0000
G01 Y84.0000
G01 X131.0000
G01 Y87.0000
G03 X130.0000 Y88.0000 I-1.0000 J0.0000
G01 X127.0000
G01 Y91.0000
G03 X126.0000 Y92.0000 I-1.0000 J0.0000
G01 X122.0000
G03 X121.0000 Y91.0000 I0.0000 J-1.0000
G01 Y88.0000
G01 X118.0000
G03 X117.0000 Y87.0000 I0.0000 J-1.0000
G01 Y84.0000
G01 X107.0000
G01 Y87.0000
G03 X106.0000 Y88.0000 I-1.0000 J0.0000
G01 X103.0000
G01 Y91.0000
G03 X102.0000 Y92.0000 I-1.0000 J0.0000
G01 X99.0000
G01 Y95.0000
G03 X98.0000 Y96.0000 I-1.0000 J0.0000
G01 X94.0000
G03 X93.0000 Y95.0000 I0.0000 J-1.0000
G01 Y88.0000
G01 X90.0000
G03 X89.0000 Y87.0000 I0.0000 J-1.0000
G01 Y84.0000
G01 X63.0000
G01 Y87.0000
G03 X62.0000 Y88.0000 I-1.0000 J0.0000
G01 X58.0000
G03 X57.0000 Y87.0000 I0.0000 J-1.0000
G01 Y84.0000
G01 X43.0000
G01 Y87.0000
G03 X42.0000 Y88.0000 I-1.0000 J0.0000
G01 X38.0000
G03 X37.0000 Y87.0000 I0.0000 J-1.0000
G01 Y84.0000
G01 X23.0000
G01 Y87.0000
G03 X22.0000 Y88.0000 I-1.0000 J0.0000
G01 X19.0000
G01 Y122.0000
G01 X33.0000
G01 Y119.0000
G03 X34.0000 Y118.0000 I1.0000 J0.0000
G01 X38.0000
G03 X39.0000 Y119.0000 I0.0000 J1.0000
G01 Y122.0000
G01 X53.0000
G01 Y119.0000
G03 X54.0000 Y118.0000 I1.0000 J0.0000
G01 X58.0000
G03 X59.0000 Y119.0000 I0.0000 J1.0000
G01 Y122.0000
G01 X85.0000
G01 Y119.0000
G03 X86.0000 Y118.0000 I1.0000 J0.0000
G01 X90.0000
G03 X91.0000 Y119.0000 I0.0000 J1.0000
G01 Y122.0000
G01 X105.0000
G01 Y119.0000
G03 X106.0000 Y118.0000 I1.0000 J0.0000
G01 X110.0000
G03 X111.0000 Y119.0000 I0.0000 J1.0000
G01 Y122.0000
G01 X193.0000
G01 Y119.0000
G03 X194.0000 Y118.0000 I1.0000 J0.0000
G01 X198.0000
G03 X199.0000 Y119.0000 I0.0000 J1.0000
G01 Y122.0000
G01 X213.0000
G01 Y119.0000
G03 X214.0000 Y118.0000 I1.0000 J0.0000
G01 X217.0000
G01 Y99.0000
G03 X218.0000 Y98.0000 I1.0000 J0.0000
G01 X230.0000
G03 X231.0000 Y99.0000 I0.0000 J1.0000
G00 Z5.0000

(Nr. 5 Teil 2)
G00 X31.0000 Y119.0000
G00 Z0.5000
G01 Z-1.0000 F300
G03 X30.0000 Y120.0000 I-1.0000 J0.0000 F2000
G01 X22.0000
G03 X21.0000 Y119.0000 I0.0000 J-1.0000
G01 Y91.0000
G03 X22.0000 Y90.0000 I1.0000 J0.0000
G01 X30.0000
G03 X31.0000 Y91.0000 I0.0000 J1.0000
G01 Y102.0000
G01 X41.0000
G01 Y91.0000
G03 X42.0000 Y90.0000 I1.0000 J0.0000
G01 X50.0000
G03 X51.0000 Y91.0000 I0.0000 J1.0000
G01 Y119.0000
G03 X50.0000 Y120.0000 I-1.0000 J0.0000
G01 X42.0000
G03 X41.0000 Y119.0000 I0.0000 J-1.0000
G01 Y108.0000
G01 X31.0000
G01 Y119.0000
G00 Z5.0000

(Nr. 6 Teil 3)
G00 X61.0000 Y116.0000
G00 Z0.5000
G01 Z-1.0000 F300
G01 X58.0000 F2000
G03 X57.0000 Y115.0000 I0.0000 J-1.0000
G01 Y95.0000
G03 X58.0000 Y94.0000 I1.0000 J0.0000
G01 X61.0000
G01 Y91.0000
G03 X62.0000 Y90.0000 I1.0000 J0.0000
G01 X82.0000
G03 X83.0000 Y91.0000 I0.0000 J1.0000
G01 Y94.0000
G01 X86.0000
G03 X87.0000 Y95.0000 I0.0000 J1.0000
G01 Y115.0000
G03 X86.0000 Y116.0000 I-1.0000 J0.0000
G01 X83.0000
G01 Y119.0000
G03 X82.0000 Y120.0000 I-1.0000 J0.0000
G01 X62.0000
G03 X61.0000 Y119.0000 I0.0000 J-1.0000
G01 Y116.0000
G00 Z5.0000

(Nr. 7 Teil 4)
G00 X92.9755 Y103.0000
G00 Z0.5000
G01 Z-1.0000 F300
G03 X93.9755 Y102.0000 I1.0000 J0.0000 F2000
G01 X96.9755
G01 Y99.0000
G03 X97.9755 Y98.0000 I1.0000 J0.0000
G01 X100.9755
G01 Y95.0000
G03 X101.9755 Y94.0000 I1.0000 J0.0000
G01 X104.9755
G01 Y91.0000
G03 X105.9755 Y90.0000 I1.0000 J0.0000
G01 X109.9755
G03 X110.9755 Y91.0000 I0.0000 J1.0000
G01 Y94.0000
G01 X113.9755
G03 X114.9755 Y95.0000 I0.0000 J1.0000
G01 Y98.0000
G01 X117.9755
G03 X118.9755 Y99.0000 I0.0000 J1.0000
G01 Y102.0000
G01 X121.9755
G03 X122.9755 Y103.0000 I0.0000 J1.0000
G01 Y119.0000
G03 X121.9755 Y120.0000 I-1.0000 J0.0000
G01 X113.9755
G03 X112.9755 Y119.0000 I0.0000 J-1.0000
G01 Y104.0000
G01 X109.9755
G03 X108.9755 Y103.0000 I0.0000 J-1.0000
G01 Y100.0000
G01 X106.9755
G01 Y103.0000
G03 X105.9755 Y104.0000 I-1.0000 J0.0000
G01 X102.9755
G01 Y119.0000
G03 X101.9755 Y120.0000 I-1.0000 J0.0000
G01 X93.9755
G03 X92.9755 Y119.0000 I0.0000 J-1.0000
G01 Y103.0000
G00 Z5.0000

(Nr. 8 Teil 5)
G00 X129.0000 Y91.0000
G00 Z0.5000
G01 Z-1.0000 F300
G03 X130.0000 Y90.0000 I1.0000 J0.0000 F2000
G01 X158.0000
G03 X159.0000 Y91.0000 I0.0000 J1.0000
G01 Y95.0000
G03 X158.0000 Y96.0000 I-1.0000 J0.0000
G01 X139.0000
G01 Y102.0000
G01 X154.0000
G03 X155.0000 Y103.0000 I0.0000 J1.0000
G01 Y107.0000
G03 X154.0000 Y108.0000 I-1.0000 J0.0000
G01 X139.0000
G01 Y114.0000
G01 X158.0000
G03 X159.0000 Y115.0000 I0.0000 J1.0000
G01 Y119.0000
G03 X158.0000 Y120.0000 I-1.0000 J0.0000
G01 X130.0000
G03 X129.0000 Y119.0000 I0.0000 J-1.0000
G01 Y91.0000
G00 Z5.0000

(Nr. 9 Teil 6)
G00 X164.9755
G00 Z0.5000
G01 Z-1.0000 F300
G03 X165.9755 Y90.0000 I1.0000 J0.0000 F2000
G01 X173.9755
G03 X174.9755 Y91.0000 I0.0000 J1.0000
G01 Y102.0000
G01 X184.9755
G01 Y91.0000
G03 X185.9755 Y90.0000 I1.0000 J0.0000
G01 X193.9755
G03 X194.9755 Y91.0000 I0.0000 J1.0000
G01 Y103.0000
G03 X193.9755 Y104.0000 I-1.0000 J0.0000
G01 X190.9755
G01 Y106.0000
G01 X193.9755
G03 X194.9755 Y107.0000 I0.0000 J1.0000
G01 Y115.0000
G03 X193.9755 Y116.0000 I-1.0000 J0.0000
G01 X190.9755
G01 Y119.0000
G03 X189.9755 Y120.0000 I-1.0000 J0.0000
G01 X165.9755
G03 X164.9755 Y119.0000 I0.0000 J-1.0000
G01 Y91.0000
G00 Z5.0000

(Nr. 10 Teil 7)
G00 X200.9755
G00 Z0.5000
G01 Z-1.0000 F300
G03 X201.9755 Y90.0000 I1.0000 J0.0000 F2000
G01 X225.9755
G03 X226.9755 Y91.0000 I0.0000 J1.0000
G01 Y95.0000
G03 X225.9755 Y96.0000 I-1.0000 J0.0000
G01 X210.9755
G01 Y119.0000
G03 X209.9755 Y120.0000 I-1.0000 J0.0000
G01 X201.9755
G03 X200.9755 Y119.0000 I0.0000 J-1.0000
G01 Y91.0000
G00 Z5.0000

(Nr. 11 Teil 8)
G00 X232.9755
G00 Z0.5000
G01 Z-1.0000 F300
G03 X233.9755 Y90.0000 I1.0000 J0.0000 F2000
G01 X241.9755
G03 X242.9755 Y91.0000 I0.0000 J1.0000
G01 Y98.0000
G01 X252.9755
G01 Y91.0000
G03 X253.9755 Y90.0000 I1.0000 J0.0000
G01 X261.9755
G03 X262.9755 Y91.0000 I0.0000 J1.0000
G01 Y115.0000
G03 X261.9755 Y116.0000 I-1.0000 J0.0000
G01 X258.9755
G01 Y119.0000
G03 X257.9755 Y120.0000 I-1.0000 J0.0000
G01 X237.9755
G03 X236.9755 Y119.0000 I0.0000 J-1.0000
G01 Y116.0000
G01 X233.9755
G03 X232.9755 Y115.0000 I0.0000 J-1.0000
G01 Y91.0000
G00 Z5.0000

(Nr. 12 Teil 9)
G00 X269.0000 Y107.0000
G00 Z0.5000
G01 Z-1.0000 F300
G03 X270.0000 Y106.0000 I1.0000 J0.0000 F2000
G01 X273.0000
G01 Y103.0000
G03 X274.0000 Y102.0000 I1.0000 J0.0000
G01 X277.0000
G01 Y91.0000
G03 X278.0000 Y90.0000 I1.0000 J0.0000
G01 X286.0000
G03 X287.0000 Y91.0000 I0.0000 J1.0000
G01 Y102.0000
G01 X290.0000
G03 X291.0000 Y103.0000 I0.0000 J1.0000
G01 Y106.0000
G01 X294.0000
G03 X295.0000 Y107.0000 I0.0000 J1.0000
G01 Y119.0000
G03 X294.0000 Y120.0000 I-1.0000 J0.0000
G01 X286.0000
G03 X285.0000 Y119.0000 I0.0000 J-1.0000
G01 Y108.0000
G01 X279.0000
G01 Y119.0000
G03 X278.0000 Y120.0000 I-1.0000 J0.0000
G01 X270.0000
G03 X269.0000 Y119.0000 I0.0000 J-1.0000
G01 Y107.0000
G00 Z5.0000

(Nr. 13 Teil 1)
G00 X321.0000 Y0.0000
G00 Z0.5000
G01 Z-1.0000 F300
G01 Y206.0000 F2000
G03 X320.0000 Y207.0000 I-1.0000 J0.0000
G01 X0.0000
G03 X-1.0000 Y206.0000 I0.0000 J-1.0000
G01 Y0.0000
G03 X0.0000 Y-1.0000 I1.0000 J0.0000
G01 X320.0000
G03 X321.0000 Y0.0000 I0.0000 J1.0000
G01 Z-2.0000 F300
G01 Y206.0000 F2000
G03 X320.0000 Y207.0000 I-1.0000 J0.0000
G01 X0.0000
G03 X-1.0000 Y206.0000 I0.0000 J-1.0000
G01 Y0.0000
G03 X0.0000 Y-1.0000 I1.0000 J0.0000
G01 X320.0000
G03 X321.0000 Y0.0000 I0.0000 J1.0000
G01 Z-3.0000 F300
G01 Y206.0000 F2000
G03 X320.0000 Y207.0000 I-1.0000 J0.0000
G01 X0.0000
G03 X-1.0000 Y206.0000 I0.0000 J-1.0000
G01 Y0.0000
G03 X0.0000 Y-1.0000 I1.0000 J0.0000
G01 X320.0000
G03 X321.0000 Y0.0000 I0.0000 J1.0000
G00 Z5.0000
G00 X0.0000

M05
M30
