(Projekt m-seite-logo-neu)
(Erstellt mit Estlcam 2.5D Version 7 Build 7,101)
(Fraesrichtung: Gegenlauf)
(Nullpunkt: Auf Teileoberseite)
(Maximale Fraestiefe: 3,00mm)
(Verwendete Werkzeuge:)
(Fraeser 2mm)

G90
M03
G00 Z5.0000

(Nr. 1 Ausschnitt 2)
G00 X93.9241 Y70.1292
G00 Z0.5000
G01 Z-1.0000 F300 S24000
G01 Y70.4931 F2000
G01 X93.7916 Y70.2107
G01 X95.4241 Y69.2065
G01 Y73.6902
G01 X96.9241 Y76.8874
G01 Y68.2837
G01 X98.4241 Y67.3609
G01 Y80.0845
G01 X99.9241 Y83.2817
G01 Y66.4382
G01 X101.4241 Y65.5154
G01 Y86.4788
G01 X102.9241 Y89.6760
G01 Y64.5927
G01 X104.4241 Y63.6699
G01 Y92.8731
G01 X105.9241 Y96.0702
G01 Y62.7472
G01 X107.4241 Y61.8244
G01 Y99.2674
G01 X108.9241 Y102.4645
G01 Y60.9016
G01 X110.4241 Y59.9789
G01 Y105.6617
G01 X111.9241 Y108.8588
G01 Y59.0561
G01 X113.4241 Y58.1334
G01 Y112.0559
G01 X114.9241 Y115.2531
G01 Y57.2106
G01 X116.4241 Y56.2878
G01 Y118.4502
G01 X117.9241 Y121.6474
G01 Y55.3651
G01 X119.4241 Y54.4423
G01 Y124.8445
G01 X120.9241 Y128.0417
G01 Y53.5196
G01 X122.4241 Y52.5968
G01 Y131.2388
G01 X123.9241 Y134.4359
G01 Y51.6741
G01 X125.4241 Y50.7513
G01 Y137.6331
G01 X126.9241 Y140.8302
G01 Y49.8285
G01 X128.4241 Y48.9058
G01 Y144.0274
G01 X129.9241 Y147.2245
G01 Y47.9830
G01 X131.4241 Y47.0603
G01 Y150.4217
G01 X132.9241 Y153.6188
G01 Y46.1375
G01 X134.4241 Y45.2147
G01 Y156.8160
G01 X135.9241 Y160.0131
G01 Y45.5050
G01 X137.4241 Y55.1131
G01 Y161.8000
G01 X138.9241
G01 Y64.7212
G01 X140.4241 Y74.3293
G01 Y161.8000
G01 X141.9241
G01 Y83.9374
G01 X143.4241 Y93.5455
G01 Y161.8000
G01 X144.9241
G01 Y103.1536
G01 X146.4241 Y112.7617
G01 Y161.8000
G01 X147.9241
G01 Y122.3698
G01 X149.4241 Y131.9779
G01 Y161.8000
G01 X150.9241
G01 Y141.5860
G01 X152.4241 Y151.1941
G01 Y161.8000
G01 X153.9241
G01 Y160.8022
G00 Z5.0000
G00 X93.5347 Y70.1339
G00 Z0.5000
G01 Z-1.0000 F300
G01 X136.6354 Y162.0000 F2000
G01 X154.3136
G01 X135.9937 Y44.6543
G03 X135.9818 Y44.4999 I0.9888 J-0.1543
G01 Y44.0309
G01 X93.5347 Y70.1339
G00 Z5.0000

(Nr. 2 Ausschnitt 1)
G00 X178.0758 Y83.9371
G00 Z0.5000
G01 Z-1.0000 F300
G01 Y161.8000 F2000
G01 X176.5758
G01 Y93.5452
G01 X175.0758 Y103.1533
G01 Y161.8000
G01 X173.5758
G01 Y112.7614
G01 X172.0758 Y122.3695
G01 Y161.8000
G01 X170.5758
G01 Y131.9777
G01 X169.0758 Y141.5858
G01 Y161.8000
G01 X167.5758
G01 Y151.1939
G01 X166.0758 Y160.8020
G01 Y161.8000
G00 Z5.0000
G00 X179.5758
G00 Z0.5000
G01 Z-1.0000 F300
G01 Y74.3289 F2000
G01 X181.0758 Y64.7208
G01 Y161.8000
G01 X182.5758
G01 Y55.1127
G01 X184.0758 Y45.5046
G01 Y160.0131
G01 X185.5758 Y156.8160
G01 Y45.2241
G01 X187.0758 Y46.1465
G01 Y153.6189
G01 X188.5758 Y150.4217
G01 Y47.0689
G01 X190.0758 Y47.9913
G01 Y147.2246
G01 X191.5758 Y144.0274
G01 Y48.9137
G01 X193.0758 Y49.8361
G01 Y140.8303
G01 X194.5758 Y137.6331
G01 Y50.7585
G01 X196.0758 Y51.6810
G01 Y134.4360
G01 X197.5758 Y131.2388
G01 Y52.6034
G01 X199.0758 Y53.5258
G01 Y128.0417
G01 X200.5758 Y124.8446
G01 Y54.4482
G01 X202.0758 Y55.3706
G01 Y121.6474
G01 X203.5758 Y118.4503
G01 Y56.2930
G01 X205.0758 Y57.2154
G01 Y115.2531
G01 X206.5758 Y112.0560
G01 Y58.1379
G01 X208.0758 Y59.0603
G01 Y108.8589
G01 X209.5758 Y105.6617
G01 Y59.9827
G01 X211.0758 Y60.9051
G01 Y102.4646
G01 X212.5758 Y99.2674
G01 Y61.8275
G01 X214.0758 Y62.7499
G01 Y96.0703
G01 X215.5758 Y92.8731
G01 Y63.6723
G01 X217.0758 Y64.5948
G01 Y89.6760
G01 X218.5758 Y86.4789
G01 Y65.5172
G01 X220.0758 Y66.4396
G01 Y83.2817
G01 X221.5758 Y80.0846
G01 Y67.3620
G01 X223.0758 Y68.2844
G01 Y76.8874
G01 X224.5758 Y73.6903
G01 Y69.2068
G01 X226.0758 Y70.1292
G01 Y70.4931
G00 Z5.0000
G00 X184.0061 Y44.6543
G00 Z0.5000
G01 Z-1.0000 F300
G01 X165.6864 Y162.0000 F2000
G01 X183.3646
G01 X226.4653 Y70.1339
G01 X184.0177 Y44.0311
G01 X184.0174 Y44.5387
G01 X184.0061 Y44.6543
G00 Z5.0000

(Nr. 3 Teil 1)
G00 X320.0000 Y-1.0000
G00 Z0.5000
G01 Z-1.0000 F300
G03 X321.0000 Y0.0000 I0.0000 J1.0000 F2000
G01 Y206.0000
G03 X320.0000 Y207.0000 I-1.0000 J0.0000
G01 X0.0000
G03 X-1.0000 Y206.0000 I0.0000 J-1.0000
G01 Y0.0000
G03 X0.0000 Y-1.0000 I1.0000 J0.0000
G01 X320.0000
G01 Z-2.0000 F300
G03 X321.0000 Y0.0000 I0.0000 J1.0000 F2000
G01 Y206.0000
G03 X320.0000 Y207.0000 I-1.0000 J0.0000
G01 X0.0000
G03 X-1.0000 Y206.0000 I0.0000 J-1.0000
G01 Y0.0000
G03 X0.0000 Y-1.0000 I1.0000 J0.0000
G01 X320.0000
G01 Z-3.0000 F300
G03 X321.0000 Y0.0000 I0.0000 J1.0000 F2000
G01 Y206.0000
G03 X320.0000 Y207.0000 I-1.0000 J0.0000
G01 X0.0000
G03 X-1.0000 Y206.0000 I0.0000 J-1.0000
G01 Y0.0000
G03 X0.0000 Y-1.0000 I1.0000 J0.0000
G01 X320.0000
G00 Z5.0000
G00 X0.0000 Y0.0000

M05
M30
