(Projekt m-stirn)
(Erstellt mit Estlcam 2.5D Version 7 Build 7,101)
(Fraesrichtung: Gegenlauf)
(Nullpunkt: Auf Teileoberseite)
(Maximale Fraestiefe: 3,00mm)
(Verwendete Werkzeuge:)
(Fraeser 2 mm)

G90
M03
G00 Z5.0000

(Nr. 1 Bohrung 3)
G00 X60.5000 Y100.0000
G00 Z0.5000
G01 Z-1.0000 F300 S24000
G00 Z0.5000
G00 Z-0.5000
G01 Z-2.0000
G00 Z0.5000
G00 Z-1.5000
G01 Z-3.0000
G00 Z0.5000
G00 Z5.0000

(Nr. 2 Bohrung 4)
G00 X90.5000
G00 Z0.5000
G01 Z-1.0000
G00 Z0.5000
G00 Z-0.5000
G01 Z-2.0000
G00 Z0.5000
G00 Z-1.5000
G01 Z-3.0000
G00 Z0.5000
G00 Z5.0000

(Nr. 3 Bohrung 5)
G00 X180.5000
G00 Z0.5000
G01 Z-1.0000
G00 Z0.5000
G00 Z-0.5000
G01 Z-2.0000
G00 Z0.5000
G00 Z-1.5000
G01 Z-3.0000
G00 Z0.5000
G00 Z5.0000

(Nr. 4 Bohrung 6)
G00 X210.5000
G00 Z0.5000
G01 Z-1.0000
G00 Z0.5000
G00 Z-0.5000
G01 Z-2.0000
G00 Z0.5000
G00 Z-1.5000
G01 Z-3.0000
G00 Z0.5000
G00 Z5.0000

(Nr. 5 Ausschnitt 1)
G00 X146.0918 Y125.5249
G00 Z0.5000
G01 Z-1.0000
G01 X145.0324 Y123.5731 F2000
G01 X143.6285 Y121.8715
G01 X141.9269 Y120.4676
G01 X139.9751 Y119.4082
G01 X137.8188 Y118.7388
G01 X135.5000 Y118.5051
G01 X133.1812 Y118.7388
G01 X131.0249 Y119.4082
G01 X129.0730 Y120.4676
G01 X127.3715 Y121.8715
G01 X125.9676 Y123.5731
G01 X124.9081 Y125.5249
G01 X124.2388 Y127.6812
G01 X124.0051 Y130.0000
G01 X124.2388 Y132.3188
G01 X124.9081 Y134.4751
G01 X125.9676 Y136.4269
G01 X127.3715 Y138.1285
G01 X129.0730 Y139.5324
G01 X131.0249 Y140.5918
G01 X133.1812 Y141.2612
G01 X135.5000 Y141.4949
G01 X137.8188 Y141.2612
G01 X139.9751 Y140.5918
G01 X141.9269 Y139.5324
G01 X143.6285 Y138.1285
G01 X145.0324 Y136.4269
G01 X146.0918 Y134.4751
G01 X146.7612 Y132.3188
G01 X146.9949 Y130.0000
G01 X146.7612 Y127.6812
G01 X146.0918 Y125.5249
G01 Z-2.0000 F300
G01 X145.0324 Y123.5731 F2000
G01 X143.6285 Y121.8715
G01 X141.9269 Y120.4676
G01 X139.9751 Y119.4082
G01 X137.8188 Y118.7388
G01 X135.5000 Y118.5051
G01 X133.1812 Y118.7388
G01 X131.0249 Y119.4082
G01 X129.0730 Y120.4676
G01 X127.3715 Y121.8715
G01 X125.9676 Y123.5731
G01 X124.9081 Y125.5249
G01 X124.2388 Y127.6812
G01 X124.0051 Y130.0000
G01 X124.2388 Y132.3188
G01 X124.9081 Y134.4751
G01 X125.9676 Y136.4269
G01 X127.3715 Y138.1285
G01 X129.0730 Y139.5324
G01 X131.0249 Y140.5918
G01 X133.1812 Y141.2612
G01 X135.5000 Y141.4949
G01 X137.8188 Y141.2612
G01 X139.9751 Y140.5918
G01 X141.9269 Y139.5324
G01 X143.6285 Y138.1285
G01 X145.0324 Y136.4269
G01 X146.0918 Y134.4751
G01 X146.7612 Y132.3188
G01 X146.9949 Y130.0000
G01 X146.7612 Y127.6812
G01 X146.0918 Y125.5249
G01 Z-3.0000 F300
G01 X145.0324 Y123.5731 F2000
G01 X143.6285 Y121.8715
G01 X141.9269 Y120.4676
G01 X139.9751 Y119.4082
G01 X137.8188 Y118.7388
G01 X135.5000 Y118.5051
G01 X133.1812 Y118.7388
G01 X131.0249 Y119.4082
G01 X129.0730 Y120.4676
G01 X127.3715 Y121.8715
G01 X125.9676 Y123.5731
G01 X124.9081 Y125.5249
G01 X124.2388 Y127.6812
G01 X124.0051 Y130.0000
G01 X124.2388 Y132.3188
G01 X124.9081 Y134.4751
G01 X125.9676 Y136.4269
G01 X127.3715 Y138.1285
G01 X129.0730 Y139.5324
G01 X131.0249 Y140.5918
G01 X133.1812 Y141.2612
G01 X135.5000 Y141.4949
G01 X137.8188 Y141.2612
G01 X139.9751 Y140.5918
G01 X141.9269 Y139.5324
G01 X143.6285 Y138.1285
G01 X145.0324 Y136.4269
G01 X146.0918 Y134.4751
G01 X146.7612 Y132.3188
G01 X146.9949 Y130.0000
G01 X146.7612 Y127.6812
G01 X146.0918 Y125.5249
G00 Z5.0000

(Nr. 6 Teil 1)
G00 X162.7882 Y110.1194
G00 Z0.5000
G01 Z-1.0000 F300
G01 X156.7645 Y148.7066 F2000
G01 X157.7529 Y148.8593
G01 X180.5363 Y2.9225
G01 X180.5360 Y0.0001
G03 X181.5011 Y-0.9994 I1.0000 J-0.0001
G01 X184.0000 Y-1.0000
G03 X184.5238 Y-0.8518 I0.0000 J1.0000
G01 X271.5238 Y52.6482
G03 X271.9195 Y53.8931 I-0.5238 J0.8518
G01 X184.4053 Y240.4247
G03 X183.5354 Y240.9994 I-0.9053 J-0.4247
G01 X87.5000 Y241.0000
G03 X86.6103 Y240.4565 I0.0000 J-1.0000
G01 X-0.9053 Y53.9247
G03 X-0.5531 Y52.6669 I0.9053 J-0.4247
G01 X86.4762 Y-0.8518
G03 X87.0000 Y-1.0000 I0.5238 J0.8518
G01 X89.4640
G03 X90.4640 Y0.0002 I0.0000 J1.0000
G01 X90.4636 Y2.9225
G01 X113.2470 Y148.8593
G01 X114.2353 Y148.7066
G01 X108.2166 Y110.1543
G03 X109.1694 Y109.0006 I0.9880 J-0.1543
G01 X161.7953 Y109.0000
G03 X162.7882 Y110.1194 I0.0000 J1.0000
G01 Z-2.0000 F300
G01 X156.7645 Y148.7066 F2000
G01 X157.7529 Y148.8593
G01 X180.5363 Y2.9225
G01 X180.5360 Y0.0001
G03 X181.5011 Y-0.9994 I1.0000 J-0.0001
G01 X184.0000 Y-1.0000
G03 X184.5238 Y-0.8518 I0.0000 J1.0000
G01 X271.5238 Y52.6482
G03 X271.9195 Y53.8931 I-0.5238 J0.8518
G01 X184.4053 Y240.4247
G03 X183.5354 Y240.9994 I-0.9053 J-0.4247
G01 X87.5000 Y241.0000
G03 X86.6103 Y240.4565 I0.0000 J-1.0000
G01 X-0.9053 Y53.9247
G03 X-0.5531 Y52.6669 I0.9053 J-0.4247
G01 X86.4762 Y-0.8518
G03 X87.0000 Y-1.0000 I0.5238 J0.8518
G01 X89.4640
G03 X90.4640 Y0.0002 I0.0000 J1.0000
G01 X90.4636 Y2.9225
G01 X113.2470 Y148.8593
G01 X114.2353 Y148.7066
G01 X108.2166 Y110.1543
G03 X109.1694 Y109.0006 I0.9880 J-0.1543
G01 X161.7953 Y109.0000
G03 X162.7882 Y110.1194 I0.0000 J1.0000
G01 Z-3.0000 F300
G01 X156.7645 Y148.7066 F2000
G01 X157.7529 Y148.8593
G01 X180.5363 Y2.9225
G01 X180.5360 Y0.0001
G03 X181.5011 Y-0.9994 I1.0000 J-0.0001
G01 X184.0000 Y-1.0000
G03 X184.5238 Y-0.8518 I0.0000 J1.0000
G01 X271.5238 Y52.6482
G03 X271.9195 Y53.8931 I-0.5238 J0.8518
G01 X184.4053 Y240.4247
G03 X183.5354 Y240.9994 I-0.9053 J-0.4247
G01 X87.5000 Y241.0000
G03 X86.6103 Y240.4565 I0.0000 J-1.0000
G01 X-0.9053 Y53.9247
G03 X-0.5531 Y52.6669 I0.9053 J-0.4247
G01 X86.4762 Y-0.8518
G03 X87.0000 Y-1.0000 I0.5238 J0.8518
G01 X89.4640
G03 X90.4640 Y0.0002 I0.0000 J1.0000
G01 X90.4636 Y2.9225
G01 X113.2470 Y148.8593
G01 X114.2353 Y148.7066
G01 X108.2166 Y110.1543
G03 X109.1694 Y109.0006 I0.9880 J-0.1543
G01 X161.7953 Y109.0000
G03 X162.7882 Y110.1194 I0.0000 J1.0000
G00 Z5.0000
G00 X0.0000 Y0.0000

M05
M30
