(Projekt stromversorgung)
(Erstellt mit Estlcam 2.5D Version 7 Build 7,101)
(Fraesrichtung: Gegenlauf)
(Nullpunkt: Auf Teileoberseite)
(Maximale Fraestiefe: 3,00mm)
(Verwendete Werkzeuge:)
(Fraeser 2 mm)

G90
M03
G00 Z5.0000

(Nr. 1 Ausschnitt 3)
G00 X11.5693 Y16.5000
G00 Z0.5000
G01 Z-1.0000 F300 S24000
G01 X45.9307 F2000
G00 Z0.0000
G01 X49.4307
G01 Z-1.0000 F300
G01 X83.7921 F2000
G00 Z0.0000
G01 X87.2921
G01 Z-1.0000 F300
G01 X121.6534 F2000
G00 Z0.0000
G01 X125.1534
G01 Z-1.0000 F300
G01 X159.5148 F2000
G00 Z0.0000
G01 X159.9497
G01 X161.3111 Y16.3628
G01 X162.5288 Y15.9848
G01 X162.8995 Y15.7836
G01 Z-1.0000 F300
G01 X163.6314 Y15.3863 F2000
G01 X164.5929 Y14.5930
G01 X165.3863 Y13.6314
G01 X165.9848 Y12.5288
G01 X166.3628 Y11.3111
G01 X166.4949 Y10.0000
G01 X166.3628 Y8.6889
G01 X165.9848 Y7.4712
G01 X165.3863 Y6.3686
G01 X164.5929 Y5.4070
G01 X163.6314 Y4.6137
G01 X162.5288 Y4.0152
G01 X161.3111 Y3.6372
G01 X159.9497 Y3.5000
G01 X143.0000
G00 Z0.0000
G01 X139.5000
G01 Z-1.0000 F300
G01 X105.1386 F2000
G00 Z0.0000
G01 X101.6386
G01 Z-1.0000 F300
G01 X67.2773 F2000
G00 Z0.0000
G01 X63.7773
G01 Z-1.0000 F300
G01 X29.4159 F2000
G00 Z0.0000
G01 X25.9159
G01 Z-1.0000 F300
G01 X10.0503 F2000
G01 X8.6889 Y3.6372
G01 X7.4712 Y4.0152
G01 X6.3686 Y4.6137
G01 X5.4070 Y5.4070
G01 X4.6137 Y6.3686
G01 X4.0152 Y7.4712
G01 X3.6372 Y8.6889
G01 X3.5051 Y10.0000
G01 X3.6372 Y11.3111
G01 X4.0152 Y12.5288
G01 X4.6137 Y13.6314
G01 X5.4070 Y14.5930
G01 X6.3686 Y15.3863
G01 X7.4712 Y15.9848
G01 X8.1038 Y16.1811
G00 Z0.0000
G01 X8.6889 Y16.3628
G01 X10.0503 Y16.5000
G01 X11.5693
G00 Z-0.5000
G01 Z-2.0000 F300
G01 X45.9307 F2000
G00 Z0.0000
G01 X49.4307
G00 Z-0.5000
G01 Z-2.0000 F300
G01 X83.7921 F2000
G00 Z0.0000
G01 X87.2921
G00 Z-0.5000
G01 Z-2.0000 F300
G01 X121.6534 F2000
G00 Z0.0000
G01 X125.1534
G00 Z-0.5000
G01 Z-2.0000 F300
G01 X159.5148 F2000
G00 Z0.0000
G01 X159.9497
G01 X161.3111 Y16.3628
G01 X162.5288 Y15.9848
G01 X162.8995 Y15.7836
G00 Z-0.5000
G01 Z-2.0000 F300
G01 X163.6314 Y15.3863 F2000
G01 X164.5929 Y14.5930
G01 X165.3863 Y13.6314
G01 X165.9848 Y12.5288
G01 X166.3628 Y11.3111
G01 X166.4949 Y10.0000
G01 X166.3628 Y8.6889
G01 X165.9848 Y7.4712
G01 X165.3863 Y6.3686
G01 X164.5929 Y5.4070
G01 X163.6314 Y4.6137
G01 X162.5288 Y4.0152
G01 X161.3111 Y3.6372
G01 X159.9497 Y3.5000
G01 X143.0000
G00 Z0.0000
G01 X139.5000
G00 Z-0.5000
G01 Z-2.0000 F300
G01 X105.1386 F2000
G00 Z0.0000
G01 X101.6386
G00 Z-0.5000
G01 Z-2.0000 F300
G01 X67.2773 F2000
G00 Z0.0000
G01 X63.7773
G00 Z-0.5000
G01 Z-2.0000 F300
G01 X29.4159 F2000
G00 Z0.0000
G01 X25.9159
G00 Z-0.5000
G01 Z-2.0000 F300
G01 X10.0503 F2000
G01 X8.6889 Y3.6372
G01 X7.4712 Y4.0152
G01 X6.3686 Y4.6137
G01 X5.4070 Y5.4070
G01 X4.6137 Y6.3686
G01 X4.0152 Y7.4712
G01 X3.6372 Y8.6889
G01 X3.5051 Y10.0000
G01 X3.6372 Y11.3111
G01 X4.0152 Y12.5288
G01 X4.6137 Y13.6314
G01 X5.4070 Y14.5930
G01 X6.3686 Y15.3863
G01 X7.4712 Y15.9848
G01 X8.1038 Y16.1811
G00 Z0.0000
G01 X8.6889 Y16.3628
G01 X10.0503 Y16.5000
G01 X11.5693
G00 Z-1.5000
G01 Z-3.0000 F300
G01 X45.9307 F2000
G00 Z0.0000
G01 X49.4307
G00 Z-1.5000
G01 Z-3.0000 F300
G01 X83.7921 F2000
G00 Z0.0000
G01 X87.2921
G00 Z-1.5000
G01 Z-3.0000 F300
G01 X121.6534 F2000
G00 Z0.0000
G01 X125.1534
G00 Z-1.5000
G01 Z-3.0000 F300
G01 X159.5148 F2000
G00 Z0.0000
G01 X159.9497
G01 X161.3111 Y16.3628
G01 X162.5288 Y15.9848
G01 X162.8995 Y15.7836
G00 Z-1.5000
G01 Z-3.0000 F300
G01 X163.6314 Y15.3863 F2000
G01 X164.5929 Y14.5930
G01 X165.3863 Y13.6314
G01 X165.9848 Y12.5288
G01 X166.3628 Y11.3111
G01 X166.4949 Y10.0000
G01 X166.3628 Y8.6889
G01 X165.9848 Y7.4712
G01 X165.3863 Y6.3686
G01 X164.5929 Y5.4070
G01 X163.6314 Y4.6137
G01 X162.5288 Y4.0152
G01 X161.3111 Y3.6372
G01 X159.9497 Y3.5000
G01 X143.0000
G00 Z0.0000
G01 X139.5000
G00 Z-1.5000
G01 Z-3.0000 F300
G01 X105.1386 F2000
G00 Z0.0000
G01 X101.6386
G00 Z-1.5000
G01 Z-3.0000 F300
G01 X67.2773 F2000
G00 Z0.0000
G01 X63.7773
G00 Z-1.5000
G01 Z-3.0000 F300
G01 X29.4159 F2000
G00 Z0.0000
G01 X25.9159
G00 Z-1.5000
G01 Z-3.0000 F300
G01 X10.0503 F2000
G01 X8.6889 Y3.6372
G01 X7.4712 Y4.0152
G01 X6.3686 Y4.6137
G01 X5.4070 Y5.4070
G01 X4.6137 Y6.3686
G01 X4.0152 Y7.4712
G01 X3.6372 Y8.6889
G01 X3.5051 Y10.0000
G01 X3.6372 Y11.3111
G01 X4.0152 Y12.5288
G01 X4.6137 Y13.6314
G01 X5.4070 Y14.5930
G01 X6.3686 Y15.3863
G01 X7.4712 Y15.9848
G01 X8.1038 Y16.1811
G00 Z0.0000
G01 X8.6889 Y16.3628
G01 X10.0503 Y16.5000
G01 X11.5693
G00 Z5.0000

(Nr. 2 Teil 5)
G00 X6.5663 Y20.4036
G00 Z0.5000
G01 Z-1.0000 F300
G01 X5.8111 Y20.1692 F2000
G03 X5.6305 Y20.0930 I0.2965 J-0.9550
G01 X3.9319 Y19.1710
G03 X3.7725 Y19.0635 I0.4770 J-0.8789
G01 X2.2925 Y17.8424
G03 X2.1825 Y17.7365 I0.6364 J-0.7713
G01 X0.9365 Y16.2275
G03 X0.8447 Y16.0961 I0.7713 J-0.6364
G01 X-0.0930 Y14.3695
G03 X-0.1692 Y14.1889 I0.8789 J-0.4770
G01 X-0.7519 Y12.3118
G03 X-0.7918 Y12.1157 I0.9550 J-0.2965
G01 X-0.9950 Y10.1003
G03 Y9.8997 I0.9950 J-0.1003
G01 X-0.7918 Y7.8844
G03 X-0.7519 Y7.6882 I0.9950 J0.1003
G01 X-0.1692 Y5.8111
G03 X-0.0930 Y5.6305 I0.9550 J0.2965
G01 X0.8290 Y3.9319
G03 X0.9165 Y3.7976 I0.8789 J0.4770
G01 X2.1576 Y2.2925
G03 X2.2925 Y2.1576 I0.7713 J0.6364
G01 X3.7725 Y0.9365
G03 X3.9039 Y0.8447 I0.6364 J0.7713
G01 X5.6305 Y-0.0930
G03 X5.7800 Y-0.1590 I0.4770 J0.8789
G01 X7.6882 Y-0.7519
G03 X7.8844 Y-0.7918 I0.2965 J0.9550
G01 X9.8997 Y-0.9950
G01 X9.9665 Y-0.9994
G01 X16.4925 Y-0.9995
G00 Z0.0000
G01 X19.9925
G01 Z-1.0000 F300
G01 X57.4950 Y-0.9996 F2000
G00 Z0.0000
G01 X60.9950
G01 Z-1.0000 F300
G01 X98.4975 Y-0.9998 F2000
G00 Z0.0000
G01 X101.9975
G01 Z-1.0000 F300
G01 X139.5000 Y-0.9999 F2000
G00 Z0.0000
G01 X143.0000
G01 Z-1.0000 F300
G01 X160.0000 Y-1.0000 F2000
G01 X160.1003 Y-0.9950
G01 X162.1156 Y-0.7918
G03 X162.3118 Y-0.7519 I-0.1003 J0.9950
G01 X164.1889 Y-0.1692
G03 X164.3695 Y-0.0930 I-0.2965 J0.9550
G01 X166.0681 Y0.8290
G03 X166.2024 Y0.9165 I-0.4771 J0.8789
G01 X167.7075 Y2.1576
G03 X167.8424 Y2.2925 I-0.6364 J0.7713
G01 X169.0635 Y3.7725
G03 X169.1553 Y3.9039 I-0.7713 J0.6364
G01 X170.0930 Y5.6305
G03 X170.1692 Y5.8111 I-0.8789 J0.4770
G01 X170.7519 Y7.6882
G03 X170.7918 Y7.8844 I-0.9550 J0.2965
G01 X170.9950 Y9.8997
G03 X170.9978 Y10.0669 I-0.9950 J0.1003
G01 X170.7918 Y12.1156
G03 X170.7519 Y12.3118 I-0.9950 J-0.1003
G01 X170.4790 Y13.1908
G00 Z0.0000
G01 X170.1692 Y14.1889
G03 X170.0930 Y14.3695 I-0.9550 J-0.2965
G01 X169.1711 Y16.0681
G03 X169.0835 Y16.2024 I-0.8789 J-0.4770
G01 X168.9783 Y16.3300
G01 Z-1.0000 F300
G01 X167.8424 Y17.7075 F2000
G03 X167.7365 Y17.8175 I-0.7713 J-0.6364
G01 X166.2275 Y19.0635
G03 X166.0681 Y19.1710 I-0.6364 J-0.7713
G01 X164.3695 Y20.0930
G03 X164.2200 Y20.1590 I-0.4770 J-0.8789
G01 X162.3118 Y20.7519
G03 X162.1156 Y20.7918 I-0.2965 J-0.9550
G01 X160.1003 Y20.9950
G01 X160.0335 Y20.9994
G01 X133.0062 Y20.9995
G00 Z0.0000
G01 X129.5062 Y20.9996
G01 Z-1.0000 F300
G01 X92.0038 Y20.9997 F2000
G00 Z0.0000
G01 X88.5038
G01 Z-1.0000 F300
G01 X51.0012 Y20.9999 F2000
G00 Z0.0000
G01 X47.5013
G01 Z-1.0000 F300
G01 X28.7500 Y21.0000 F2000
G01 X10.0000
G00 Z0.0000
G01 X9.9331 Y20.9978
G01 X7.8844 Y20.7918
G03 X7.6882 Y20.7519 I0.1003 J-0.9950
G01 X6.5663 Y20.4036
G00 Z-0.5000
G01 Z-2.0000 F300
G01 X5.8111 Y20.1692 F2000
G03 X5.6305 Y20.0930 I0.2965 J-0.9550
G01 X3.9319 Y19.1710
G03 X3.7725 Y19.0635 I0.4770 J-0.8789
G01 X2.2925 Y17.8424
G03 X2.1825 Y17.7365 I0.6364 J-0.7713
G01 X0.9365 Y16.2275
G03 X0.8447 Y16.0961 I0.7713 J-0.6364
G01 X-0.0930 Y14.3695
G03 X-0.1692 Y14.1889 I0.8789 J-0.4770
G01 X-0.7519 Y12.3118
G03 X-0.7918 Y12.1157 I0.9550 J-0.2965
G01 X-0.9950 Y10.1003
G03 Y9.8997 I0.9950 J-0.1003
G01 X-0.7918 Y7.8844
G03 X-0.7519 Y7.6882 I0.9950 J0.1003
G01 X-0.1692 Y5.8111
G03 X-0.0930 Y5.6305 I0.9550 J0.2965
G01 X0.8290 Y3.9319
G03 X0.9165 Y3.7976 I0.8789 J0.4770
G01 X2.1576 Y2.2925
G03 X2.2925 Y2.1576 I0.7713 J0.6364
G01 X3.7725 Y0.9365
G03 X3.9039 Y0.8447 I0.6364 J0.7713
G01 X5.6305 Y-0.0930
G03 X5.7800 Y-0.1590 I0.4770 J0.8789
G01 X7.6882 Y-0.7519
G03 X7.8844 Y-0.7918 I0.2965 J0.9550
G01 X9.8997 Y-0.9950
G01 X9.9665 Y-0.9994
G01 X16.4925 Y-0.9995
G00 Z0.0000
G01 X19.9925
G00 Z-0.5000
G01 Z-2.0000 F300
G01 X57.4950 Y-0.9996 F2000
G00 Z0.0000
G01 X60.9950
G00 Z-0.5000
G01 Z-2.0000 F300
G01 X98.4975 Y-0.9998 F2000
G00 Z0.0000
G01 X101.9975
G00 Z-0.5000
G01 Z-2.0000 F300
G01 X139.5000 Y-0.9999 F2000
G00 Z0.0000
G01 X143.0000
G00 Z-0.5000
G01 Z-2.0000 F300
G01 X160.0000 Y-1.0000 F2000
G01 X160.1003 Y-0.9950
G01 X162.1156 Y-0.7918
G03 X162.3118 Y-0.7519 I-0.1003 J0.9950
G01 X164.1889 Y-0.1692
G03 X164.3695 Y-0.0930 I-0.2965 J0.9550
G01 X166.0681 Y0.8290
G03 X166.2024 Y0.9165 I-0.4771 J0.8789
G01 X167.7075 Y2.1576
G03 X167.8424 Y2.2925 I-0.6364 J0.7713
G01 X169.0635 Y3.7725
G03 X169.1553 Y3.9039 I-0.7713 J0.6364
G01 X170.0930 Y5.6305
G03 X170.1692 Y5.8111 I-0.8789 J0.4770
G01 X170.7519 Y7.6882
G03 X170.7918 Y7.8844 I-0.9550 J0.2965
G01 X170.9950 Y9.8997
G03 X170.9978 Y10.0669 I-0.9950 J0.1003
G01 X170.7918 Y12.1156
G03 X170.7519 Y12.3118 I-0.9950 J-0.1003
G01 X170.4790 Y13.1908
G00 Z0.0000
G01 X170.1692 Y14.1889
G03 X170.0930 Y14.3695 I-0.9550 J-0.2965
G01 X169.1711 Y16.0681
G03 X169.0835 Y16.2024 I-0.8789 J-0.4770
G01 X168.9783 Y16.3300
G00 Z-0.5000
G01 Z-2.0000 F300
G01 X167.8424 Y17.7075 F2000
G03 X167.7365 Y17.8175 I-0.7713 J-0.6364
G01 X166.2275 Y19.0635
G03 X166.0681 Y19.1710 I-0.6364 J-0.7713
G01 X164.3695 Y20.0930
G03 X164.2200 Y20.1590 I-0.4770 J-0.8789
G01 X162.3118 Y20.7519
G03 X162.1156 Y20.7918 I-0.2965 J-0.9550
G01 X160.1003 Y20.9950
G01 X160.0335 Y20.9994
G01 X133.0062 Y20.9995
G00 Z0.0000
G01 X129.5062 Y20.9996
G00 Z-0.5000
G01 Z-2.0000 F300
G01 X92.0038 Y20.9997 F2000
G00 Z0.0000
G01 X88.5038
G00 Z-0.5000
G01 Z-2.0000 F300
G01 X51.0012 Y20.9999 F2000
G00 Z0.0000
G01 X47.5013
G00 Z-0.5000
G01 Z-2.0000 F300
G01 X28.7500 Y21.0000 F2000
G01 X10.0000
G00 Z0.0000
G01 X9.9331 Y20.9978
G01 X7.8844 Y20.7918
G03 X7.6882 Y20.7519 I0.1003 J-0.9950
G01 X6.5663 Y20.4036
G00 Z-1.5000
G01 Z-3.0000 F300
G01 X5.8111 Y20.1692 F2000
G03 X5.6305 Y20.0930 I0.2965 J-0.9550
G01 X3.9319 Y19.1710
G03 X3.7725 Y19.0635 I0.4770 J-0.8789
G01 X2.2925 Y17.8424
G03 X2.1825 Y17.7365 I0.6364 J-0.7713
G01 X0.9365 Y16.2275
G03 X0.8447 Y16.0961 I0.7713 J-0.6364
G01 X-0.0930 Y14.3695
G03 X-0.1692 Y14.1889 I0.8789 J-0.4770
G01 X-0.7519 Y12.3118
G03 X-0.7918 Y12.1157 I0.9550 J-0.2965
G01 X-0.9950 Y10.1003
G03 Y9.8997 I0.9950 J-0.1003
G01 X-0.7918 Y7.8844
G03 X-0.7519 Y7.6882 I0.9950 J0.1003
G01 X-0.1692 Y5.8111
G03 X-0.0930 Y5.6305 I0.9550 J0.2965
G01 X0.8290 Y3.9319
G03 X0.9165 Y3.7976 I0.8789 J0.4770
G01 X2.1576 Y2.2925
G03 X2.2925 Y2.1576 I0.7713 J0.6364
G01 X3.7725 Y0.9365
G03 X3.9039 Y0.8447 I0.6364 J0.7713
G01 X5.6305 Y-0.0930
G03 X5.7800 Y-0.1590 I0.4770 J0.8789
G01 X7.6882 Y-0.7519
G03 X7.8844 Y-0.7918 I0.2965 J0.9550
G01 X9.8997 Y-0.9950
G01 X9.9665 Y-0.9994
G01 X16.4925 Y-0.9995
G00 Z0.0000
G01 X19.9925
G00 Z-1.5000
G01 Z-3.0000 F300
G01 X57.4950 Y-0.9996 F2000
G00 Z0.0000
G01 X60.9950
G00 Z-1.5000
G01 Z-3.0000 F300
G01 X98.4975 Y-0.9998 F2000
G00 Z0.0000
G01 X101.9975
G00 Z-1.5000
G01 Z-3.0000 F300
G01 X139.5000 Y-0.9999 F2000
G00 Z0.0000
G01 X143.0000
G00 Z-1.5000
G01 Z-3.0000 F300
G01 X160.0000 Y-1.0000 F2000
G01 X160.1003 Y-0.9950
G01 X162.1156 Y-0.7918
G03 X162.3118 Y-0.7519 I-0.1003 J0.9950
G01 X164.1889 Y-0.1692
G03 X164.3695 Y-0.0930 I-0.2965 J0.9550
G01 X166.0681 Y0.8290
G03 X166.2024 Y0.9165 I-0.4771 J0.8789
G01 X167.7075 Y2.1576
G03 X167.8424 Y2.2925 I-0.6364 J0.7713
G01 X169.0635 Y3.7725
G03 X169.1553 Y3.9039 I-0.7713 J0.6364
G01 X170.0930 Y5.6305
G03 X170.1692 Y5.8111 I-0.8789 J0.4770
G01 X170.7519 Y7.6882
G03 X170.7918 Y7.8844 I-0.9550 J0.2965
G01 X170.9950 Y9.8997
G03 X170.9978 Y10.0669 I-0.9950 J0.1003
G01 X170.7918 Y12.1156
G03 X170.7519 Y12.3118 I-0.9950 J-0.1003
G01 X170.4790 Y13.1908
G00 Z0.0000
G01 X170.1692 Y14.1889
G03 X170.0930 Y14.3695 I-0.9550 J-0.2965
G01 X169.1711 Y16.0681
G03 X169.0835 Y16.2024 I-0.8789 J-0.4770
G01 X168.9783 Y16.3300
G00 Z-1.5000
G01 Z-3.0000 F300
G01 X167.8424 Y17.7075 F2000
G03 X167.7365 Y17.8175 I-0.7713 J-0.6364
G01 X166.2275 Y19.0635
G03 X166.0681 Y19.1710 I-0.6364 J-0.7713
G01 X164.3695 Y20.0930
G03 X164.2200 Y20.1590 I-0.4770 J-0.8789
G01 X162.3118 Y20.7519
G03 X162.1156 Y20.7918 I-0.2965 J-0.9550
G01 X160.1003 Y20.9950
G01 X160.0335 Y20.9994
G01 X133.0062 Y20.9995
G00 Z0.0000
G01 X129.5062 Y20.9996
G00 Z-1.5000
G01 Z-3.0000 F300
G01 X92.0038 Y20.9997 F2000
G00 Z0.0000
G01 X88.5038
G00 Z-1.5000
G01 Z-3.0000 F300
G01 X51.0012 Y20.9999 F2000
G00 Z0.0000
G01 X47.5013
G00 Z-1.5000
G01 Z-3.0000 F300
G01 X28.7500 Y21.0000 F2000
G01 X10.0000
G00 Z0.0000
G01 X9.9331 Y20.9978
G01 X7.8844 Y20.7918
G03 X7.6882 Y20.7519 I0.1003 J-0.9950
G01 X6.5663 Y20.4036
G00 Z5.0000

(Nr. 3 Ausschnitt 2)
G00 X25.9160 Y33.5000
G00 Z0.5000
G01 Z-1.0000 F300
G01 X10.0503 F2000
G01 X8.6889 Y33.6372
G01 X7.4712 Y34.0152
G01 X6.3686 Y34.6137
G01 X5.4071 Y35.4071
G01 X4.6137 Y36.3686
G01 X4.0153 Y37.4712
G01 X3.6373 Y38.6889
G01 X3.5051 Y40.0000
G01 X3.6373 Y41.3111
G01 X4.0153 Y42.5288
G01 X4.6137 Y43.6314
G01 X5.4071 Y44.5930
G01 X6.3686 Y45.3863
G01 X7.4712 Y45.9848
G01 X8.1038 Y46.1811
G00 Z0.0000
G01 X8.6889 Y46.3628
G01 X10.0503 Y46.5000
G01 X11.5694
G01 Z-1.0000 F300
G01 X45.9307 F2000
G00 Z0.0000
G01 X49.4307
G01 Z-1.0000 F300
G01 X83.7921 F2000
G00 Z0.0000
G01 X87.2921
G01 Z-1.0000 F300
G01 X121.6534 F2000
G00 Z0.0000
G01 X125.1534
G01 Z-1.0000 F300
G01 X159.5148 F2000
G00 Z0.0000
G01 X159.9497
G01 X161.3111 Y46.3628
G01 X162.5288 Y45.9848
G01 X162.8995 Y45.7836
G01 Z-1.0000 F300
G01 X163.6314 Y45.3863 F2000
G01 X164.5930 Y44.5930
G01 X165.3863 Y43.6314
G01 X165.9848 Y42.5288
G01 X166.3628 Y41.3111
G01 X166.4949 Y40.0000
G01 X166.3628 Y38.6889
G01 X165.9848 Y37.4712
G01 X165.3863 Y36.3686
G01 X164.5930 Y35.4071
G01 X163.6314 Y34.6137
G01 X162.5288 Y34.0152
G01 X161.3111 Y33.6372
G01 X159.9497 Y33.5000
G01 X143.0000
G00 Z0.0000
G01 X139.5000
G01 Z-1.0000 F300
G01 X105.1387 F2000
G00 Z0.0000
G01 X101.6387
G01 Z-1.0000 F300
G01 X67.2773 F2000
G00 Z0.0000
G01 X63.7773
G01 Z-1.0000 F300
G01 X29.4160 F2000
G00 Z0.0000
G01 X25.9160
G00 Z-0.5000
G01 Z-2.0000 F300
G01 X10.0503 F2000
G01 X8.6889 Y33.6372
G01 X7.4712 Y34.0152
G01 X6.3686 Y34.6137
G01 X5.4071 Y35.4071
G01 X4.6137 Y36.3686
G01 X4.0153 Y37.4712
G01 X3.6373 Y38.6889
G01 X3.5051 Y40.0000
G01 X3.6373 Y41.3111
G01 X4.0153 Y42.5288
G01 X4.6137 Y43.6314
G01 X5.4071 Y44.5930
G01 X6.3686 Y45.3863
G01 X7.4712 Y45.9848
G01 X8.1038 Y46.1811
G00 Z0.0000
G01 X8.6889 Y46.3628
G01 X10.0503 Y46.5000
G01 X11.5694
G00 Z-0.5000
G01 Z-2.0000 F300
G01 X45.9307 F2000
G00 Z0.0000
G01 X49.4307
G00 Z-0.5000
G01 Z-2.0000 F300
G01 X83.7921 F2000
G00 Z0.0000
G01 X87.2921
G00 Z-0.5000
G01 Z-2.0000 F300
G01 X121.6534 F2000
G00 Z0.0000
G01 X125.1534
G00 Z-0.5000
G01 Z-2.0000 F300
G01 X159.5148 F2000
G00 Z0.0000
G01 X159.9497
G01 X161.3111 Y46.3628
G01 X162.5288 Y45.9848
G01 X162.8995 Y45.7836
G00 Z-0.5000
G01 Z-2.0000 F300
G01 X163.6314 Y45.3863 F2000
G01 X164.5930 Y44.5930
G01 X165.3863 Y43.6314
G01 X165.9848 Y42.5288
G01 X166.3628 Y41.3111
G01 X166.4949 Y40.0000
G01 X166.3628 Y38.6889
G01 X165.9848 Y37.4712
G01 X165.3863 Y36.3686
G01 X164.5930 Y35.4071
G01 X163.6314 Y34.6137
G01 X162.5288 Y34.0152
G01 X161.3111 Y33.6372
G01 X159.9497 Y33.5000
G01 X143.0000
G00 Z0.0000
G01 X139.5000
G00 Z-0.5000
G01 Z-2.0000 F300
G01 X105.1387 F2000
G00 Z0.0000
G01 X101.6387
G00 Z-0.5000
G01 Z-2.0000 F300
G01 X67.2773 F2000
G00 Z0.0000
G01 X63.7773
G00 Z-0.5000
G01 Z-2.0000 F300
G01 X29.4160 F2000
G00 Z0.0000
G01 X25.9160
G00 Z-1.5000
G01 Z-3.0000 F300
G01 X10.0503 F2000
G01 X8.6889 Y33.6372
G01 X7.4712 Y34.0152
G01 X6.3686 Y34.6137
G01 X5.4071 Y35.4071
G01 X4.6137 Y36.3686
G01 X4.0153 Y37.4712
G01 X3.6373 Y38.6889
G01 X3.5051 Y40.0000
G01 X3.6373 Y41.3111
G01 X4.0153 Y42.5288
G01 X4.6137 Y43.6314
G01 X5.4071 Y44.5930
G01 X6.3686 Y45.3863
G01 X7.4712 Y45.9848
G01 X8.1038 Y46.1811
G00 Z0.0000
G01 X8.6889 Y46.3628
G01 X10.0503 Y46.5000
G01 X11.5694
G00 Z-1.5000
G01 Z-3.0000 F300
G01 X45.9307 F2000
G00 Z0.0000
G01 X49.4307
G00 Z-1.5000
G01 Z-3.0000 F300
G01 X83.7921 F2000
G00 Z0.0000
G01 X87.2921
G00 Z-1.5000
G01 Z-3.0000 F300
G01 X121.6534 F2000
G00 Z0.0000
G01 X125.1534
G00 Z-1.5000
G01 Z-3.0000 F300
G01 X159.5148 F2000
G00 Z0.0000
G01 X159.9497
G01 X161.3111 Y46.3628
G01 X162.5288 Y45.9848
G01 X162.8995 Y45.7836
G00 Z-1.5000
G01 Z-3.0000 F300
G01 X163.6314 Y45.3863 F2000
G01 X164.5930 Y44.5930
G01 X165.3863 Y43.6314
G01 X165.9848 Y42.5288
G01 X166.3628 Y41.3111
G01 X166.4949 Y40.0000
G01 X166.3628 Y38.6889
G01 X165.9848 Y37.4712
G01 X165.3863 Y36.3686
G01 X164.5930 Y35.4071
G01 X163.6314 Y34.6137
G01 X162.5288 Y34.0152
G01 X161.3111 Y33.6372
G01 X159.9497 Y33.5000
G01 X143.0000
G00 Z0.0000
G01 X139.5000
G00 Z-1.5000
G01 Z-3.0000 F300
G01 X105.1387 F2000
G00 Z0.0000
G01 X101.6387
G00 Z-1.5000
G01 Z-3.0000 F300
G01 X67.2773 F2000
G00 Z0.0000
G01 X63.7773
G00 Z-1.5000
G01 Z-3.0000 F300
G01 X29.4160 F2000
G00 Z0.0000
G01 X25.9160
G00 Z5.0000

(Nr. 4 Teil 4)
G00 X19.9925 Y29.0005
G00 Z0.5000
G01 Z-1.0000 F300
G01 X57.4950 Y29.0004 F2000
G00 Z0.0000
G01 X60.9950
G01 Z-1.0000 F300
G01 X98.4975 Y29.0002 F2000
G00 Z0.0000
G01 X101.9975
G01 Z-1.0000 F300
G01 X139.5000 Y29.0001 F2000
G00 Z0.0000
G01 X143.0000
G01 Z-1.0000 F300
G01 X160.0000 Y29.0000 F2000
G01 X160.0669 Y29.0023
G01 X162.1156 Y29.2082
G03 X162.3118 Y29.2481 I-0.1003 J0.9950
G01 X164.1889 Y29.8308
G03 X164.3405 Y29.8918 I-0.2965 J0.9550
G01 X166.0681 Y30.8290
G03 X166.2275 Y30.9365 I-0.4770 J0.8789
G01 X167.7075 Y32.1576
G03 X167.8175 Y32.2635 I-0.6364 J0.7713
G01 X169.0635 Y33.7725
G03 X169.1553 Y33.9039 I-0.7713 J0.6364
G01 X170.0930 Y35.6305
G03 X170.1692 Y35.8111 I-0.8789 J0.4770
G01 X170.7519 Y37.6882
G03 X170.7918 Y37.8844 I-0.9550 J0.2965
G01 X170.9950 Y39.8997
G03 X170.9978 Y40.0669 I-0.9950 J0.1003
G01 X170.7918 Y42.1156
G03 X170.7613 Y42.2797 I-0.9950 J-0.1003
G01 X170.4788 Y43.1907
G00 Z0.0000
G01 X170.1692 Y44.1889
G03 X170.1082 Y44.3405 I-0.9550 J-0.2965
G01 X169.1711 Y46.0681
G03 X169.0835 Y46.2024 I-0.8789 J-0.4770
G01 X168.9783 Y46.3300
G01 Z-1.0000 F300
G01 X167.8424 Y47.7075 F2000
G03 X167.7365 Y47.8175 I-0.7713 J-0.6364
G01 X166.2275 Y49.0635
G03 X166.0681 Y49.1710 I-0.6364 J-0.7714
G01 X164.3695 Y50.0930
G03 X164.2200 Y50.1590 I-0.4770 J-0.8789
G01 X162.3118 Y50.7519
G03 X162.1156 Y50.7918 I-0.2965 J-0.9551
G01 X160.1003 Y50.9949
G01 X160.0335 Y50.9994
G01 X133.0062 Y50.9995
G00 Z0.0000
G01 X129.5062 Y50.9996
G01 Z-1.0000 F300
G01 X92.0038 Y50.9997 F2000
G00 Z0.0000
G01 X88.5038
G01 Z-1.0000 F300
G01 X51.0012 Y50.9999 F2000
G00 Z0.0000
G01 X47.5013
G01 Z-1.0000 F300
G01 X28.7500 Y51.0000 F2000
G01 X10.0000
G00 Z0.0000
G01 X9.9331 Y50.9977
G01 X7.8844 Y50.7918
G03 X7.6882 Y50.7519 I0.1003 J-0.9950
G01 X6.5663 Y50.4036
G01 Z-1.0000 F300
G01 X5.8111 Y50.1692 F2000
G03 X5.6305 Y50.0930 I0.2965 J-0.9550
G01 X3.9319 Y49.1710
G03 X3.7725 Y49.0635 I0.4770 J-0.8789
G01 X2.2925 Y47.8424
G03 X2.1576 Y47.7075 I0.6364 J-0.7713
G01 X0.9365 Y46.2275
G03 X0.8290 Y46.0681 I0.7714 J-0.6364
G01 X-0.0930 Y44.3695
G03 X-0.1692 Y44.1889 I0.8789 J-0.4770
G01 X-0.7519 Y42.3118
G03 X-0.7879 Y42.1488 I0.9550 J-0.2965
G01 X-0.9950 Y40.1003
G03 Y39.8997 I0.9950 J-0.1003
G01 X-0.7918 Y37.8844
G03 X-0.7519 Y37.6882 I0.9950 J0.1003
G01 X-0.1692 Y35.8111
G03 X-0.1082 Y35.6595 I0.9550 J0.2965
G01 X0.8290 Y33.9319
G03 X0.9165 Y33.7976 I0.8789 J0.4770
G01 X2.1576 Y32.2925
G03 X2.2925 Y32.1576 I0.7713 J0.6364
G01 X3.7725 Y30.9365
G03 X3.9319 Y30.8290 I0.6364 J0.7713
G01 X5.6305 Y29.9070
G03 X5.8111 Y29.8308 I0.4770 J0.8789
G01 X7.6882 Y29.2481
G03 X7.8844 Y29.2082 I0.2965 J0.9550
G01 X9.8997 Y29.0051
G01 X9.9665 Y29.0006
G01 X16.4925 Y29.0005
G00 Z0.0000
G01 X19.9925
G00 Z-0.5000
G01 Z-2.0000 F300
G01 X57.4950 Y29.0004 F2000
G00 Z0.0000
G01 X60.9950
G00 Z-0.5000
G01 Z-2.0000 F300
G01 X98.4975 Y29.0002 F2000
G00 Z0.0000
G01 X101.9975
G00 Z-0.5000
G01 Z-2.0000 F300
G01 X139.5000 Y29.0001 F2000
G00 Z0.0000
G01 X143.0000
G00 Z-0.5000
G01 Z-2.0000 F300
G01 X160.0000 Y29.0000 F2000
G01 X160.0669 Y29.0023
G01 X162.1156 Y29.2082
G03 X162.3118 Y29.2481 I-0.1003 J0.9950
G01 X164.1889 Y29.8308
G03 X164.3405 Y29.8918 I-0.2965 J0.9550
G01 X166.0681 Y30.8290
G03 X166.2275 Y30.9365 I-0.4770 J0.8789
G01 X167.7075 Y32.1576
G03 X167.8175 Y32.2635 I-0.6364 J0.7713
G01 X169.0635 Y33.7725
G03 X169.1553 Y33.9039 I-0.7713 J0.6364
G01 X170.0930 Y35.6305
G03 X170.1692 Y35.8111 I-0.8789 J0.4770
G01 X170.7519 Y37.6882
G03 X170.7918 Y37.8844 I-0.9550 J0.2965
G01 X170.9950 Y39.8997
G03 X170.9978 Y40.0669 I-0.9950 J0.1003
G01 X170.7918 Y42.1156
G03 X170.7613 Y42.2797 I-0.9950 J-0.1003
G01 X170.4788 Y43.1907
G00 Z0.0000
G01 X170.1692 Y44.1889
G03 X170.1082 Y44.3405 I-0.9550 J-0.2965
G01 X169.1711 Y46.0681
G03 X169.0835 Y46.2024 I-0.8789 J-0.4770
G01 X168.9783 Y46.3300
G00 Z-0.5000
G01 Z-2.0000 F300
G01 X167.8424 Y47.7075 F2000
G03 X167.7365 Y47.8175 I-0.7713 J-0.6364
G01 X166.2275 Y49.0635
G03 X166.0681 Y49.1710 I-0.6364 J-0.7714
G01 X164.3695 Y50.0930
G03 X164.2200 Y50.1590 I-0.4770 J-0.8789
G01 X162.3118 Y50.7519
G03 X162.1156 Y50.7918 I-0.2965 J-0.9551
G01 X160.1003 Y50.9949
G01 X160.0335 Y50.9994
G01 X133.0062 Y50.9995
G00 Z0.0000
G01 X129.5062 Y50.9996
G00 Z-0.5000
G01 Z-2.0000 F300
G01 X92.0038 Y50.9997 F2000
G00 Z0.0000
G01 X88.5038
G00 Z-0.5000
G01 Z-2.0000 F300
G01 X51.0012 Y50.9999 F2000
G00 Z0.0000
G01 X47.5013
G00 Z-0.5000
G01 Z-2.0000 F300
G01 X28.7500 Y51.0000 F2000
G01 X10.0000
G00 Z0.0000
G01 X9.9331 Y50.9977
G01 X7.8844 Y50.7918
G03 X7.6882 Y50.7519 I0.1003 J-0.9950
G01 X6.5663 Y50.4036
G00 Z-0.5000
G01 Z-2.0000 F300
G01 X5.8111 Y50.1692 F2000
G03 X5.6305 Y50.0930 I0.2965 J-0.9550
G01 X3.9319 Y49.1710
G03 X3.7725 Y49.0635 I0.4770 J-0.8789
G01 X2.2925 Y47.8424
G03 X2.1576 Y47.7075 I0.6364 J-0.7713
G01 X0.9365 Y46.2275
G03 X0.8290 Y46.0681 I0.7714 J-0.6364
G01 X-0.0930 Y44.3695
G03 X-0.1692 Y44.1889 I0.8789 J-0.4770
G01 X-0.7519 Y42.3118
G03 X-0.7879 Y42.1488 I0.9550 J-0.2965
G01 X-0.9950 Y40.1003
G03 Y39.8997 I0.9950 J-0.1003
G01 X-0.7918 Y37.8844
G03 X-0.7519 Y37.6882 I0.9950 J0.1003
G01 X-0.1692 Y35.8111
G03 X-0.1082 Y35.6595 I0.9550 J0.2965
G01 X0.8290 Y33.9319
G03 X0.9165 Y33.7976 I0.8789 J0.4770
G01 X2.1576 Y32.2925
G03 X2.2925 Y32.1576 I0.7713 J0.6364
G01 X3.7725 Y30.9365
G03 X3.9319 Y30.8290 I0.6364 J0.7713
G01 X5.6305 Y29.9070
G03 X5.8111 Y29.8308 I0.4770 J0.8789
G01 X7.6882 Y29.2481
G03 X7.8844 Y29.2082 I0.2965 J0.9550
G01 X9.8997 Y29.0051
G01 X9.9665 Y29.0006
G01 X16.4925 Y29.0005
G00 Z0.0000
G01 X19.9925
G00 Z-1.5000
G01 Z-3.0000 F300
G01 X57.4950 Y29.0004 F2000
G00 Z0.0000
G01 X60.9950
G00 Z-1.5000
G01 Z-3.0000 F300
G01 X98.4975 Y29.0002 F2000
G00 Z0.0000
G01 X101.9975
G00 Z-1.5000
G01 Z-3.0000 F300
G01 X139.5000 Y29.0001 F2000
G00 Z0.0000
G01 X143.0000
G00 Z-1.5000
G01 Z-3.0000 F300
G01 X160.0000 Y29.0000 F2000
G01 X160.0669 Y29.0023
G01 X162.1156 Y29.2082
G03 X162.3118 Y29.2481 I-0.1003 J0.9950
G01 X164.1889 Y29.8308
G03 X164.3405 Y29.8918 I-0.2965 J0.9550
G01 X166.0681 Y30.8290
G03 X166.2275 Y30.9365 I-0.4770 J0.8789
G01 X167.7075 Y32.1576
G03 X167.8175 Y32.2635 I-0.6364 J0.7713
G01 X169.0635 Y33.7725
G03 X169.1553 Y33.9039 I-0.7713 J0.6364
G01 X170.0930 Y35.6305
G03 X170.1692 Y35.8111 I-0.8789 J0.4770
G01 X170.7519 Y37.6882
G03 X170.7918 Y37.8844 I-0.9550 J0.2965
G01 X170.9950 Y39.8997
G03 X170.9978 Y40.0669 I-0.9950 J0.1003
G01 X170.7918 Y42.1156
G03 X170.7613 Y42.2797 I-0.9950 J-0.1003
G01 X170.4788 Y43.1907
G00 Z0.0000
G01 X170.1692 Y44.1889
G03 X170.1082 Y44.3405 I-0.9550 J-0.2965
G01 X169.1711 Y46.0681
G03 X169.0835 Y46.2024 I-0.8789 J-0.4770
G01 X168.9783 Y46.3300
G00 Z-1.5000
G01 Z-3.0000 F300
G01 X167.8424 Y47.7075 F2000
G03 X167.7365 Y47.8175 I-0.7713 J-0.6364
G01 X166.2275 Y49.0635
G03 X166.0681 Y49.1710 I-0.6364 J-0.7714
G01 X164.3695 Y50.0930
G03 X164.2200 Y50.1590 I-0.4770 J-0.8789
G01 X162.3118 Y50.7519
G03 X162.1156 Y50.7918 I-0.2965 J-0.9551
G01 X160.1003 Y50.9949
G01 X160.0335 Y50.9994
G01 X133.0062 Y50.9995
G00 Z0.0000
G01 X129.5062 Y50.9996
G00 Z-1.5000
G01 Z-3.0000 F300
G01 X92.0038 Y50.9997 F2000
G00 Z0.0000
G01 X88.5038
G00 Z-1.5000
G01 Z-3.0000 F300
G01 X51.0012 Y50.9999 F2000
G00 Z0.0000
G01 X47.5013
G00 Z-1.5000
G01 Z-3.0000 F300
G01 X28.7500 Y51.0000 F2000
G01 X10.0000
G00 Z0.0000
G01 X9.9331 Y50.9977
G01 X7.8844 Y50.7918
G03 X7.6882 Y50.7519 I0.1003 J-0.9950
G01 X6.5663 Y50.4036
G00 Z-1.5000
G01 Z-3.0000 F300
G01 X5.8111 Y50.1692 F2000
G03 X5.6305 Y50.0930 I0.2965 J-0.9550
G01 X3.9319 Y49.1710
G03 X3.7725 Y49.0635 I0.4770 J-0.8789
G01 X2.2925 Y47.8424
G03 X2.1576 Y47.7075 I0.6364 J-0.7713
G01 X0.9365 Y46.2275
G03 X0.8290 Y46.0681 I0.7714 J-0.6364
G01 X-0.0930 Y44.3695
G03 X-0.1692 Y44.1889 I0.8789 J-0.4770
G01 X-0.7519 Y42.3118
G03 X-0.7879 Y42.1488 I0.9550 J-0.2965
G01 X-0.9950 Y40.1003
G03 Y39.8997 I0.9950 J-0.1003
G01 X-0.7918 Y37.8844
G03 X-0.7519 Y37.6882 I0.9950 J0.1003
G01 X-0.1692 Y35.8111
G03 X-0.1082 Y35.6595 I0.9550 J0.2965
G01 X0.8290 Y33.9319
G03 X0.9165 Y33.7976 I0.8789 J0.4770
G01 X2.1576 Y32.2925
G03 X2.2925 Y32.1576 I0.7713 J0.6364
G01 X3.7725 Y30.9365
G03 X3.9319 Y30.8290 I0.6364 J0.7713
G01 X5.6305 Y29.9070
G03 X5.8111 Y29.8308 I0.4770 J0.8789
G01 X7.6882 Y29.2481
G03 X7.8844 Y29.2082 I0.2965 J0.9550
G01 X9.8997 Y29.0051
G01 X9.9665 Y29.0006
G01 X16.4925 Y29.0005
G00 Z0.0000
G01 X19.9925
G00 Z5.0000

(Nr. 5 Ausschnitt 1)
G00 X25.9160 Y63.5000
G00 Z0.5000
G01 Z-1.0000 F300
G01 X10.0503 F2000
G01 X8.6889 Y63.6372
G01 X7.4712 Y64.0152
G01 X6.3686 Y64.6137
G01 X5.4071 Y65.4070
G01 X4.6137 Y66.3686
G01 X4.0153 Y67.4712
G01 X3.6373 Y68.6889
G01 X3.5051 Y70.0000
G01 X3.6373 Y71.3111
G01 X4.0153 Y72.5288
G01 X4.6137 Y73.6314
G01 X5.4071 Y74.5930
G01 X6.3686 Y75.3863
G01 X7.4712 Y75.9847
G01 X8.1037 Y76.1811
G00 Z0.0000
G01 X8.6889 Y76.3627
G01 X10.0503 Y76.5000
G01 X11.5693
G01 Z-1.0000 F300
G01 X28.7500 F2000
G01 X45.9307
G00 Z0.0000
G01 X49.4307
G01 Z-1.0000 F300
G01 X83.7920 F2000
G00 Z0.0000
G01 X87.2920
G01 Z-1.0000 F300
G01 X121.6534 F2000
G00 Z0.0000
G01 X125.1534
G01 Z-1.0000 F300
G01 X159.5147 F2000
G00 Z0.0000
G01 X159.9497
G01 X161.3111 Y76.3627
G01 X162.5288 Y75.9847
G01 X162.8994 Y75.7836
G01 Z-1.0000 F300
G01 X163.6314 Y75.3863 F2000
G01 X164.5930 Y74.5930
G01 X165.3863 Y73.6314
G01 X165.9848 Y72.5288
G01 X166.3628 Y71.3111
G01 X166.4949 Y70.0000
G01 X166.3628 Y68.6889
G01 X165.9848 Y67.4712
G01 X165.3863 Y66.3686
G01 X164.5930 Y65.4070
G01 X163.6314 Y64.6137
G01 X162.5288 Y64.0152
G01 X161.3111 Y63.6372
G01 X159.9497 Y63.5000
G01 X143.0000
G00 Z0.0000
G01 X139.5000
G01 Z-1.0000 F300
G01 X105.1387 F2000
G00 Z0.0000
G01 X101.6386
G01 Z-1.0000 F300
G01 X67.2773 F2000
G00 Z0.0000
G01 X63.7773
G01 Z-1.0000 F300
G01 X29.4160 F2000
G00 Z0.0000
G01 X25.9160
G00 Z-0.5000
G01 Z-2.0000 F300
G01 X10.0503 F2000
G01 X8.6889 Y63.6372
G01 X7.4712 Y64.0152
G01 X6.3686 Y64.6137
G01 X5.4071 Y65.4070
G01 X4.6137 Y66.3686
G01 X4.0153 Y67.4712
G01 X3.6373 Y68.6889
G01 X3.5051 Y70.0000
G01 X3.6373 Y71.3111
G01 X4.0153 Y72.5288
G01 X4.6137 Y73.6314
G01 X5.4071 Y74.5930
G01 X6.3686 Y75.3863
G01 X7.4712 Y75.9847
G01 X8.1037 Y76.1811
G00 Z0.0000
G01 X8.6889 Y76.3627
G01 X10.0503 Y76.5000
G01 X11.5693
G00 Z-0.5000
G01 Z-2.0000 F300
G01 X28.7500 F2000
G01 X45.9307
G00 Z0.0000
G01 X49.4307
G00 Z-0.5000
G01 Z-2.0000 F300
G01 X83.7920 F2000
G00 Z0.0000
G01 X87.2920
G00 Z-0.5000
G01 Z-2.0000 F300
G01 X121.6534 F2000
G00 Z0.0000
G01 X125.1534
G00 Z-0.5000
G01 Z-2.0000 F300
G01 X159.5147 F2000
G00 Z0.0000
G01 X159.9497
G01 X161.3111 Y76.3627
G01 X162.5288 Y75.9847
G01 X162.8994 Y75.7836
G00 Z-0.5000
G01 Z-2.0000 F300
G01 X163.6314 Y75.3863 F2000
G01 X164.5930 Y74.5930
G01 X165.3863 Y73.6314
G01 X165.9848 Y72.5288
G01 X166.3628 Y71.3111
G01 X166.4949 Y70.0000
G01 X166.3628 Y68.6889
G01 X165.9848 Y67.4712
G01 X165.3863 Y66.3686
G01 X164.5930 Y65.4070
G01 X163.6314 Y64.6137
G01 X162.5288 Y64.0152
G01 X161.3111 Y63.6372
G01 X159.9497 Y63.5000
G01 X143.0000
G00 Z0.0000
G01 X139.5000
G00 Z-0.5000
G01 Z-2.0000 F300
G01 X105.1387 F2000
G00 Z0.0000
G01 X101.6386
G00 Z-0.5000
G01 Z-2.0000 F300
G01 X67.2773 F2000
G00 Z0.0000
G01 X63.7773
G00 Z-0.5000
G01 Z-2.0000 F300
G01 X29.4160 F2000
G00 Z0.0000
G01 X25.9160
G00 Z-1.5000
G01 Z-3.0000 F300
G01 X10.0503 F2000
G01 X8.6889 Y63.6372
G01 X7.4712 Y64.0152
G01 X6.3686 Y64.6137
G01 X5.4071 Y65.4070
G01 X4.6137 Y66.3686
G01 X4.0153 Y67.4712
G01 X3.6373 Y68.6889
G01 X3.5051 Y70.0000
G01 X3.6373 Y71.3111
G01 X4.0153 Y72.5288
G01 X4.6137 Y73.6314
G01 X5.4071 Y74.5930
G01 X6.3686 Y75.3863
G01 X7.4712 Y75.9847
G01 X8.1037 Y76.1811
G00 Z0.0000
G01 X8.6889 Y76.3627
G01 X10.0503 Y76.5000
G01 X11.5693
G00 Z-1.5000
G01 Z-3.0000 F300
G01 X28.7500 F2000
G01 X45.9307
G00 Z0.0000
G01 X49.4307
G00 Z-1.5000
G01 Z-3.0000 F300
G01 X83.7920 F2000
G00 Z0.0000
G01 X87.2920
G00 Z-1.5000
G01 Z-3.0000 F300
G01 X121.6534 F2000
G00 Z0.0000
G01 X125.1534
G00 Z-1.5000
G01 Z-3.0000 F300
G01 X159.5147 F2000
G00 Z0.0000
G01 X159.9497
G01 X161.3111 Y76.3627
G01 X162.5288 Y75.9847
G01 X162.8994 Y75.7836
G00 Z-1.5000
G01 Z-3.0000 F300
G01 X163.6314 Y75.3863 F2000
G01 X164.5930 Y74.5930
G01 X165.3863 Y73.6314
G01 X165.9848 Y72.5288
G01 X166.3628 Y71.3111
G01 X166.4949 Y70.0000
G01 X166.3628 Y68.6889
G01 X165.9848 Y67.4712
G01 X165.3863 Y66.3686
G01 X164.5930 Y65.4070
G01 X163.6314 Y64.6137
G01 X162.5288 Y64.0152
G01 X161.3111 Y63.6372
G01 X159.9497 Y63.5000
G01 X143.0000
G00 Z0.0000
G01 X139.5000
G00 Z-1.5000
G01 Z-3.0000 F300
G01 X105.1387 F2000
G00 Z0.0000
G01 X101.6386
G00 Z-1.5000
G01 Z-3.0000 F300
G01 X67.2773 F2000
G00 Z0.0000
G01 X63.7773
G00 Z-1.5000
G01 Z-3.0000 F300
G01 X29.4160 F2000
G00 Z0.0000
G01 X25.9160
G00 Z5.0000

(Nr. 6 Teil 3)
G00 X19.9925 Y59.0005
G00 Z0.5000
G01 Z-1.0000 F300
G01 X57.4950 Y59.0004 F2000
G00 Z0.0000
G01 X60.9950
G01 Z-1.0000 F300
G01 X98.4975 Y59.0002 F2000
G00 Z0.0000
G01 X101.9975
G01 Z-1.0000 F300
G01 X139.5000 Y59.0001 F2000
G00 Z0.0000
G01 X143.0000
G01 Z-1.0000 F300
G01 X160.0000 Y59.0000 F2000
G01 X160.0669 Y59.0022
G01 X162.1156 Y59.2082
G03 X162.3118 Y59.2481 I-0.1003 J0.9950
G01 X164.1889 Y59.8308
G03 X164.3405 Y59.8918 I-0.2965 J0.9550
G01 X166.0681 Y60.8290
G03 X166.2275 Y60.9365 I-0.4770 J0.8789
G01 X167.7075 Y62.1576
G03 X167.8175 Y62.2635 I-0.6364 J0.7713
G01 X169.0635 Y63.7725
G03 X169.1553 Y63.9039 I-0.7713 J0.6364
G01 X170.0930 Y65.6305
G03 X170.1590 Y65.7800 I-0.8789 J0.4770
G01 X170.7519 Y67.6882
G03 X170.7879 Y67.8512 I-0.9550 J0.2965
G01 X170.9950 Y69.8997
G03 X170.9978 Y70.0669 I-0.9950 J0.1003
G01 X170.7918 Y72.1156
G03 X170.7519 Y72.3118 I-0.9950 J-0.1003
G01 X170.4790 Y73.1908
G00 Z0.0000
G01 X170.1692 Y74.1889
G03 X170.0930 Y74.3695 I-0.9550 J-0.2965
G01 X169.1711 Y76.0681
G03 X169.0835 Y76.2024 I-0.8789 J-0.4770
G01 X168.9783 Y76.3300
G01 Z-1.0000 F300
G01 X167.8424 Y77.7075 F2000
G03 X167.7075 Y77.8424 I-0.7713 J-0.6364
G01 X166.2275 Y79.0635
G03 X166.0681 Y79.1710 I-0.6364 J-0.7713
G01 X164.3695 Y80.0930
G03 X164.1889 Y80.1692 I-0.4770 J-0.8789
G01 X162.3118 Y80.7519
G03 X162.1156 Y80.7918 I-0.2965 J-0.9551
G01 X160.1003 Y80.9949
G01 X160.0335 Y80.9994
G01 X133.0062 Y80.9995
G00 Z0.0000
G01 X129.5062 Y80.9996
G01 Z-1.0000 F300
G01 X92.0038 Y80.9997 F2000
G00 Z0.0000
G01 X88.5038
G01 Z-1.0000 F300
G01 X51.0013 Y80.9999 F2000
G00 Z0.0000
G01 X47.5013
G01 Z-1.0000 F300
G01 X28.7500 Y81.0000 F2000
G01 X10.0000
G00 Z0.0000
G01 X9.9331 Y80.9977
G01 X7.8844 Y80.7918
G03 X7.6882 Y80.7519 I0.1003 J-0.9949
G01 X6.5663 Y80.4036
G01 Z-1.0000 F300
G01 X5.8111 Y80.1692 F2000
G03 X5.6305 Y80.0930 I0.2965 J-0.9550
G01 X3.9319 Y79.1710
G03 X3.7725 Y79.0635 I0.4770 J-0.8789
G01 X2.2925 Y77.8424
G03 X2.1576 Y77.7075 I0.6364 J-0.7713
G01 X0.9365 Y76.2275
G03 X0.8447 Y76.0961 I0.7714 J-0.6364
G01 X-0.0930 Y74.3695
G03 X-0.1692 Y74.1889 I0.8789 J-0.4770
G01 X-0.7519 Y72.3118
G03 X-0.7918 Y72.1156 I0.9550 J-0.2965
G01 X-0.9950 Y70.1003
G03 Y69.8997 I0.9950 J-0.1003
G01 X-0.7918 Y67.8844
G03 X-0.7613 Y67.7203 I0.9950 J0.1003
G01 X-0.1692 Y65.8111
G03 X-0.1082 Y65.6595 I0.9551 J0.2965
G01 X0.8290 Y63.9319
G03 X0.9165 Y63.7976 I0.8789 J0.4771
G01 X2.1576 Y62.2925
G03 X2.2925 Y62.1576 I0.7713 J0.6364
G01 X3.7725 Y60.9365
G03 X3.9319 Y60.8290 I0.6364 J0.7713
G01 X5.6305 Y59.9070
G03 X5.8111 Y59.8308 I0.4770 J0.8789
G01 X7.6882 Y59.2481
G03 X7.8844 Y59.2082 I0.2965 J0.9550
G01 X9.8997 Y59.0050
G01 X9.9665 Y59.0006
G01 X16.4925 Y59.0005
G00 Z0.0000
G01 X19.9925
G00 Z-0.5000
G01 Z-2.0000 F300
G01 X57.4950 Y59.0004 F2000
G00 Z0.0000
G01 X60.9950
G00 Z-0.5000
G01 Z-2.0000 F300
G01 X98.4975 Y59.0002 F2000
G00 Z0.0000
G01 X101.9975
G00 Z-0.5000
G01 Z-2.0000 F300
G01 X139.5000 Y59.0001 F2000
G00 Z0.0000
G01 X143.0000
G00 Z-0.5000
G01 Z-2.0000 F300
G01 X160.0000 Y59.0000 F2000
G01 X160.0669 Y59.0022
G01 X162.1156 Y59.2082
G03 X162.3118 Y59.2481 I-0.1003 J0.9950
G01 X164.1889 Y59.8308
G03 X164.3405 Y59.8918 I-0.2965 J0.9550
G01 X166.0681 Y60.8290
G03 X166.2275 Y60.9365 I-0.4770 J0.8789
G01 X167.7075 Y62.1576
G03 X167.8175 Y62.2635 I-0.6364 J0.7713
G01 X169.0635 Y63.7725
G03 X169.1553 Y63.9039 I-0.7713 J0.6364
G01 X170.0930 Y65.6305
G03 X170.1590 Y65.7800 I-0.8789 J0.4770
G01 X170.7519 Y67.6882
G03 X170.7879 Y67.8512 I-0.9550 J0.2965
G01 X170.9950 Y69.8997
G03 X170.9978 Y70.0669 I-0.9950 J0.1003
G01 X170.7918 Y72.1156
G03 X170.7519 Y72.3118 I-0.9950 J-0.1003
G01 X170.4790 Y73.1908
G00 Z0.0000
G01 X170.1692 Y74.1889
G03 X170.0930 Y74.3695 I-0.9550 J-0.2965
G01 X169.1711 Y76.0681
G03 X169.0835 Y76.2024 I-0.8789 J-0.4770
G01 X168.9783 Y76.3300
G00 Z-0.5000
G01 Z-2.0000 F300
G01 X167.8424 Y77.7075 F2000
G03 X167.7075 Y77.8424 I-0.7713 J-0.6364
G01 X166.2275 Y79.0635
G03 X166.0681 Y79.1710 I-0.6364 J-0.7713
G01 X164.3695 Y80.0930
G03 X164.1889 Y80.1692 I-0.4770 J-0.8789
G01 X162.3118 Y80.7519
G03 X162.1156 Y80.7918 I-0.2965 J-0.9551
G01 X160.1003 Y80.9949
G01 X160.0335 Y80.9994
G01 X133.0062 Y80.9995
G00 Z0.0000
G01 X129.5062 Y80.9996
G00 Z-0.5000
G01 Z-2.0000 F300
G01 X92.0038 Y80.9997 F2000
G00 Z0.0000
G01 X88.5038
G00 Z-0.5000
G01 Z-2.0000 F300
G01 X51.0013 Y80.9999 F2000
G00 Z0.0000
G01 X47.5013
G00 Z-0.5000
G01 Z-2.0000 F300
G01 X28.7500 Y81.0000 F2000
G01 X10.0000
G00 Z0.0000
G01 X9.9331 Y80.9977
G01 X7.8844 Y80.7918
G03 X7.6882 Y80.7519 I0.1003 J-0.9949
G01 X6.5663 Y80.4036
G00 Z-0.5000
G01 Z-2.0000 F300
G01 X5.8111 Y80.1692 F2000
G03 X5.6305 Y80.0930 I0.2965 J-0.9550
G01 X3.9319 Y79.1710
G03 X3.7725 Y79.0635 I0.4770 J-0.8789
G01 X2.2925 Y77.8424
G03 X2.1576 Y77.7075 I0.6364 J-0.7713
G01 X0.9365 Y76.2275
G03 X0.8447 Y76.0961 I0.7714 J-0.6364
G01 X-0.0930 Y74.3695
G03 X-0.1692 Y74.1889 I0.8789 J-0.4770
G01 X-0.7519 Y72.3118
G03 X-0.7918 Y72.1156 I0.9550 J-0.2965
G01 X-0.9950 Y70.1003
G03 Y69.8997 I0.9950 J-0.1003
G01 X-0.7918 Y67.8844
G03 X-0.7613 Y67.7203 I0.9950 J0.1003
G01 X-0.1692 Y65.8111
G03 X-0.1082 Y65.6595 I0.9551 J0.2965
G01 X0.8290 Y63.9319
G03 X0.9165 Y63.7976 I0.8789 J0.4771
G01 X2.1576 Y62.2925
G03 X2.2925 Y62.1576 I0.7713 J0.6364
G01 X3.7725 Y60.9365
G03 X3.9319 Y60.8290 I0.6364 J0.7713
G01 X5.6305 Y59.9070
G03 X5.8111 Y59.8308 I0.4770 J0.8789
G01 X7.6882 Y59.2481
G03 X7.8844 Y59.2082 I0.2965 J0.9550
G01 X9.8997 Y59.0050
G01 X9.9665 Y59.0006
G01 X16.4925 Y59.0005
G00 Z0.0000
G01 X19.9925
G00 Z-1.5000
G01 Z-3.0000 F300
G01 X57.4950 Y59.0004 F2000
G00 Z0.0000
G01 X60.9950
G00 Z-1.5000
G01 Z-3.0000 F300
G01 X98.4975 Y59.0002 F2000
G00 Z0.0000
G01 X101.9975
G00 Z-1.5000
G01 Z-3.0000 F300
G01 X139.5000 Y59.0001 F2000
G00 Z0.0000
G01 X143.0000
G00 Z-1.5000
G01 Z-3.0000 F300
G01 X160.0000 Y59.0000 F2000
G01 X160.0669 Y59.0022
G01 X162.1156 Y59.2082
G03 X162.3118 Y59.2481 I-0.1003 J0.9950
G01 X164.1889 Y59.8308
G03 X164.3405 Y59.8918 I-0.2965 J0.9550
G01 X166.0681 Y60.8290
G03 X166.2275 Y60.9365 I-0.4770 J0.8789
G01 X167.7075 Y62.1576
G03 X167.8175 Y62.2635 I-0.6364 J0.7713
G01 X169.0635 Y63.7725
G03 X169.1553 Y63.9039 I-0.7713 J0.6364
G01 X170.0930 Y65.6305
G03 X170.1590 Y65.7800 I-0.8789 J0.4770
G01 X170.7519 Y67.6882
G03 X170.7879 Y67.8512 I-0.9550 J0.2965
G01 X170.9950 Y69.8997
G03 X170.9978 Y70.0669 I-0.9950 J0.1003
G01 X170.7918 Y72.1156
G03 X170.7519 Y72.3118 I-0.9950 J-0.1003
G01 X170.4790 Y73.1908
G00 Z0.0000
G01 X170.1692 Y74.1889
G03 X170.0930 Y74.3695 I-0.9550 J-0.2965
G01 X169.1711 Y76.0681
G03 X169.0835 Y76.2024 I-0.8789 J-0.4770
G01 X168.9783 Y76.3300
G00 Z-1.5000
G01 Z-3.0000 F300
G01 X167.8424 Y77.7075 F2000
G03 X167.7075 Y77.8424 I-0.7713 J-0.6364
G01 X166.2275 Y79.0635
G03 X166.0681 Y79.1710 I-0.6364 J-0.7713
G01 X164.3695 Y80.0930
G03 X164.1889 Y80.1692 I-0.4770 J-0.8789
G01 X162.3118 Y80.7519
G03 X162.1156 Y80.7918 I-0.2965 J-0.9551
G01 X160.1003 Y80.9949
G01 X160.0335 Y80.9994
G01 X133.0062 Y80.9995
G00 Z0.0000
G01 X129.5062 Y80.9996
G00 Z-1.5000
G01 Z-3.0000 F300
G01 X92.0038 Y80.9997 F2000
G00 Z0.0000
G01 X88.5038
G00 Z-1.5000
G01 Z-3.0000 F300
G01 X51.0013 Y80.9999 F2000
G00 Z0.0000
G01 X47.5013
G00 Z-1.5000
G01 Z-3.0000 F300
G01 X28.7500 Y81.0000 F2000
G01 X10.0000
G00 Z0.0000
G01 X9.9331 Y80.9977
G01 X7.8844 Y80.7918
G03 X7.6882 Y80.7519 I0.1003 J-0.9949
G01 X6.5663 Y80.4036
G00 Z-1.5000
G01 Z-3.0000 F300
G01 X5.8111 Y80.1692 F2000
G03 X5.6305 Y80.0930 I0.2965 J-0.9550
G01 X3.9319 Y79.1710
G03 X3.7725 Y79.0635 I0.4770 J-0.8789
G01 X2.2925 Y77.8424
G03 X2.1576 Y77.7075 I0.6364 J-0.7713
G01 X0.9365 Y76.2275
G03 X0.8447 Y76.0961 I0.7714 J-0.6364
G01 X-0.0930 Y74.3695
G03 X-0.1692 Y74.1889 I0.8789 J-0.4770
G01 X-0.7519 Y72.3118
G03 X-0.7918 Y72.1156 I0.9550 J-0.2965
G01 X-0.9950 Y70.1003
G03 Y69.8997 I0.9950 J-0.1003
G01 X-0.7918 Y67.8844
G03 X-0.7613 Y67.7203 I0.9950 J0.1003
G01 X-0.1692 Y65.8111
G03 X-0.1082 Y65.6595 I0.9551 J0.2965
G01 X0.8290 Y63.9319
G03 X0.9165 Y63.7976 I0.8789 J0.4771
G01 X2.1576 Y62.2925
G03 X2.2925 Y62.1576 I0.7713 J0.6364
G01 X3.7725 Y60.9365
G03 X3.9319 Y60.8290 I0.6364 J0.7713
G01 X5.6305 Y59.9070
G03 X5.8111 Y59.8308 I0.4770 J0.8789
G01 X7.6882 Y59.2481
G03 X7.8844 Y59.2082 I0.2965 J0.9550
G01 X9.8997 Y59.0050
G01 X9.9665 Y59.0006
G01 X16.4925 Y59.0005
G00 Z0.0000
G01 X19.9925
G00 Z5.0000

(Nr. 7 Teil 2)
G00 X9.9665 Y89.0006
G00 Z0.5000
G01 Z-1.0000 F300
G01 X160.0000 Y89.0000 F2000
G01 X160.0669 Y89.0022
G01 X162.1156 Y89.2082
G03 X162.3118 Y89.2481 I-0.1003 J0.9950
G01 X164.1889 Y89.8308
G03 X164.3695 Y89.9070 I-0.2965 J0.9550
G01 X166.0681 Y90.8290
G03 X166.2024 Y90.9165 I-0.4770 J0.8789
G01 X167.7075 Y92.1576
G03 X167.8424 Y92.2925 I-0.6364 J0.7713
G01 X169.0635 Y93.7725
G03 X169.1553 Y93.9039 I-0.7713 J0.6364
G01 X170.0930 Y95.6305
G03 X170.1692 Y95.8111 I-0.8789 J0.4770
G01 X170.7519 Y97.6882
G03 X170.7918 Y97.8843 I-0.9550 J0.2965
G01 X170.9950 Y99.8997
G03 X170.9978 Y100.0669 I-0.9949 J0.1003
G01 X170.7918 Y102.1156
G03 X170.7519 Y102.3118 I-0.9950 J-0.1003
G01 X170.1692 Y104.1889
G03 X170.0930 Y104.3695 I-0.9550 J-0.2965
G01 X169.1711 Y106.0681
G03 X169.0835 Y106.2024 I-0.8789 J-0.4770
G01 X167.8424 Y107.7075
G03 X167.7075 Y107.8424 I-0.7713 J-0.6364
G01 X166.2275 Y109.0635
G03 X166.0961 Y109.1553 I-0.6364 J-0.7714
G01 X164.3695 Y110.0930
G03 X164.1889 Y110.1692 I-0.4770 J-0.8789
G01 X162.3118 Y110.7519
G03 X162.1488 Y110.7879 I-0.2965 J-0.9551
G01 X160.1003 Y110.9949
G01 X160.0335 Y110.9994
G01 X28.7500 Y111.0000
G01 X10.0000
G01 X9.9331 Y110.9977
G01 X7.8844 Y110.7918
G03 X7.6882 Y110.7519 I0.1003 J-0.9950
G01 X5.8111 Y110.1692
G03 X5.6305 Y110.0930 I0.2965 J-0.9550
G01 X3.9319 Y109.1710
G03 X3.7976 Y109.0835 I0.4770 J-0.8789
G01 X2.2925 Y107.8424
G03 X2.1825 Y107.7365 I0.6364 J-0.7713
G01 X0.9365 Y106.2275
G03 X0.8290 Y106.0681 I0.7713 J-0.6364
G01 X-0.0930 Y104.3695
G03 X-0.1692 Y104.1889 I0.8789 J-0.4770
G01 X-0.7519 Y102.3118
G03 X-0.7918 Y102.1156 I0.9550 J-0.2965
G01 X-0.9950 Y100.1003
G03 Y99.8997 I0.9950 J-0.1003
G01 X-0.7918 Y97.8843
G03 X-0.7519 Y97.6882 I0.9950 J0.1003
G01 X-0.1692 Y95.8111
G03 X-0.0930 Y95.6305 I0.9550 J0.2965
G01 X0.8290 Y93.9319
G03 X0.9365 Y93.7725 I0.8789 J0.4771
G01 X2.1576 Y92.2925
G03 X2.2925 Y92.1576 I0.7713 J0.6364
G01 X3.7725 Y90.9365
G03 X3.9039 Y90.8447 I0.6364 J0.7713
G01 X5.6305 Y89.9070
G03 X5.8111 Y89.8308 I0.4770 J0.8789
G01 X7.6882 Y89.2481
G03 X7.8844 Y89.2082 I0.2965 J0.9550
G01 X9.8997 Y89.0050
G01 X9.9665 Y89.0006
G01 Z-2.0000 F300
G01 X160.0000 Y89.0000 F2000
G01 X160.0669 Y89.0022
G01 X162.1156 Y89.2082
G03 X162.3118 Y89.2481 I-0.1003 J0.9950
G01 X164.1889 Y89.8308
G03 X164.3695 Y89.9070 I-0.2965 J0.9550
G01 X166.0681 Y90.8290
G03 X166.2024 Y90.9165 I-0.4770 J0.8789
G01 X167.7075 Y92.1576
G03 X167.8424 Y92.2925 I-0.6364 J0.7713
G01 X169.0635 Y93.7725
G03 X169.1553 Y93.9039 I-0.7713 J0.6364
G01 X170.0930 Y95.6305
G03 X170.1692 Y95.8111 I-0.8789 J0.4770
G01 X170.7519 Y97.6882
G03 X170.7918 Y97.8843 I-0.9550 J0.2965
G01 X170.9950 Y99.8997
G03 X170.9978 Y100.0669 I-0.9949 J0.1003
G01 X170.7918 Y102.1156
G03 X170.7519 Y102.3118 I-0.9950 J-0.1003
G01 X170.1692 Y104.1889
G03 X170.0930 Y104.3695 I-0.9550 J-0.2965
G01 X169.1711 Y106.0681
G03 X169.0835 Y106.2024 I-0.8789 J-0.4770
G01 X167.8424 Y107.7075
G03 X167.7075 Y107.8424 I-0.7713 J-0.6364
G01 X166.2275 Y109.0635
G03 X166.0961 Y109.1553 I-0.6364 J-0.7714
G01 X164.3695 Y110.0930
G03 X164.1889 Y110.1692 I-0.4770 J-0.8789
G01 X162.3118 Y110.7519
G03 X162.1488 Y110.7879 I-0.2965 J-0.9551
G01 X160.1003 Y110.9949
G01 X160.0335 Y110.9994
G01 X28.7500 Y111.0000
G01 X10.0000
G01 X9.9331 Y110.9977
G01 X7.8844 Y110.7918
G03 X7.6882 Y110.7519 I0.1003 J-0.9950
G01 X5.8111 Y110.1692
G03 X5.6305 Y110.0930 I0.2965 J-0.9550
G01 X3.9319 Y109.1710
G03 X3.7976 Y109.0835 I0.4770 J-0.8789
G01 X2.2925 Y107.8424
G03 X2.1825 Y107.7365 I0.6364 J-0.7713
G01 X0.9365 Y106.2275
G03 X0.8290 Y106.0681 I0.7713 J-0.6364
G01 X-0.0930 Y104.3695
G03 X-0.1692 Y104.1889 I0.8789 J-0.4770
G01 X-0.7519 Y102.3118
G03 X-0.7918 Y102.1156 I0.9550 J-0.2965
G01 X-0.9950 Y100.1003
G03 Y99.8997 I0.9950 J-0.1003
G01 X-0.7918 Y97.8843
G03 X-0.7519 Y97.6882 I0.9950 J0.1003
G01 X-0.1692 Y95.8111
G03 X-0.0930 Y95.6305 I0.9550 J0.2965
G01 X0.8290 Y93.9319
G03 X0.9365 Y93.7725 I0.8789 J0.4771
G01 X2.1576 Y92.2925
G03 X2.2925 Y92.1576 I0.7713 J0.6364
G01 X3.7725 Y90.9365
G03 X3.9039 Y90.8447 I0.6364 J0.7713
G01 X5.6305 Y89.9070
G03 X5.8111 Y89.8308 I0.4770 J0.8789
G01 X7.6882 Y89.2481
G03 X7.8844 Y89.2082 I0.2965 J0.9550
G01 X9.8997 Y89.0050
G01 X9.9665 Y89.0006
G01 Z-3.0000 F300
G01 X160.0000 Y89.0000 F2000
G01 X160.0669 Y89.0022
G01 X162.1156 Y89.2082
G03 X162.3118 Y89.2481 I-0.1003 J0.9950
G01 X164.1889 Y89.8308
G03 X164.3695 Y89.9070 I-0.2965 J0.9550
G01 X166.0681 Y90.8290
G03 X166.2024 Y90.9165 I-0.4770 J0.8789
G01 X167.7075 Y92.1576
G03 X167.8424 Y92.2925 I-0.6364 J0.7713
G01 X169.0635 Y93.7725
G03 X169.1553 Y93.9039 I-0.7713 J0.6364
G01 X170.0930 Y95.6305
G03 X170.1692 Y95.8111 I-0.8789 J0.4770
G01 X170.7519 Y97.6882
G03 X170.7918 Y97.8843 I-0.9550 J0.2965
G01 X170.9950 Y99.8997
G03 X170.9978 Y100.0669 I-0.9949 J0.1003
G01 X170.7918 Y102.1156
G03 X170.7519 Y102.3118 I-0.9950 J-0.1003
G01 X170.1692 Y104.1889
G03 X170.0930 Y104.3695 I-0.9550 J-0.2965
G01 X169.1711 Y106.0681
G03 X169.0835 Y106.2024 I-0.8789 J-0.4770
G01 X167.8424 Y107.7075
G03 X167.7075 Y107.8424 I-0.7713 J-0.6364
G01 X166.2275 Y109.0635
G03 X166.0961 Y109.1553 I-0.6364 J-0.7714
G01 X164.3695 Y110.0930
G03 X164.1889 Y110.1692 I-0.4770 J-0.8789
G01 X162.3118 Y110.7519
G03 X162.1488 Y110.7879 I-0.2965 J-0.9551
G01 X160.1003 Y110.9949
G01 X160.0335 Y110.9994
G01 X28.7500 Y111.0000
G01 X10.0000
G01 X9.9331 Y110.9977
G01 X7.8844 Y110.7918
G03 X7.6882 Y110.7519 I0.1003 J-0.9950
G01 X5.8111 Y110.1692
G03 X5.6305 Y110.0930 I0.2965 J-0.9550
G01 X3.9319 Y109.1710
G03 X3.7976 Y109.0835 I0.4770 J-0.8789
G01 X2.2925 Y107.8424
G03 X2.1825 Y107.7365 I0.6364 J-0.7713
G01 X0.9365 Y106.2275
G03 X0.8290 Y106.0681 I0.7713 J-0.6364
G01 X-0.0930 Y104.3695
G03 X-0.1692 Y104.1889 I0.8789 J-0.4770
G01 X-0.7519 Y102.3118
G03 X-0.7918 Y102.1156 I0.9550 J-0.2965
G01 X-0.9950 Y100.1003
G03 Y99.8997 I0.9950 J-0.1003
G01 X-0.7918 Y97.8843
G03 X-0.7519 Y97.6882 I0.9950 J0.1003
G01 X-0.1692 Y95.8111
G03 X-0.0930 Y95.6305 I0.9550 J0.2965
G01 X0.8290 Y93.9319
G03 X0.9365 Y93.7725 I0.8789 J0.4771
G01 X2.1576 Y92.2925
G03 X2.2925 Y92.1576 I0.7713 J0.6364
G01 X3.7725 Y90.9365
G03 X3.9039 Y90.8447 I0.6364 J0.7713
G01 X5.6305 Y89.9070
G03 X5.8111 Y89.8308 I0.4770 J0.8789
G01 X7.6882 Y89.2481
G03 X7.8844 Y89.2082 I0.2965 J0.9550
G01 X9.8997 Y89.0050
G01 X9.9665 Y89.0006
G00 Z5.0000

(Nr. 8 Bohrung 1)
G00 X10.0000 Y130.0000
G00 Z0.5000
G01 Z-1.0000 F300
G00 Z0.5000
G00 Z-0.5000
G01 Z-2.0000
G00 Z0.5000
G00 Z-1.5000
G01 Z-3.0000
G00 Z0.5000
G00 Z5.0000

(Nr. 9 Bohrung 2)
G00 X40.0000
G00 Z0.5000
G01 Z-1.0000
G00 Z0.5000
G00 Z-0.5000
G01 Z-2.0000
G00 Z0.5000
G00 Z-1.5000
G01 Z-3.0000
G00 Z0.5000
G00 Z5.0000

(Nr. 10 Bohrung 3)
G00 X70.0000
G00 Z0.5000
G01 Z-1.0000
G00 Z0.5000
G00 Z-0.5000
G01 Z-2.0000
G00 Z0.5000
G00 Z-1.5000
G01 Z-3.0000
G00 Z0.5000
G00 Z5.0000

(Nr. 11 Bohrung 4)
G00 X100.0000
G00 Z0.5000
G01 Z-1.0000
G00 Z0.5000
G00 Z-0.5000
G01 Z-2.0000
G00 Z0.5000
G00 Z-1.5000
G01 Z-3.0000
G00 Z0.5000
G00 Z5.0000

(Nr. 12 Bohrung 6)
G00 X130.0000
G00 Z0.5000
G01 Z-1.0000
G00 Z0.5000
G00 Z-0.5000
G01 Z-2.0000
G00 Z0.5000
G00 Z-1.5000
G01 Z-3.0000
G00 Z0.5000
G00 Z5.0000

(Nr. 13 Bohrung 7)
G00 X160.0000
G00 Z0.5000
G01 Z-1.0000
G00 Z0.5000
G00 Z-0.5000
G01 Z-2.0000
G00 Z0.5000
G00 Z-1.5000
G01 Z-3.0000
G00 Z0.5000
G00 Z5.0000

(Nr. 14 Teil 1)
G00 X170.9950 Y129.8997
G00 Z0.5000
G01 Z-1.0000
G03 Y130.1003 I-0.9949 J0.1003 F2000
G01 X170.7918 Y132.1156
G03 X170.7613 Y132.2797 I-0.9950 J-0.1003
G01 X170.1692 Y134.1889
G03 X170.0930 Y134.3695 I-0.9550 J-0.2965
G01 X169.1711 Y136.0681
G03 X169.0835 Y136.2024 I-0.8789 J-0.4770
G01 X167.8424 Y137.7075
G03 X167.7075 Y137.8424 I-0.7713 J-0.6364
G01 X166.2275 Y139.0635
G03 X166.0961 Y139.1553 I-0.6364 J-0.7713
G01 X164.3695 Y140.0930
G03 X164.1889 Y140.1692 I-0.4771 J-0.8789
G01 X162.3118 Y140.7519
G03 X162.1156 Y140.7918 I-0.2965 J-0.9550
G01 X160.1003 Y140.9949
G01 X160.0000 Y141.0000
G01 X28.7500
G01 X10.0000
G01 X9.9331 Y140.9977
G01 X7.8844 Y140.7918
G03 X7.6882 Y140.7519 I0.1003 J-0.9949
G01 X5.8111 Y140.1692
G03 X5.6305 Y140.0930 I0.2965 J-0.9550
G01 X3.9319 Y139.1710
G03 X3.7725 Y139.0635 I0.4770 J-0.8789
G01 X2.2925 Y137.8424
G03 X2.1825 Y137.7365 I0.6364 J-0.7713
G01 X0.9365 Y136.2275
G03 X0.8447 Y136.0961 I0.7713 J-0.6364
G01 X-0.0930 Y134.3695
G03 X-0.1692 Y134.1889 I0.8789 J-0.4770
G01 X-0.7519 Y132.3118
G03 X-0.7879 Y132.1488 I0.9550 J-0.2965
G01 X-0.9950 Y130.1003
G03 Y129.8997 I0.9950 J-0.1003
G01 X-0.7918 Y127.8843
G03 X-0.7613 Y127.7203 I0.9950 J0.1003
G01 X-0.1692 Y125.8111
G03 X-0.1082 Y125.6595 I0.9551 J0.2965
G01 X0.8290 Y123.9319
G03 X0.9165 Y123.7976 I0.8789 J0.4771
G01 X2.1576 Y122.2925
G03 X2.2925 Y122.1576 I0.7713 J0.6364
G01 X3.7725 Y120.9365
G03 X3.9039 Y120.8447 I0.6364 J0.7714
G01 X5.6305 Y119.9070
G03 X5.7800 Y119.8410 I0.4770 J0.8789
G01 X7.6882 Y119.2481
G03 X7.8844 Y119.2082 I0.2965 J0.9550
G01 X9.8997 Y119.0050
G01 X9.9665 Y119.0006
G01 X160.0000 Y119.0000
G01 X160.0669 Y119.0022
G01 X162.1156 Y119.2082
G03 X162.3118 Y119.2481 I-0.1003 J0.9950
G01 X164.1889 Y119.8308
G03 X164.3695 Y119.9070 I-0.2965 J0.9550
G01 X166.0681 Y120.8290
G03 X166.2024 Y120.9165 I-0.4771 J0.8789
G01 X167.7075 Y122.1576
G03 X167.8424 Y122.2925 I-0.6364 J0.7713
G01 X169.0635 Y123.7725
G03 X169.1553 Y123.9039 I-0.7713 J0.6364
G01 X170.0930 Y125.6305
G03 X170.1590 Y125.7800 I-0.8789 J0.4770
G01 X170.7519 Y127.6882
G03 X170.7918 Y127.8844 I-0.9550 J0.2965
G01 X170.9950 Y129.8997
G01 Z-2.0000 F300
G03 Y130.1003 I-0.9949 J0.1003 F2000
G01 X170.7918 Y132.1156
G03 X170.7613 Y132.2797 I-0.9950 J-0.1003
G01 X170.1692 Y134.1889
G03 X170.0930 Y134.3695 I-0.9550 J-0.2965
G01 X169.1711 Y136.0681
G03 X169.0835 Y136.2024 I-0.8789 J-0.4770
G01 X167.8424 Y137.7075
G03 X167.7075 Y137.8424 I-0.7713 J-0.6364
G01 X166.2275 Y139.0635
G03 X166.0961 Y139.1553 I-0.6364 J-0.7713
G01 X164.3695 Y140.0930
G03 X164.1889 Y140.1692 I-0.4771 J-0.8789
G01 X162.3118 Y140.7519
G03 X162.1156 Y140.7918 I-0.2965 J-0.9550
G01 X160.1003 Y140.9949
G01 X160.0000 Y141.0000
G01 X28.7500
G01 X10.0000
G01 X9.9331 Y140.9977
G01 X7.8844 Y140.7918
G03 X7.6882 Y140.7519 I0.1003 J-0.9949
G01 X5.8111 Y140.1692
G03 X5.6305 Y140.0930 I0.2965 J-0.9550
G01 X3.9319 Y139.1710
G03 X3.7725 Y139.0635 I0.4770 J-0.8789
G01 X2.2925 Y137.8424
G03 X2.1825 Y137.7365 I0.6364 J-0.7713
G01 X0.9365 Y136.2275
G03 X0.8447 Y136.0961 I0.7713 J-0.6364
G01 X-0.0930 Y134.3695
G03 X-0.1692 Y134.1889 I0.8789 J-0.4770
G01 X-0.7519 Y132.3118
G03 X-0.7879 Y132.1488 I0.9550 J-0.2965
G01 X-0.9950 Y130.1003
G03 Y129.8997 I0.9950 J-0.1003
G01 X-0.7918 Y127.8843
G03 X-0.7613 Y127.7203 I0.9950 J0.1003
G01 X-0.1692 Y125.8111
G03 X-0.1082 Y125.6595 I0.9551 J0.2965
G01 X0.8290 Y123.9319
G03 X0.9165 Y123.7976 I0.8789 J0.4771
G01 X2.1576 Y122.2925
G03 X2.2925 Y122.1576 I0.7713 J0.6364
G01 X3.7725 Y120.9365
G03 X3.9039 Y120.8447 I0.6364 J0.7714
G01 X5.6305 Y119.9070
G03 X5.7800 Y119.8410 I0.4770 J0.8789
G01 X7.6882 Y119.2481
G03 X7.8844 Y119.2082 I0.2965 J0.9550
G01 X9.8997 Y119.0050
G01 X9.9665 Y119.0006
G01 X160.0000 Y119.0000
G01 X160.0669 Y119.0022
G01 X162.1156 Y119.2082
G03 X162.3118 Y119.2481 I-0.1003 J0.9950
G01 X164.1889 Y119.8308
G03 X164.3695 Y119.9070 I-0.2965 J0.9550
G01 X166.0681 Y120.8290
G03 X166.2024 Y120.9165 I-0.4771 J0.8789
G01 X167.7075 Y122.1576
G03 X167.8424 Y122.2925 I-0.6364 J0.7713
G01 X169.0635 Y123.7725
G03 X169.1553 Y123.9039 I-0.7713 J0.6364
G01 X170.0930 Y125.6305
G03 X170.1590 Y125.7800 I-0.8789 J0.4770
G01 X170.7519 Y127.6882
G03 X170.7918 Y127.8844 I-0.9550 J0.2965
G01 X170.9950 Y129.8997
G01 Z-3.0000 F300
G03 Y130.1003 I-0.9949 J0.1003 F2000
G01 X170.7918 Y132.1156
G03 X170.7613 Y132.2797 I-0.9950 J-0.1003
G01 X170.1692 Y134.1889
G03 X170.0930 Y134.3695 I-0.9550 J-0.2965
G01 X169.1711 Y136.0681
G03 X169.0835 Y136.2024 I-0.8789 J-0.4770
G01 X167.8424 Y137.7075
G03 X167.7075 Y137.8424 I-0.7713 J-0.6364
G01 X166.2275 Y139.0635
G03 X166.0961 Y139.1553 I-0.6364 J-0.7713
G01 X164.3695 Y140.0930
G03 X164.1889 Y140.1692 I-0.4771 J-0.8789
G01 X162.3118 Y140.7519
G03 X162.1156 Y140.7918 I-0.2965 J-0.9550
G01 X160.1003 Y140.9949
G01 X160.0000 Y141.0000
G01 X28.7500
G01 X10.0000
G01 X9.9331 Y140.9977
G01 X7.8844 Y140.7918
G03 X7.6882 Y140.7519 I0.1003 J-0.9949
G01 X5.8111 Y140.1692
G03 X5.6305 Y140.0930 I0.2965 J-0.9550
G01 X3.9319 Y139.1710
G03 X3.7725 Y139.0635 I0.4770 J-0.8789
G01 X2.2925 Y137.8424
G03 X2.1825 Y137.7365 I0.6364 J-0.7713
G01 X0.9365 Y136.2275
G03 X0.8447 Y136.0961 I0.7713 J-0.6364
G01 X-0.0930 Y134.3695
G03 X-0.1692 Y134.1889 I0.8789 J-0.4770
G01 X-0.7519 Y132.3118
G03 X-0.7879 Y132.1488 I0.9550 J-0.2965
G01 X-0.9950 Y130.1003
G03 Y129.8997 I0.9950 J-0.1003
G01 X-0.7918 Y127.8843
G03 X-0.7613 Y127.7203 I0.9950 J0.1003
G01 X-0.1692 Y125.8111
G03 X-0.1082 Y125.6595 I0.9551 J0.2965
G01 X0.8290 Y123.9319
G03 X0.9165 Y123.7976 I0.8789 J0.4771
G01 X2.1576 Y122.2925
G03 X2.2925 Y122.1576 I0.7713 J0.6364
G01 X3.7725 Y120.9365
G03 X3.9039 Y120.8447 I0.6364 J0.7714
G01 X5.6305 Y119.9070
G03 X5.7800 Y119.8410 I0.4770 J0.8789
G01 X7.6882 Y119.2481
G03 X7.8844 Y119.2082 I0.2965 J0.9550
G01 X9.8997 Y119.0050
G01 X9.9665 Y119.0006
G01 X160.0000 Y119.0000
G01 X160.0669 Y119.0022
G01 X162.1156 Y119.2082
G03 X162.3118 Y119.2481 I-0.1003 J0.9950
G01 X164.1889 Y119.8308
G03 X164.3695 Y119.9070 I-0.2965 J0.9550
G01 X166.0681 Y120.8290
G03 X166.2024 Y120.9165 I-0.4771 J0.8789
G01 X167.7075 Y122.1576
G03 X167.8424 Y122.2925 I-0.6364 J0.7713
G01 X169.0635 Y123.7725
G03 X169.1553 Y123.9039 I-0.7713 J0.6364
G01 X170.0930 Y125.6305
G03 X170.1590 Y125.7800 I-0.8789 J0.4770
G01 X170.7519 Y127.6882
G03 X170.7918 Y127.8844 I-0.9550 J0.2965
G01 X170.9950 Y129.8997
G00 Z5.0000
G00 X0.0000 Y0.0000

M05
M30
